; G-Code generated by Simplify3D(R) Version 4.1.2
; Apr 22, 2020 at 10:00:44 AM
; Settings Summary
;   processName,Process1
;   applyToModels,Door_Opener_Double(2)(3),Door_Opener_Single(2)(3),Corona_Door_OpenerV3
;   profileName,Creality Ender 3 Pro (DOOR 1.0) (modified)
;   profileVersion,2020-04-10 20:01:48
;   baseProfile,Creality Ender 3 Pro (modified)
;   printMaterial,PLA
;   printQuality,MASK-2.3
;   printExtruders,
;   extruderName,Primary Extruder
;   extruderToolheadNumber,0
;   extruderDiameter,0.4
;   extruderAutoWidth,0
;   extruderWidth,0.6
;   extrusionMultiplier,0.9
;   extruderUseRetract,1
;   extruderRetractionDistance,6
;   extruderExtraRestartDistance,0
;   extruderRetractionZLift,0
;   extruderRetractionSpeed,1500
;   extruderUseCoasting,0
;   extruderCoastingDistance,0.2
;   extruderUseWipe,0
;   extruderWipeDistance,5
;   primaryExtruder,0
;   layerHeight,0.3
;   topSolidLayers,4
;   bottomSolidLayers,4
;   perimeterOutlines,3
;   printPerimetersInsideOut,0
;   startPointOption,2
;   startPointOriginX,0
;   startPointOriginY,0
;   sequentialIslands,0
;   spiralVaseMode,0
;   firstLayerHeightPercentage,120
;   firstLayerWidthPercentage,110
;   firstLayerUnderspeed,0.5
;   useRaft,0
;   raftExtruder,0
;   raftTopLayers,3
;   raftBaseLayers,2
;   raftOffset,3
;   raftSeparationDistance,0.14
;   raftTopInfill,100
;   aboveRaftSpeedMultiplier,0.3
;   useSkirt,0
;   skirtExtruder,0
;   skirtLayers,1
;   skirtOutlines,2
;   skirtOffset,4
;   usePrimePillar,0
;   primePillarExtruder,999
;   primePillarWidth,12
;   primePillarLocation,7
;   primePillarSpeedMultiplier,1
;   useOozeShield,0
;   oozeShieldExtruder,999
;   oozeShieldOffset,2
;   oozeShieldOutlines,1
;   oozeShieldSidewallShape,1
;   oozeShieldSidewallAngle,30
;   oozeShieldSpeedMultiplier,1
;   infillExtruder,0
;   internalInfillPattern,Rectilinear
;   externalInfillPattern,Rectilinear
;   infillPercentage,100
;   outlineOverlapPercentage,15
;   infillExtrusionWidthPercentage,100
;   minInfillLength,5
;   infillLayerInterval,1
;   internalInfillAngles,45,-45
;   overlapInternalInfillAngles,0
;   externalInfillAngles,45,-45
;   generateSupport,0
;   supportExtruder,0
;   supportInfillPercentage,25
;   supportExtraInflation,0
;   supportBaseLayers,0
;   denseSupportExtruder,0
;   denseSupportLayers,0
;   denseSupportInfillPercentage,70
;   supportLayerInterval,1
;   supportHorizontalPartOffset,0.3
;   supportUpperSeparationLayers,1
;   supportLowerSeparationLayers,1
;   supportType,0
;   supportGridSpacing,4
;   maxOverhangAngle,45
;   supportAngles,0
;   temperatureName,Primary Extruder,Heated Bed
;   temperatureNumber,0,0
;   temperatureSetpointCount,1,1
;   temperatureSetpointLayers,1,1
;   temperatureSetpointTemperatures,200,60
;   temperatureStabilizeAtStartup,1,1
;   temperatureHeatedBed,0,1
;   fanLayers,1,2
;   fanSpeeds,0,100
;   blipFanToFullPower,0
;   adjustSpeedForCooling,1
;   minSpeedLayerTime,15
;   minCoolingSpeedSlowdown,20
;   increaseFanForCooling,0
;   minFanLayerTime,45
;   maxCoolingFanSpeed,100
;   increaseFanForBridging,0
;   bridgingFanSpeed,100
;   use5D,1
;   relativeEdistances,0
;   allowEaxisZeroing,1
;   independentExtruderAxes,0
;   includeM10123,0
;   stickySupport,1
;   applyToolheadOffsets,0
;   gcodeXoffset,0
;   gcodeYoffset,0
;   gcodeZoffset,0
;   overrideMachineDefinition,1
;   machineTypeOverride,0
;   strokeXoverride,220
;   strokeYoverride,220
;   strokeZoverride,250
;   originOffsetXoverride,-5
;   originOffsetYoverride,-5
;   originOffsetZoverride,0
;   homeXdirOverride,-1
;   homeYdirOverride,-1
;   homeZdirOverride,-1
;   flipXoverride,1
;   flipYoverride,-1
;   flipZoverride,1
;   toolheadOffsets,0,0|0,0|0,0|0,0|0,0|0,0
;   overrideFirmwareConfiguration,1
;   firmwareTypeOverride,RepRap (Marlin/Repetier/Sprinter)
;   GPXconfigOverride,r2
;   baudRateOverride,115200
;   overridePrinterModels,1
;   printerModelsOverride
;   startingGcode,G28 ; home all axes,G1 X5 Y10 Z0.2 F3000 ; get ready to prime,G92 E0 ; reset extrusion distance,G1 X160 E15 F600 ; prime nozzle,G1 X180 F5000 ; quick wipe
;   layerChangeGcode,
;   retractionGcode,
;   toolChangeGcode,
;   endingGcode,G28 X0 ; home X axis,M106 S0 ; turn off cooling fan,M104 S0 ; turn off extruder,M140 S0 ; turn off bed,M84 ; disable motors
;   exportFileFormat,gcode
;   celebration,0
;   celebrationSong,Random Song
;   postProcessing,
;   defaultSpeed,3000
;   outlineUnderspeed,0.75
;   solidInfillUnderspeed,0.8
;   supportUnderspeed,0.8
;   rapidXYspeed,4800
;   rapidZspeed,1000
;   minBridgingArea,50
;   bridgingExtraInflation,0
;   bridgingExtrusionMultiplier,1
;   bridgingSpeedMultiplier,1
;   useFixedBridgingAngle,0
;   fixedBridgingAngle,0
;   applyBridgingToPerimeters,0
;   filamentDiameters,1.75|1.75|1.75|1.75|1.75|1.75
;   filamentPricesPerKg,25|46|46|46|46|46
;   filamentDensities,1.25|1.25|1.25|1.25|1.25|1.25
;   useMinPrintHeight,0
;   minPrintHeight,9
;   useMaxPrintHeight,0
;   maxPrintHeight,9
;   useDiaphragm,0
;   diaphragmLayerInterval,20
;   robustSlicing,1
;   mergeAllIntoSolid,0
;   onlyRetractWhenCrossingOutline,1
;   retractBetweenLayers,1
;   useRetractionMinTravel,0
;   retractionMinTravel,3
;   retractWhileWiping,0
;   onlyWipeOutlines,1
;   avoidCrossingOutline,0
;   maxMovementDetourFactor,3
;   toolChangeRetractionDistance,12
;   toolChangeExtraRestartDistance,-0.5
;   toolChangeRetractionSpeed,600
;   externalThinWallType,0
;   internalThinWallType,2
;   thinWallAllowedOverlapPercentage,10
;   singleExtrusionMinLength,1
;   singleExtrusionMinPrintingWidthPercentage,50
;   singleExtrusionMaxPrintingWidthPercentage,200
;   singleExtrusionEndpointExtension,0.2
;   horizontalSizeCompensation,0
G90
M82
M106 S0
M140 S60
M190 S60
M104 S200 T0
M109 S200 T0
G28 ; home all axes
G1 X5 Y10 Z0.2 F3000 ; get ready to prime
G92 E0 ; reset extrusion distance
G1 X160 E15 F600 ; prime nozzle
G1 X180 F5000 ; quick wipe
; process Process1
; layer 1, Z = 0.360
T0
G92 E0.0000
G1 E-6.0000 F1500
; feature outer perimeter
; tool H0.360 W0.660
G1 Z0.360 F1000
G1 X65.560 Y43.939 F4800
G1 E0.0000 F1500
G92 E0.0000
G1 X65.947 Y43.503 E0.0519 F1125
G1 X66.370 Y43.101 E0.1038
G1 X66.825 Y42.738 E0.1555
G1 X67.306 Y42.417 E0.2069
G1 X67.808 Y42.142 E0.2578
G1 X68.323 Y41.912 E0.3080
G1 X68.847 Y41.729 E0.3573
G1 X69.373 Y41.592 E0.4056
G1 X69.896 Y41.499 E0.4529
G1 X70.411 Y41.449 E0.4989
G1 X70.914 Y41.438 E0.5436
G1 X71.423 Y41.464 E0.5889
G1 X71.942 Y41.531 E0.6354
G1 X72.465 Y41.641 E0.6829
G1 X73.111 Y41.838 E0.7430
G1 X73.468 Y41.980 E0.7771
G1 X77.358 Y43.818 E1.1596
G1 X82.734 Y46.421 E1.6906
G1 X82.933 Y46.493 E1.7095
G1 X83.166 Y46.606 E1.7325
G1 X83.640 Y46.786 E1.7776
G1 X84.128 Y46.940 E1.8231
G1 X84.634 Y47.067 E1.8694
G1 X85.157 Y47.166 E1.9168
G1 X85.864 Y47.246 E1.9800
G1 X86.093 Y47.400 E2.0045
G1 X86.330 Y47.501 E2.0274
G1 X86.579 Y47.562 E2.0502
G1 X86.664 Y47.563 E2.0578
G1 X86.759 Y47.588 E2.0665
G1 X104.466 Y47.765 E3.6408
G1 X104.583 Y47.743 E3.6514
G1 X105.190 Y47.706 E3.7055
G1 X105.460 Y47.668 E3.7297
G1 X105.980 Y47.558 E3.7770
G1 X106.505 Y47.395 E3.8258
G1 X107.023 Y47.180 E3.8757
G1 X107.527 Y46.912 E3.9264
G1 X108.003 Y46.596 E3.9772
G1 X108.460 Y46.248 E4.0283
G1 X110.843 Y44.104 E4.3133
G1 X110.945 Y43.997 E4.3265
G1 X111.315 Y43.720 E4.3675
G1 X111.568 Y43.552 E4.3946
G1 X112.109 Y43.258 E4.4493
G1 X112.668 Y43.033 E4.5028
G1 X112.940 Y42.949 E4.5281
G1 X113.505 Y42.825 E4.5796
G1 X114.056 Y42.765 E4.6289
G1 X114.599 Y42.762 E4.6771
G1 X114.871 Y42.780 E4.7014
G1 X148.890 Y47.970 E7.7608
G1 X151.291 Y47.962 E7.9743
G1 X152.065 Y48.026 E8.0433
G1 X152.585 Y48.106 E8.0901
G1 X153.110 Y48.220 E8.1379
G1 X153.669 Y48.381 E8.1896
G1 X154.224 Y48.584 E8.2421
G1 X154.771 Y48.828 E8.2953
G1 X155.305 Y49.115 E8.3493
G1 X155.822 Y49.442 E8.4036
G1 X156.318 Y49.808 E8.4584
G1 X156.788 Y50.211 E8.5134
G1 X157.227 Y50.648 E8.5685
G1 X157.633 Y51.115 E8.6235
G1 X158.002 Y51.608 E8.6783
G1 X158.332 Y52.124 E8.7328
G1 X158.622 Y52.657 E8.7867
G1 X158.870 Y53.203 E8.8401
G1 X159.075 Y53.756 E8.8925
G1 X159.312 Y54.596 E8.9701
G1 X159.352 Y54.840 E8.9921
G1 X159.352 Y55.103 E9.0155
G1 X159.261 Y55.319 E9.0362
G1 X159.240 Y55.345 E9.0392
G1 X159.136 Y55.427 E9.0510
G1 X159.032 Y55.464 E9.0608
G1 X158.160 Y55.611 E9.1394
G1 X157.344 Y55.775 E9.2134
G1 X156.534 Y55.981 E9.2877
G1 X155.738 Y56.230 E9.3619
G1 X154.956 Y56.520 E9.4360
G1 X154.193 Y56.852 E9.5100
G1 X153.450 Y57.226 E9.5840
G1 X152.730 Y57.642 E9.6579
G1 X152.036 Y58.101 E9.7318
G1 X151.374 Y58.600 E9.8056
G1 X150.745 Y59.139 E9.8792
G1 X150.155 Y59.717 E9.9526
G1 X149.607 Y60.332 E10.0259
G1 X149.105 Y60.985 E10.0991
G1 X148.652 Y61.672 E10.1722
G1 X148.255 Y62.389 E10.2451
G1 X147.970 Y63.003 E10.3053
G1 X147.726 Y63.632 E10.3653
G1 X147.527 Y64.271 E10.4248
G1 X147.467 Y64.495 E10.4454
G1 X146.020 Y64.495 E10.5740
G1 X145.645 Y64.545 E10.6077
G1 X145.275 Y64.698 E10.6433
G1 X144.958 Y64.941 E10.6788
G1 X144.714 Y65.259 E10.7144
G1 X144.561 Y65.629 E10.7500
G1 X144.512 Y66.004 E10.7836
G1 X144.512 Y67.647 E10.9297
G1 X144.561 Y68.022 E10.9633
G1 X144.714 Y68.392 E10.9989
G1 X144.958 Y68.709 E11.0345
G1 X145.275 Y68.953 E11.0701
G1 X145.645 Y69.106 E11.1056
G1 X146.020 Y69.155 E11.1393
G1 X147.482 Y69.155 E11.2693
G1 X147.605 Y69.650 E11.3146
G1 X147.930 Y70.555 E11.4001
G1 X148.339 Y71.427 E11.4857
G1 X148.827 Y72.261 E11.5716
G1 X149.390 Y73.050 E11.6578
G1 X150.019 Y73.791 E11.7442
G1 X150.706 Y74.479 E11.8307
G1 X151.446 Y75.112 E11.9172
G1 X152.231 Y75.688 E12.0038
G1 X153.056 Y76.207 E12.0904
G1 X153.917 Y76.668 E12.1773
G1 X154.809 Y77.072 E12.2644
G1 X155.727 Y77.419 E12.3516
G1 X156.667 Y77.708 E12.4390
G1 X157.620 Y77.938 E12.5262
G1 X158.692 Y78.151 E12.6233
G1 X158.711 Y78.140 E12.6253
G1 X158.857 Y78.216 E12.6399
G1 X158.979 Y78.355 E12.6564
G1 X159.050 Y78.530 E12.6732
G1 X159.049 Y78.632 E12.6822
G1 X159.021 Y78.729 E12.6912
G1 X158.952 Y79.223 E12.7355
G1 X158.820 Y79.690 E12.7787
G1 X158.654 Y80.161 E12.8230
G1 X158.458 Y80.627 E12.8680
G1 X158.230 Y81.085 E12.9135
G1 X157.971 Y81.532 E12.9594
G1 X157.682 Y81.965 E13.0057
G1 X157.365 Y82.381 E13.0522
G1 X157.020 Y82.777 E13.0988
G1 X156.651 Y83.150 E13.1455
G1 X156.258 Y83.498 E13.1922
G1 X155.843 Y83.821 E13.2389
G1 X155.414 Y84.112 E13.2850
G1 X154.969 Y84.375 E13.3310
G1 X154.513 Y84.608 E13.3766
G1 X154.052 Y84.807 E13.4211
G1 X153.289 Y85.066 E13.4928
G1 X152.529 Y85.245 E13.5622
G1 X151.775 Y85.348 E13.6298
G1 X132.250 Y85.343 E15.3657
G1 X132.072 Y85.354 E15.3816
G1 X132.013 Y85.350 E15.3869
G1 X131.766 Y85.279 E15.4097
G1 X131.524 Y85.154 E15.4339
G1 X131.304 Y84.976 E15.4591
G1 X131.189 Y84.844 E15.4746
G1 X131.091 Y84.696 E15.4905
G1 X131.025 Y84.562 E15.5037
G1 X130.994 Y84.383 E15.5198
G1 X130.757 Y83.505 E15.6007
G1 X130.683 Y83.301 E15.6200
G1 X130.663 Y83.129 E15.6354
G1 X130.671 Y82.720 E15.6718
G1 X130.703 Y82.524 E15.6894
G1 X130.757 Y82.319 E15.7082
G1 X130.831 Y82.122 E15.7270
G1 X131.019 Y81.774 E15.7622
G1 X131.105 Y81.655 E15.7752
G1 X131.327 Y81.409 E15.8047
G1 X131.568 Y81.214 E15.8322
G1 X131.877 Y81.066 E15.8627
G1 X132.845 Y80.500 E15.9623
G1 X133.797 Y79.897 E16.0626
G1 X134.714 Y79.219 E16.1640
G1 X135.583 Y78.473 E16.2658
G1 X136.403 Y77.661 E16.3684
G1 X137.151 Y76.803 E16.4696
G1 X137.837 Y75.891 E16.5710
G1 X138.452 Y74.938 E16.6719
G1 X138.993 Y73.953 E16.7718
G1 X139.458 Y72.943 E16.8706
G1 X139.846 Y71.918 E16.9681
G1 X140.158 Y70.885 E17.0640
G1 X140.395 Y69.852 E17.1582
G1 X140.560 Y68.827 E17.2505
G1 X140.656 Y67.816 E17.3408
G1 X140.687 Y66.824 E17.4290
G1 X140.642 Y65.642 E17.5342
G1 X140.505 Y64.431 E17.6425
G1 X140.267 Y63.204 E17.7536
G1 X139.925 Y61.973 E17.8673
G1 X139.475 Y60.749 E17.9832
G1 X138.917 Y59.548 E18.1010
G1 X138.250 Y58.382 E18.2203
G1 X137.479 Y57.267 E18.3409
G1 X136.611 Y56.216 E18.4621
G1 X135.653 Y55.241 E18.5836
G1 X134.616 Y54.354 E18.7049
G1 X133.512 Y53.563 E18.8256
G1 X132.356 Y52.875 E18.9452
G1 X131.160 Y52.295 E19.0634
G1 X129.944 Y51.825 E19.1793
G1 X128.993 Y51.515 E19.2682
G1 X128.484 Y51.496 E19.3135
G1 X128.095 Y51.572 E19.3488
G1 X127.931 Y51.588 E19.3634
G1 X126.871 Y51.853 E19.4606
G1 X126.670 Y51.931 E19.4797
G1 X126.364 Y52.021 E19.5080
G1 X125.383 Y52.433 E19.6026
G1 X125.216 Y52.474 E19.6179
G1 X124.964 Y52.496 E19.6405
G1 X123.600 Y52.549 E19.7618
G1 X122.231 Y52.735 E19.8846
G1 X120.886 Y53.052 E20.0075
G1 X119.578 Y53.496 E20.1303
G1 X118.319 Y54.065 E20.2531
G1 X117.121 Y54.752 E20.3759
G1 X116.005 Y55.544 E20.4975
G1 X114.758 Y56.459 E20.6350
G1 X113.466 Y57.284 E20.7713
G1 X112.120 Y58.025 E20.9079
G1 X111.198 Y58.478 E20.9993
G1 X104.712 Y61.550 E21.6373
G1 X103.532 Y62.177 E21.7561
G1 X102.410 Y62.917 E21.8756
G1 X101.362 Y63.759 E21.9951
G1 X100.398 Y64.695 E22.1146
G1 X99.526 Y65.717 E22.2341
G1 X98.752 Y66.818 E22.3536
G1 X97.562 Y68.926 E22.5688
G1 X96.970 Y69.828 E22.6648
G1 X96.315 Y70.685 E22.7607
G1 X95.413 Y71.701 E22.8815
G1 X95.437 Y71.734 E22.8851
G1 X86.776 Y79.729 E23.9331
G1 X86.661 Y79.811 E23.9456
G1 X86.549 Y79.853 E23.9563
G1 X86.429 Y79.865 E23.9670
G1 X86.311 Y79.847 E23.9776
G1 X86.201 Y79.799 E23.9883
G1 X86.107 Y79.724 E23.9990
G1 X86.035 Y79.628 E24.0096
G1 X85.990 Y79.517 E24.0203
G1 X85.972 Y79.377 E24.0328
G1 X85.972 Y76.636 E24.2765
G1 X86.172 Y76.544 E24.2961
G1 X86.043 Y76.015 E24.3445
G1 X85.182 Y76.057 E24.4211
G1 X85.120 Y75.900 E24.4361
G1 X85.017 Y75.728 E24.4539
G1 X84.886 Y75.573 E24.4720
G1 X84.731 Y75.442 E24.4901
G1 X84.559 Y75.339 E24.5079
G1 X84.377 Y75.267 E24.5252
G1 X84.174 Y75.221 E24.5437
G1 X84.122 Y75.224 E24.5484
G1 X84.063 Y75.205 E24.5539
G1 X83.622 Y75.212 E24.5931
G1 X83.127 Y75.194 E24.6371
G1 X82.221 Y75.132 E24.7179
G1 X81.305 Y75.029 E24.7998
G1 X80.381 Y74.880 E24.8830
G1 X79.452 Y74.685 E24.9674
G1 X78.520 Y74.442 E25.0530
G1 X77.590 Y74.151 E25.1397
G1 X76.664 Y73.811 E25.2274
G1 X75.748 Y73.422 E25.3159
G1 X74.843 Y72.982 E25.4053
G1 X73.955 Y72.494 E25.4954
G1 X73.091 Y71.961 E25.5857
G1 X72.244 Y71.375 E25.6772
G1 X71.428 Y70.747 E25.7688
G1 X70.644 Y70.076 E25.8605
G1 X69.895 Y69.364 E25.9524
G1 X69.183 Y68.615 E26.0443
G1 X68.512 Y67.831 E26.1360
G1 X67.884 Y67.015 E26.2276
G1 X67.298 Y66.168 E26.3191
G1 X66.765 Y65.304 E26.4094
G1 X66.277 Y64.416 E26.4995
G1 X65.837 Y63.511 E26.5889
G1 X65.448 Y62.595 E26.6774
G1 X65.108 Y61.669 E26.7651
G1 X64.817 Y60.739 E26.8518
G1 X64.574 Y59.807 E26.9374
G1 X64.379 Y58.878 E27.0218
G1 X64.230 Y57.954 E27.1050
G1 X64.127 Y57.040 E27.1867
G1 X64.047 Y55.631 E27.3122
G1 X64.043 Y48.035 E27.9875
G1 X64.095 Y47.390 E28.0451
G1 X64.159 Y46.974 E28.0825
G1 X64.250 Y46.554 E28.1207
G1 X64.371 Y46.133 E28.1596
G1 X64.519 Y45.720 E28.1987
G1 X64.913 Y44.892 E28.2801
G1 X65.213 Y44.406 E28.3310
G1 X65.560 Y43.939 E28.3826
; feature inner perimeter
G1 X66.073 Y44.356 F4800
G92 E0.0000
G1 X66.422 Y43.962 E0.0468 F1313
G1 X66.804 Y43.599 E0.0936
G1 X67.214 Y43.271 E0.1403
G1 X67.649 Y42.982 E0.1867
G1 X68.101 Y42.733 E0.2326
G1 X68.567 Y42.526 E0.2779
G1 X69.040 Y42.361 E0.3225
G1 X69.514 Y42.237 E0.3661
G1 X69.986 Y42.154 E0.4087
G1 X70.451 Y42.108 E0.4502
G1 X70.904 Y42.098 E0.4905
G1 X71.363 Y42.122 E0.5314
G1 X71.831 Y42.183 E0.5733
G1 X72.301 Y42.281 E0.6160
G1 X72.893 Y42.462 E0.6710
G1 X73.205 Y42.585 E0.7009
G1 X77.073 Y44.414 E1.0812
G1 X82.477 Y47.030 E1.6151
G1 X82.677 Y47.103 E1.6340
G1 X82.905 Y47.212 E1.6565
G1 X83.424 Y47.409 E1.7057
G1 X83.948 Y47.575 E1.7546
G1 X84.492 Y47.712 E1.8045
G1 X85.058 Y47.819 E1.8558
G1 X85.631 Y47.884 E1.9070
G1 X85.777 Y47.982 E1.9226
G1 X86.119 Y48.129 E1.9557
G1 X86.496 Y48.221 E1.9902
G1 X86.576 Y48.222 E1.9973
G1 X86.671 Y48.247 E2.0061
G1 X104.523 Y48.425 E3.5933
G1 X104.664 Y48.400 E3.6060
G1 X105.257 Y48.363 E3.6588
G1 X105.574 Y48.318 E3.6873
G1 X106.146 Y48.197 E3.7393
G1 X106.730 Y48.017 E3.7936
G1 X107.305 Y47.778 E3.8490
G1 X107.865 Y47.480 E3.9054
G1 X108.386 Y47.134 E3.9609
G1 X108.882 Y46.757 E4.0163
G1 X111.302 Y44.579 E4.3058
G1 X111.384 Y44.493 E4.3163
G1 X111.696 Y44.259 E4.3510
G1 X111.909 Y44.118 E4.3737
