; G-Code generated by Simplify3D(R) Version 4.1.2
; Apr 11, 2020 at 2:27:56 PM
; Settings Summary
;   processName,Process1
;   applyToModels,Surgical_Mask_Strap_Remix_0
;   profileName,Creality Ender 3 Pro (modified)
;   profileVersion,2020-04-11 07:39:05
;   baseProfile,
;   printMaterial,PLA
;   printQuality,Medium
;   printExtruders,
;   extruderName,Primary Extruder
;   extruderToolheadNumber,0
;   extruderDiameter,0.4
;   extruderAutoWidth,0
;   extruderWidth,0.4
;   extrusionMultiplier,0.9
;   extruderUseRetract,1
;   extruderRetractionDistance,6
;   extruderExtraRestartDistance,0
;   extruderRetractionZLift,0
;   extruderRetractionSpeed,1500
;   extruderUseCoasting,0
;   extruderCoastingDistance,0.2
;   extruderUseWipe,0
;   extruderWipeDistance,5
;   primaryExtruder,0
;   layerHeight,0.2
;   topSolidLayers,3
;   bottomSolidLayers,3
;   perimeterOutlines,2
;   printPerimetersInsideOut,1
;   startPointOption,2
;   startPointOriginX,0
;   startPointOriginY,0
;   sequentialIslands,0
;   spiralVaseMode,0
;   firstLayerHeightPercentage,120
;   firstLayerWidthPercentage,150
;   firstLayerUnderspeed,0.5
;   useRaft,0
;   raftExtruder,0
;   raftTopLayers,3
;   raftBaseLayers,2
;   raftOffset,3
;   raftSeparationDistance,0.14
;   raftTopInfill,100
;   aboveRaftSpeedMultiplier,0.3
;   useSkirt,0
;   skirtExtruder,0
;   skirtLayers,1
;   skirtOutlines,2
;   skirtOffset,4
;   usePrimePillar,0
;   primePillarExtruder,999
;   primePillarWidth,12
;   primePillarLocation,7
;   primePillarSpeedMultiplier,1
;   useOozeShield,0
;   oozeShieldExtruder,999
;   oozeShieldOffset,2
;   oozeShieldOutlines,1
;   oozeShieldSidewallShape,1
;   oozeShieldSidewallAngle,30
;   oozeShieldSpeedMultiplier,1
;   infillExtruder,0
;   internalInfillPattern,Rectilinear
;   externalInfillPattern,Rectilinear
;   infillPercentage,20
;   outlineOverlapPercentage,15
;   infillExtrusionWidthPercentage,100
;   minInfillLength,5
;   infillLayerInterval,1
;   internalInfillAngles,45,-45
;   overlapInternalInfillAngles,0
;   externalInfillAngles,45,-45
;   generateSupport,0
;   supportExtruder,0
;   supportInfillPercentage,30
;   supportExtraInflation,0
;   supportBaseLayers,0
;   denseSupportExtruder,0
;   denseSupportLayers,0
;   denseSupportInfillPercentage,70
;   supportLayerInterval,1
;   supportHorizontalPartOffset,0.3
;   supportUpperSeparationLayers,1
;   supportLowerSeparationLayers,1
;   supportType,0
;   supportGridSpacing,4
;   maxOverhangAngle,45
;   supportAngles,0
;   temperatureName,Primary Extruder,Heated Bed
;   temperatureNumber,0,0
;   temperatureSetpointCount,1,1
;   temperatureSetpointLayers,1,1
;   temperatureSetpointTemperatures,200,60
;   temperatureStabilizeAtStartup,1,1
;   temperatureHeatedBed,0,1
;   fanLayers,1,2
;   fanSpeeds,0,100
;   blipFanToFullPower,0
;   adjustSpeedForCooling,1
;   minSpeedLayerTime,15
;   minCoolingSpeedSlowdown,20
;   increaseFanForCooling,0
;   minFanLayerTime,45
;   maxCoolingFanSpeed,100
;   increaseFanForBridging,0
;   bridgingFanSpeed,100
;   use5D,1
;   relativeEdistances,0
;   allowEaxisZeroing,1
;   independentExtruderAxes,0
;   includeM10123,0
;   stickySupport,1
;   applyToolheadOffsets,0
;   gcodeXoffset,0
;   gcodeYoffset,0
;   gcodeZoffset,0
;   overrideMachineDefinition,1
;   machineTypeOverride,0
;   strokeXoverride,220
;   strokeYoverride,220
;   strokeZoverride,250
;   originOffsetXoverride,-5
;   originOffsetYoverride,-5
;   originOffsetZoverride,0
;   homeXdirOverride,-1
;   homeYdirOverride,-1
;   homeZdirOverride,-1
;   flipXoverride,1
;   flipYoverride,-1
;   flipZoverride,1
;   toolheadOffsets,0,0|0,0|0,0|0,0|0,0|0,0
;   overrideFirmwareConfiguration,1
;   firmwareTypeOverride,RepRap (Marlin/Repetier/Sprinter)
;   GPXconfigOverride,r2
;   baudRateOverride,115200
;   overridePrinterModels,1
;   printerModelsOverride
;   startingGcode,G28 ; home all axes,G1 X5 Y10 Z0.2 F3000 ; get ready to prime,G92 E0 ; reset extrusion distance,G1 X160 E15 F600 ; prime nozzle,G1 X180 F5000 ; quick wipe
;   layerChangeGcode,
;   retractionGcode,
;   toolChangeGcode,
;   endingGcode,G28 X0 ; home X axis,M106 S0 ; turn off cooling fan,M104 S0 ; turn off extruder,M140 S0 ; turn off bed,M84 ; disable motors
;   exportFileFormat,gcode
;   celebration,0
;   celebrationSong,Random Song
;   postProcessing,
;   defaultSpeed,3000
;   outlineUnderspeed,0.5
;   solidInfillUnderspeed,0.8
;   supportUnderspeed,0.8
;   rapidXYspeed,4800
;   rapidZspeed,1000
;   minBridgingArea,50
;   bridgingExtraInflation,0
;   bridgingExtrusionMultiplier,1
;   bridgingSpeedMultiplier,1
;   useFixedBridgingAngle,0
;   fixedBridgingAngle,0
;   applyBridgingToPerimeters,0
;   filamentDiameters,1.75|1.75|1.75|1.75|1.75|1.75
;   filamentPricesPerKg,46|46|46|46|46|46
;   filamentDensities,1.25|1.25|1.25|1.25|1.25|1.25
;   useMinPrintHeight,0
;   minPrintHeight,0
;   useMaxPrintHeight,0
;   maxPrintHeight,0
;   useDiaphragm,0
;   diaphragmLayerInterval,20
;   robustSlicing,1
;   mergeAllIntoSolid,0
;   onlyRetractWhenCrossingOutline,1
;   retractBetweenLayers,1
;   useRetractionMinTravel,0
;   retractionMinTravel,3
;   retractWhileWiping,0
;   onlyWipeOutlines,1
;   avoidCrossingOutline,0
;   maxMovementDetourFactor,3
;   toolChangeRetractionDistance,12
;   toolChangeExtraRestartDistance,-0.5
;   toolChangeRetractionSpeed,600
;   externalThinWallType,0
;   internalThinWallType,2
;   thinWallAllowedOverlapPercentage,10
;   singleExtrusionMinLength,1
;   singleExtrusionMinPrintingWidthPercentage,50
;   singleExtrusionMaxPrintingWidthPercentage,200
;   singleExtrusionEndpointExtension,0.2
;   horizontalSizeCompensation,0
G90
M82
M106 S0
M140 S60
M190 S60
M104 S200 T0
M109 S200 T0
G28 ; home all axes
G1 X5 Y10 Z0.2 F3000 ; get ready to prime
G92 E0 ; reset extrusion distance
G1 X160 E15 F600 ; prime nozzle
G1 X180 F5000 ; quick wipe
; process Process1
; layer 1, Z = 0.240
T0
G92 E0.0000
G1 E-6.0000 F1500
; feature inner perimeter
; tool H0.240 W0.600
G1 Z0.240 F1000
G1 X36.205 Y104.877 F4800
G1 E0.0000 F1500
G92 E0.0000
G1 X36.753 Y104.877 E0.0295 F1125
G1 X37.281 Y105.016 E0.0589
G1 X37.753 Y105.291 E0.0884
G1 X38.140 Y105.676 E0.1178
G1 X38.413 Y106.150 E0.1473
G1 X38.554 Y106.677 E0.1767
G1 X38.554 Y107.223 E0.2061
G1 X38.413 Y107.752 E0.2356
G1 X38.140 Y108.224 E0.2650
G1 X37.754 Y108.610 E0.2944
G1 X37.282 Y108.882 E0.3237
G1 X35.874 Y109.257 E0.4023
G1 X36.246 Y112.060 E0.5546
G1 X46.954 Y110.654 E1.1365
G1 X46.302 Y105.716 E1.4049
G1 X46.302 Y105.112 E1.4375
G1 X46.445 Y104.582 E1.4670
G1 X46.716 Y104.110 E1.4964
G1 X47.105 Y103.723 E1.5259
G1 X47.576 Y103.450 E1.5553
G1 X48.104 Y103.309 E1.5847
G1 X48.652 Y103.309 E1.6142
G1 X49.176 Y103.450 E1.6435
G1 X49.649 Y103.723 E1.6729
G1 X50.036 Y104.110 E1.7024
G1 X50.310 Y104.583 E1.7319
G1 X50.452 Y105.112 E1.7614
G1 X50.452 Y105.656 E1.7907
G1 X50.310 Y106.183 E1.8201
G1 X50.036 Y106.658 E1.8496
G1 X49.650 Y107.043 E1.8790
G1 X49.176 Y107.316 E1.9085
G1 X47.775 Y107.692 E1.9866
G1 X48.142 Y110.499 E2.1392
G1 X58.852 Y109.092 E2.7212
G1 X58.200 Y104.150 E2.9898
G1 X58.200 Y103.545 E3.0224
G1 X58.341 Y103.016 E3.0518
G1 X58.614 Y102.544 E3.0812
G1 X59.001 Y102.157 E3.1107
G1 X59.473 Y101.884 E3.1401
G1 X60.002 Y101.743 E3.1696
G1 X60.548 Y101.743 E3.1990
G1 X61.075 Y101.884 E3.2284
G1 X61.549 Y102.157 E3.2579
G1 X61.934 Y102.543 E3.2873
G1 X62.207 Y103.016 E3.3167
G1 X62.348 Y103.545 E3.3462
G1 X62.348 Y104.091 E3.3756
G1 X62.207 Y104.618 E3.4050
G1 X61.934 Y105.091 E3.4344
G1 X61.549 Y105.477 E3.4638
G1 X61.074 Y105.751 E3.4933
G1 X59.670 Y106.129 E3.5717
G1 X60.042 Y108.936 E3.7242
G1 X70.747 Y107.530 E4.3060
G1 X70.098 Y102.582 E4.5749
G1 X70.098 Y101.978 E4.6075
G1 X70.240 Y101.450 E4.6369
G1 X70.513 Y100.977 E4.6663
G1 X70.899 Y100.591 E4.6958
G1 X71.371 Y100.318 E4.7252
G1 X71.898 Y100.177 E4.7546
G1 X72.446 Y100.177 E4.7841
G1 X72.973 Y100.318 E4.8134
G1 X73.446 Y100.591 E4.8429
G1 X73.834 Y100.978 E4.8724
G1 X74.106 Y101.450 E4.9018
G1 X74.248 Y101.978 E4.9312
G1 X74.248 Y102.522 E4.9605
G1 X74.105 Y103.052 E4.9901
G1 X73.834 Y103.524 E5.0195
G1 X73.446 Y103.911 E5.0490
G1 X72.973 Y104.184 E5.0784
G1 X71.569 Y104.559 E5.1567
G1 X71.939 Y107.375 E5.3097
G1 X92.929 Y104.618 E6.4504
G1 X94.352 Y101.181 E6.6508
G1 X94.684 Y100.749 E6.6802
G1 X95.119 Y100.415 E6.7097
G1 X95.620 Y100.206 E6.7390
G1 X96.222 Y100.129 E6.7716
G1 X133.778 Y100.129 E8.7952
G1 X134.380 Y100.206 E8.8279
G1 X134.881 Y100.415 E8.8572
G1 X135.316 Y100.749 E8.8867
G1 X135.648 Y101.181 E8.9161
G1 X137.071 Y104.618 E9.1165
G1 X158.061 Y107.375 E10.2572
G1 X158.431 Y104.559 E10.4102
G1 X157.027 Y104.184 E10.4885
G1 X156.552 Y103.911 E10.5180
G1 X156.167 Y103.525 E10.5474
G1 X155.895 Y103.053 E10.5767
G1 X155.754 Y102.523 E10.6063
G1 X155.754 Y101.977 E10.6357
G1 X155.895 Y101.449 E10.6651
G1 X156.167 Y100.977 E10.6945
G1 X156.552 Y100.591 E10.7239
G1 X157.027 Y100.318 E10.7534
G1 X157.554 Y100.177 E10.7828
G1 X158.102 Y100.177 E10.8123
G1 X158.629 Y100.318 E10.8417
G1 X159.101 Y100.591 E10.8711
G1 X159.487 Y100.977 E10.9005
G1 X159.760 Y101.450 E10.9299
G1 X159.902 Y101.978 E10.9594
G1 X159.902 Y102.582 E10.9919
G1 X159.253 Y107.530 E11.2608
G1 X169.958 Y108.936 E11.8426
G1 X170.330 Y106.129 E11.9952
G1 X168.926 Y105.751 E12.0735
G1 X168.451 Y105.477 E12.1030
G1 X168.066 Y105.091 E12.1324
G1 X167.793 Y104.618 E12.1619
G1 X167.652 Y104.091 E12.1912
G1 X167.652 Y103.545 E12.2207
G1 X167.793 Y103.016 E12.2501
G1 X168.066 Y102.543 E12.2796
G1 X168.451 Y102.157 E12.3090
G1 X168.925 Y101.884 E12.3384
G1 X169.452 Y101.743 E12.3678
G1 X169.998 Y101.743 E12.3972
G1 X170.527 Y101.884 E12.4267
G1 X170.999 Y102.157 E12.4561
G1 X171.386 Y102.544 E12.4856
G1 X171.659 Y103.016 E12.5150
G1 X171.800 Y103.545 E12.5445
G1 X171.800 Y104.150 E12.5771
G1 X171.148 Y109.092 E12.8457
G1 X181.858 Y110.499 E13.4277
G1 X182.225 Y107.691 E13.5802
G1 X180.822 Y107.316 E13.6585
G1 X180.350 Y107.043 E13.6879
G1 X179.962 Y106.658 E13.7173
G1 X179.691 Y106.184 E13.7467
G1 X179.548 Y105.656 E13.7762
G1 X179.548 Y105.112 E13.8055
G1 X179.691 Y104.582 E13.8351
G1 X179.962 Y104.110 E13.8644
G1 X180.351 Y103.723 E13.8940
G1 X180.822 Y103.450 E13.9233
G1 X181.348 Y103.309 E13.9527
G1 X181.898 Y103.309 E13.9823
G1 X182.424 Y103.450 E14.0117
G1 X182.895 Y103.723 E14.0410
G1 X183.282 Y104.110 E14.0705
G1 X183.556 Y104.583 E14.0999
G1 X183.698 Y105.112 E14.1294
G1 X183.698 Y105.716 E14.1620
G1 X183.048 Y110.654 E14.4304
G1 X193.757 Y112.061 E15.0123
G1 X194.125 Y109.257 E15.1647
G1 X192.718 Y108.882 E15.2432
G1 X192.246 Y108.610 E15.2725
G1 X191.860 Y108.224 E15.3019
G1 X191.587 Y107.752 E15.3313
G1 X191.446 Y107.223 E15.3608
G1 X191.446 Y106.677 E15.3902
G1 X191.587 Y106.150 E15.4196
G1 X191.860 Y105.676 E15.4491
G1 X192.247 Y105.291 E15.4785
G1 X192.719 Y105.016 E15.5079
G1 X193.247 Y104.877 E15.5373
G1 X193.795 Y104.877 E15.5669
G1 X194.321 Y105.016 E15.5962
G1 X194.795 Y105.291 E15.6257
G1 X195.180 Y105.675 E15.6550
G1 X195.453 Y106.150 E15.6845
G1 X195.594 Y106.677 E15.7139
G1 X195.594 Y107.282 E15.7465
G1 X192.865 Y128.014 E16.8732
G1 X192.709 Y128.600 E16.9059
G1 X192.436 Y129.072 E16.9353
G1 X192.049 Y129.459 E16.9648
G1 X191.578 Y129.732 E16.9941
G1 X191.049 Y129.871 E17.0236
G1 X190.501 Y129.871 E17.0531
G1 X189.974 Y129.732 E17.0825
G1 X189.501 Y129.459 E17.1119
G1 X189.116 Y129.073 E17.1413
G1 X188.843 Y128.600 E17.1707
G1 X188.702 Y128.071 E17.2002
G1 X188.702 Y127.523 E17.2297
G1 X188.843 Y126.998 E17.2590
G1 X189.116 Y126.523 E17.2885
G1 X189.501 Y126.139 E17.3178
G1 X189.975 Y125.864 E17.3473
G1 X190.501 Y125.725 E17.3767
G1 X191.954 Y125.725 E17.4550
G1 X192.373 Y122.580 E17.6259
G1 X181.663 Y121.176 E18.2079
G1 X180.967 Y126.447 E18.4944
G1 X180.811 Y127.032 E18.5270
G1 X180.538 Y127.506 E18.5565
G1 X180.152 Y127.891 E18.5859
G1 X179.679 Y128.164 E18.6153
G1 X179.152 Y128.305 E18.6447
G1 X178.606 Y128.305 E18.6741
G1 X178.077 Y128.164 E18.7036
G1 X177.604 Y127.891 E18.7331
G1 X177.218 Y127.506 E18.7624
G1 X176.945 Y127.032 E18.7919
G1 X176.804 Y126.505 E18.8213
G1 X176.804 Y125.959 E18.8507
G1 X176.945 Y125.430 E18.8802
G1 X177.218 Y124.958 E18.9096
G1 X177.605 Y124.571 E18.9391
G1 X178.077 Y124.298 E18.9685
G1 X178.606 Y124.157 E18.9979
G1 X180.059 Y124.157 E19.0762
G1 X180.475 Y121.018 E19.2468
G1 X169.763 Y119.614 E19.8290
G1 X169.071 Y124.880 E20.1152
G1 X168.914 Y125.466 E20.1478
G1 X168.642 Y125.938 E20.1772
G1 X168.253 Y126.325 E20.2067
G1 X167.781 Y126.599 E20.2361
G1 X167.253 Y126.741 E20.2656
G1 X166.707 Y126.741 E20.2950
G1 X166.180 Y126.599 E20.3244
G1 X165.707 Y126.325 E20.3539
G1 X165.321 Y125.939 E20.3833
G1 X165.048 Y125.466 E20.4127
G1 X164.906 Y124.938 E20.4422
G1 X164.906 Y124.394 E20.4715
G1 X165.049 Y123.864 E20.5011
G1 X165.321 Y123.391 E20.5305
G1 X165.707 Y123.005 E20.5599
G1 X166.179 Y122.732 E20.5893
G1 X166.706 Y122.591 E20.6187
G1 X168.161 Y122.591 E20.6971
G1 X168.574 Y119.456 E20.8675
G1 X157.865 Y118.049 E21.4494
G1 X157.171 Y123.316 E21.7357
G1 X157.017 Y123.901 E21.7682
G1 X156.744 Y124.372 E21.7976
G1 X156.357 Y124.759 E21.8270
G1 X155.885 Y125.032 E21.8564
G1 X155.356 Y125.173 E21.8859
G1 X154.808 Y125.173 E21.9154
G1 X154.283 Y125.032 E21.9447
G1 X153.809 Y124.759 E21.9742
G1 X153.424 Y124.373 E22.0036
G1 X153.150 Y123.899 E22.0331
G1 X153.008 Y123.372 E22.0625
G1 X153.008 Y122.826 E22.0919
G1 X153.150 Y122.299 E22.1213
G1 X153.424 Y121.825 E22.1508
G1 X153.809 Y121.439 E22.1802
G1 X154.283 Y121.166 E22.2097
G1 X154.808 Y121.025 E22.2390
G1 X156.263 Y121.025 E22.3174
G1 X156.676 Y117.894 E22.4875
G1 X139.296 Y115.612 E23.4320
G1 X139.271 Y116.756 E23.4937
G1 X139.244 Y116.977 E23.5057
G1 X139.200 Y117.126 E23.5140
G1 X139.145 Y117.231 E23.5204
G1 X139.074 Y117.318 E23.5265
G1 X138.954 Y117.416 E23.5348
G1 X138.731 Y117.514 E23.5479
G1 X138.653 Y117.537 E23.5524
G1 X138.368 Y117.595 E23.5680
G1 X138.036 Y117.625 E23.5860
G1 X91.964 Y117.625 E26.0684
G1 X91.632 Y117.595 E26.0864
G1 X91.347 Y117.538 E26.1020
G1 X91.268 Y117.513 E26.1065
G1 X91.048 Y117.418 E26.1194
G1 X90.928 Y117.320 E26.1277
G1 X90.857 Y117.231 E26.1339
G1 X90.799 Y117.123 E26.1405
G1 X90.756 Y116.977 E26.1487
G1 X90.729 Y116.761 E26.1604
G1 X90.717 Y115.611 E26.2224
G1 X73.324 Y117.894 E27.1676
G1 X73.737 Y121.025 E27.3378
G1 X75.190 Y121.025 E27.4160
G1 X75.717 Y121.166 E27.4455
G1 X76.192 Y121.439 E27.4750
G1 X76.578 Y121.826 E27.5044
G1 X76.851 Y122.298 E27.5338
G1 X76.992 Y122.825 E27.5632
G1 X76.992 Y123.373 E27.5927
G1 X76.851 Y123.900 E27.6221
G1 X76.578 Y124.372 E27.6515
G1 X76.192 Y124.759 E27.6809
G1 X75.717 Y125.032 E27.7105
G1 X75.190 Y125.173 E27.7399
G1 X74.644 Y125.173 E27.7693
G1 X74.117 Y125.032 E27.7987
G1 X73.643 Y124.759 E27.8281
G1 X73.258 Y124.372 E27.8576
G1 X72.983 Y123.900 E27.8870
G1 X72.829 Y123.316 E27.9195
G1 X72.135 Y118.049 E28.2058
G1 X61.426 Y119.456 E28.7877
G1 X61.839 Y122.591 E28.9581
G1 X63.294 Y122.591 E29.0365
G1 X63.821 Y122.732 E29.0659
G1 X64.293 Y123.005 E29.0953
G1 X64.679 Y123.391 E29.1247
G1 X64.951 Y123.864 E29.1541
G1 X65.094 Y124.394 E29.1837
G1 X65.094 Y124.938 E29.2130
G1 X64.952 Y125.466 E29.2424
G1 X64.679 Y125.939 E29.2718
G1 X64.293 Y126.325 E29.3013
G1 X63.820 Y126.599 E29.3307
G1 X63.293 Y126.741 E29.3602
G1 X62.747 Y126.741 E29.3896
G1 X62.219 Y126.599 E29.4190
G1 X61.747 Y126.325 E29.4484
G1 X61.358 Y125.938 E29.4780
G1 X61.086 Y125.466 E29.5073
G1 X60.929 Y124.880 E29.5400
G1 X60.237 Y119.614 E29.8262
G1 X49.529 Y121.018 E30.4082
G1 X49.940 Y124.157 E30.5788
G1 X51.394 Y124.157 E30.6571
G1 X51.923 Y124.298 E30.6866
G1 X52.395 Y124.571 E30.7160
G1 X52.782 Y124.958 E30.7454
G1 X53.055 Y125.430 E30.7748
G1 X53.196 Y125.959 E30.8043
G1 X53.196 Y126.505 E30.8337
G1 X53.055 Y127.032 E30.8632
G1 X52.782 Y127.506 E30.8926
G1 X52.396 Y127.891 E30.9220
G1 X51.923 Y128.164 E30.9514
G1 X51.394 Y128.305 E30.9809
G1 X50.848 Y128.305 E31.0103
G1 X50.321 Y128.164 E31.0397
G1 X49.848 Y127.891 E31.0692
G1 X49.462 Y127.506 E31.0985
G1 X49.188 Y127.031 E31.1280
G1 X49.031 Y126.446 E31.1607
G1 X48.337 Y121.176 E31.4471
G1 X37.628 Y122.580 E32.0291
