; G-Code generated by Simplify3D(R) Version 4.1.2
; Jun 4, 2020 at 6:32:31 AM
; Settings Summary
;   processName,Process1
;   applyToModels,Surgical_Mask_Strap_Remix_0
;   profileName,Creality Ender 3 Pro (modified)
;   profileVersion,2019-04-06 08:00:00
;   baseProfile,
;   printMaterial,PLA
;   printQuality,Fast
;   printExtruders,
;   extruderName,Primary Extruder
;   extruderToolheadNumber,0
;   extruderDiameter,0.4
;   extruderAutoWidth,0
;   extruderWidth,0.4
;   extrusionMultiplier,0.9
;   extruderUseRetract,1
;   extruderRetractionDistance,4
;   extruderExtraRestartDistance,0
;   extruderRetractionZLift,0
;   extruderRetractionSpeed,2400
;   extruderUseCoasting,0
;   extruderCoastingDistance,0.2
;   extruderUseWipe,0
;   extruderWipeDistance,5
;   primaryExtruder,0
;   layerHeight,0.3
;   topSolidLayers,3
;   bottomSolidLayers,3
;   perimeterOutlines,2
;   printPerimetersInsideOut,1
;   startPointOption,2
;   startPointOriginX,0
;   startPointOriginY,0
;   sequentialIslands,0
;   spiralVaseMode,0
;   firstLayerHeightPercentage,120
;   firstLayerWidthPercentage,150
;   firstLayerUnderspeed,0.5
;   useRaft,0
;   raftExtruder,0
;   raftTopLayers,3
;   raftBaseLayers,2
;   raftOffset,3
;   raftSeparationDistance,0.14
;   raftTopInfill,100
;   aboveRaftSpeedMultiplier,0.3
;   useSkirt,1
;   skirtExtruder,0
;   skirtLayers,1
;   skirtOutlines,2
;   skirtOffset,4
;   usePrimePillar,0
;   primePillarExtruder,999
;   primePillarWidth,12
;   primePillarLocation,7
;   primePillarSpeedMultiplier,1
;   useOozeShield,0
;   oozeShieldExtruder,999
;   oozeShieldOffset,2
;   oozeShieldOutlines,1
;   oozeShieldSidewallShape,1
;   oozeShieldSidewallAngle,30
;   oozeShieldSpeedMultiplier,1
;   infillExtruder,0
;   internalInfillPattern,Rectilinear
;   externalInfillPattern,Rectilinear
;   infillPercentage,15
;   outlineOverlapPercentage,15
;   infillExtrusionWidthPercentage,100
;   minInfillLength,5
;   infillLayerInterval,1
;   internalInfillAngles,45,-45
;   overlapInternalInfillAngles,0
;   externalInfillAngles,45,-45
;   generateSupport,0
;   supportExtruder,0
;   supportInfillPercentage,25
;   supportExtraInflation,0
;   supportBaseLayers,0
;   denseSupportExtruder,0
;   denseSupportLayers,0
;   denseSupportInfillPercentage,70
;   supportLayerInterval,1
;   supportHorizontalPartOffset,0.3
;   supportUpperSeparationLayers,1
;   supportLowerSeparationLayers,1
;   supportType,0
;   supportGridSpacing,4
;   maxOverhangAngle,45
;   supportAngles,0
;   temperatureName,Primary Extruder,Heated Bed
;   temperatureNumber,0,0
;   temperatureSetpointCount,1,1
;   temperatureSetpointLayers,1,1
;   temperatureSetpointTemperatures,200,60
;   temperatureStabilizeAtStartup,1,1
;   temperatureHeatedBed,0,1
;   fanLayers,1,2
;   fanSpeeds,0,100
;   blipFanToFullPower,0
;   adjustSpeedForCooling,1
;   minSpeedLayerTime,15
;   minCoolingSpeedSlowdown,20
;   increaseFanForCooling,0
;   minFanLayerTime,45
;   maxCoolingFanSpeed,100
;   increaseFanForBridging,0
;   bridgingFanSpeed,100
;   use5D,1
;   relativeEdistances,0
;   allowEaxisZeroing,1
;   independentExtruderAxes,0
;   includeM10123,0
;   stickySupport,1
;   applyToolheadOffsets,0
;   gcodeXoffset,0
;   gcodeYoffset,0
;   gcodeZoffset,0
;   overrideMachineDefinition,1
;   machineTypeOverride,0
;   strokeXoverride,220
;   strokeYoverride,220
;   strokeZoverride,250
;   originOffsetXoverride,-5
;   originOffsetYoverride,-5
;   originOffsetZoverride,0
;   homeXdirOverride,-1
;   homeYdirOverride,-1
;   homeZdirOverride,-1
;   flipXoverride,1
;   flipYoverride,-1
;   flipZoverride,1
;   toolheadOffsets,0,0|0,0|0,0|0,0|0,0|0,0
;   overrideFirmwareConfiguration,1
;   firmwareTypeOverride,RepRap (Marlin/Repetier/Sprinter)
;   GPXconfigOverride,r2
;   baudRateOverride,115200
;   overridePrinterModels,1
;   printerModelsOverride
;   startingGcode,M140 S[bed0_temperature];,M190 S[bed0_temperature];,G28 ; home all axes,G29 ;,G1 Z2.0 F3000 ; Move Z Axis up little to prevent scratching of Heat Bed,M104 S[extruder0_temperature] ; Set Extruder temperature,G1 X0.1 Y20 Z0.3 F5000.0 ; Move to start position,M109 S[extruder0_temperature] ; Wait for Extruder temperature,G1 X5 Y10 Z0.2 F3000 ; get ready to prime,G92 E0 ; reset extrusion distance,G1 X160 E15 F600 ; prime nozzle,G1 X180 F5000 ; quick wipe
;   layerChangeGcode,
;   retractionGcode,
;   toolChangeGcode,
;   endingGcode,G28 X0 ; home X axis,M106 S0 ; turn off cooling fan,M104 S0 ; turn off extruder,M140 S0 ; turn off bed,M84 ; disable motors
;   exportFileFormat,gcode
;   celebration,0
;   celebrationSong,Random Song
;   postProcessing,
;   defaultSpeed,2400
;   outlineUnderspeed,0.5
;   solidInfillUnderspeed,0.8
;   supportUnderspeed,0.8
;   rapidXYspeed,4800
;   rapidZspeed,1000
;   minBridgingArea,50
;   bridgingExtraInflation,0
;   bridgingExtrusionMultiplier,1
;   bridgingSpeedMultiplier,1
;   useFixedBridgingAngle,0
;   fixedBridgingAngle,0
;   applyBridgingToPerimeters,0
;   filamentDiameters,1.75|1.75|1.75|1.75|1.75|1.75
;   filamentPricesPerKg,46|46|46|46|46|46
;   filamentDensities,1.25|1.25|1.25|1.25|1.25|1.25
;   useMinPrintHeight,0
;   minPrintHeight,0
;   useMaxPrintHeight,0
;   maxPrintHeight,0
;   useDiaphragm,0
;   diaphragmLayerInterval,20
;   robustSlicing,1
;   mergeAllIntoSolid,0
;   onlyRetractWhenCrossingOutline,1
;   retractBetweenLayers,1
;   useRetractionMinTravel,0
;   retractionMinTravel,3
;   retractWhileWiping,0
;   onlyWipeOutlines,1
;   avoidCrossingOutline,0
;   maxMovementDetourFactor,3
;   toolChangeRetractionDistance,12
;   toolChangeExtraRestartDistance,-0.5
;   toolChangeRetractionSpeed,600
;   externalThinWallType,0
;   internalThinWallType,2
;   thinWallAllowedOverlapPercentage,10
;   singleExtrusionMinLength,1
;   singleExtrusionMinPrintingWidthPercentage,50
;   singleExtrusionMaxPrintingWidthPercentage,200
;   singleExtrusionEndpointExtension,0.2
;   horizontalSizeCompensation,0
G90
M82
M106 S0
M140 S60;
M190 S60;
G28 ; home all axes
G29 ;
G1 Z2.0 F3000 ; Move Z Axis up little to prevent scratching of Heat Bed
M104 S200 ; Set Extruder temperature
G1 X0.1 Y20 Z0.3 F5000.0 ; Move to start position
M109 S200 ; Wait for Extruder temperature
G1 X5 Y10 Z0.2 F3000 ; get ready to prime
G92 E0 ; reset extrusion distance
G1 X160 E15 F600 ; prime nozzle
G1 X180 F5000 ; quick wipe
; process Process1
; layer 1, Z = 0.360
T0
G92 E0.0000
G1 E-4.0000 F2400
; feature skirt
; tool H0.360 W0.600
G1 Z0.360 F1000
G1 X27.250 Y98.057 F4800
G1 E0.0000 F2400
G92 E0.0000
G1 X27.880 Y97.975 E0.0513 F1200
G1 X29.373 Y97.975 E0.1720
G1 X30.001 Y98.056 E0.2232
G1 X31.459 Y98.441 E0.3451
G1 X32.068 Y98.693 E0.3983
G1 X33.371 Y99.450 E0.5201
G1 X33.872 Y99.834 E0.5711
G1 X34.542 Y100.502 E0.6476
G1 X35.010 Y99.687 E0.7235
G1 X35.407 Y99.171 E0.7761
G1 X36.473 Y98.109 E0.8978
G1 X36.975 Y97.723 E0.9490
G1 X38.274 Y96.970 E1.0703
G1 X38.875 Y96.721 E1.1229
G1 X40.332 Y96.333 E1.2447
G1 X40.965 Y96.250 E1.2964
G1 X42.468 Y96.250 E1.4178
G1 X43.105 Y96.334 E1.4697
G1 X44.555 Y96.722 E1.5911
G1 X45.150 Y96.969 E1.6432
G1 X46.452 Y97.722 E1.7647
G1 X46.961 Y98.112 E1.8165
G1 X47.628 Y98.779 E1.8928
G1 X48.102 Y97.960 E1.9693
G1 X48.492 Y97.452 E2.0211
G1 X49.555 Y96.389 E2.1425
G1 X50.063 Y95.999 E2.1943
G1 X51.366 Y95.246 E2.3160
G1 X51.964 Y94.998 E2.3683
G1 X53.419 Y94.610 E2.4900
G1 X54.053 Y94.527 E2.5417
G1 X55.553 Y94.527 E2.6629
G1 X56.188 Y94.611 E2.7147
G1 X57.639 Y94.999 E2.8361
G1 X58.233 Y95.244 E2.8880
G1 X59.540 Y95.997 E3.0100
G1 X60.054 Y96.392 E3.0624
G1 X60.717 Y97.057 E3.1382
G1 X61.185 Y96.244 E3.2141
G1 X61.578 Y95.731 E3.2663
G1 X62.642 Y94.667 E3.3880
G1 X63.151 Y94.276 E3.4398
G1 X64.453 Y93.523 E3.5614
G1 X65.050 Y93.276 E3.6135
G1 X66.502 Y92.888 E3.7351
G1 X67.138 Y92.805 E3.7869
G1 X68.641 Y92.805 E3.9083
G1 X69.276 Y92.888 E3.9601
G1 X70.729 Y93.276 E4.0817
G1 X71.325 Y93.523 E4.1338
G1 X72.626 Y94.275 E4.2553
G1 X73.131 Y94.662 E4.3067
G1 X74.198 Y95.726 E4.4285
G1 X74.595 Y96.242 E4.4811
G1 X75.344 Y97.545 E4.6025
G1 X75.587 Y98.131 E4.6538
G1 X75.976 Y99.576 E4.7747
G1 X86.582 Y98.183 E5.6392
G1 X87.019 Y97.128 E5.7315
G1 X87.340 Y96.571 E5.7835
G1 X88.254 Y95.380 E5.9048
G1 X88.707 Y94.927 E5.9565
G1 X89.899 Y94.011 E6.0781
G1 X90.454 Y93.690 E6.1299
G1 X91.846 Y93.112 E6.2517
G1 X92.476 Y92.943 E6.3045
G1 X93.811 Y92.772 E6.4132
G1 X94.124 Y92.752 E6.4385
G1 X135.876 Y92.752 E9.8131
G1 X136.189 Y92.772 E9.8384
G1 X137.524 Y92.943 E9.9472
G1 X138.154 Y93.112 E9.9999
G1 X139.546 Y93.690 E10.1217
G1 X140.101 Y94.011 E10.1735
G1 X141.293 Y94.927 E10.2951
G1 X141.745 Y95.380 E10.3468
G1 X142.660 Y96.571 E10.4681
G1 X142.981 Y97.127 E10.5201
G1 X143.418 Y98.183 E10.6124
G1 X154.026 Y99.576 E11.4771
G1 X154.410 Y98.139 E11.5973
G1 X154.655 Y97.547 E11.6490
G1 X155.404 Y96.244 E11.7706
G1 X155.797 Y95.731 E11.8228
G1 X156.863 Y94.666 E11.9446
G1 X157.374 Y94.274 E11.9966
G1 X158.679 Y93.521 E12.1184
G1 X159.273 Y93.276 E12.1703
G1 X160.724 Y92.888 E12.2917
G1 X161.359 Y92.805 E12.3435
G1 X162.862 Y92.805 E12.4650
G1 X163.498 Y92.888 E12.5168
G1 X164.950 Y93.276 E12.6383
G1 X165.547 Y93.523 E12.6905
G1 X166.849 Y94.276 E12.8121
G1 X167.358 Y94.667 E12.8639
G1 X168.422 Y95.731 E12.9855
G1 X168.815 Y96.244 E13.0378
G1 X169.283 Y97.057 E13.1136
G1 X169.946 Y96.392 E13.1895
G1 X170.460 Y95.997 E13.2419
G1 X171.767 Y95.244 E13.3638
G1 X172.361 Y94.999 E13.4157
G1 X173.812 Y94.611 E13.5372
G1 X174.447 Y94.527 E13.5889
G1 X175.947 Y94.527 E13.7102
G1 X176.581 Y94.610 E13.7618
G1 X178.036 Y94.998 E13.8835
G1 X178.634 Y95.246 E13.9358
G1 X179.937 Y95.999 E14.0575
G1 X180.445 Y96.389 E14.1093
G1 X181.508 Y97.452 E14.2307
G1 X181.898 Y97.960 E14.2825
G1 X182.371 Y98.778 E14.3589
G1 X183.044 Y98.109 E14.4356
G1 X183.546 Y97.723 E14.4868
G1 X184.844 Y96.971 E14.6081
G1 X185.443 Y96.722 E14.6605
G1 X186.898 Y96.333 E14.7822
G1 X187.533 Y96.250 E14.8340
G1 X189.038 Y96.250 E14.9556
G1 X189.673 Y96.333 E15.0074
G1 X191.127 Y96.722 E15.1291
G1 X191.727 Y96.971 E15.1815
G1 X193.027 Y97.724 E15.3029
G1 X193.532 Y98.113 E15.3545
G1 X194.594 Y99.174 E15.4758
G1 X194.984 Y99.683 E15.5276
G1 X195.458 Y100.502 E15.6041
G1 X196.128 Y99.834 E15.6806
G1 X196.629 Y99.450 E15.7316
G1 X197.932 Y98.693 E15.8535
G1 X198.541 Y98.441 E15.9067
G1 X199.999 Y98.056 E16.0286
G1 X200.627 Y97.975 E16.0797
G1 X202.120 Y97.975 E16.2005
G1 X202.750 Y98.057 E16.2518
G1 X204.204 Y98.441 E16.3734
G1 X204.808 Y98.691 E16.4262
G1 X206.116 Y99.448 E16.5483
G1 X206.622 Y99.837 E16.5999
G1 X207.683 Y100.898 E16.7211
G1 X208.074 Y101.409 E16.7732
G1 X208.827 Y102.715 E16.8950
G1 X209.072 Y103.308 E16.9469
G1 X209.460 Y104.759 E17.0683
G1 X209.543 Y105.395 E17.1201
G1 X209.543 Y106.735 E17.2284
G1 X209.522 Y107.056 E17.2544
G1 X206.462 Y130.305 E19.1496
G1 X206.401 Y130.616 E19.1753
G1 X206.054 Y131.916 E19.2840
G1 X205.807 Y132.514 E19.3363
G1 X205.053 Y133.817 E19.4580
G1 X204.663 Y134.326 E19.5098
G1 X203.600 Y135.388 E19.6312
G1 X203.092 Y135.779 E19.6830
G1 X201.786 Y136.534 E19.8049
G1 X201.182 Y136.783 E19.8577
G1 X199.727 Y137.167 E19.9794
G1 X199.099 Y137.248 E20.0306
G1 X197.605 Y137.248 E20.1513
G1 X196.976 Y137.166 E20.2026
G1 X195.524 Y136.782 E20.3240
G1 X194.925 Y136.535 E20.3764
G1 X193.615 Y135.780 E20.4986
G1 X193.100 Y135.385 E20.5510
G1 X192.040 Y134.321 E20.6724
G1 X191.653 Y133.816 E20.7238
G1 X191.180 Y132.998 E20.8002
G1 X190.508 Y133.668 E20.8769
G1 X190.002 Y134.055 E20.9284
G1 X188.702 Y134.807 E21.0498
G1 X188.105 Y135.054 E21.1020
G1 X186.653 Y135.442 E21.2235
G1 X186.017 Y135.526 E21.2753
G1 X184.517 Y135.526 E21.3965
G1 X183.884 Y135.443 E21.4482
G1 X182.428 Y135.055 E21.5699
G1 X181.831 Y134.807 E21.6222
G1 X180.529 Y134.055 E21.7437
G1 X180.024 Y133.668 E21.7951
G1 X178.960 Y132.607 E21.9166
G1 X178.564 Y132.093 E21.9690
G1 X178.093 Y131.275 E22.0453
G1 X177.421 Y131.944 E22.1220
G1 X176.919 Y132.330 E22.1732
G1 X175.622 Y133.081 E22.2943
G1 X175.027 Y133.329 E22.3463
G1 X173.571 Y133.721 E22.4682
G1 X172.932 Y133.805 E22.5203
G1 X171.423 Y133.805 E22.6422
G1 X170.782 Y133.720 E22.6945
G1 X169.330 Y133.328 E22.8161
G1 X168.739 Y133.083 E22.8678
G1 X167.439 Y132.331 E22.9892
G1 X166.931 Y131.941 E23.0409
G1 X165.867 Y130.876 E23.1626
G1 X165.474 Y130.363 E23.2149
G1 X165.006 Y129.551 E23.2906
G1 X164.339 Y130.218 E23.3668
G1 X163.831 Y130.609 E23.4186
G1 X162.528 Y131.362 E23.5403
G1 X161.930 Y131.610 E23.5926
G1 X160.474 Y131.997 E23.7143
G1 X159.841 Y132.080 E23.7660
G1 X158.338 Y132.080 E23.8875
G1 X157.701 Y131.996 E23.9394
G1 X156.252 Y131.608 E24.0606
G1 X155.660 Y131.363 E24.1124
G1 X154.353 Y130.610 E24.2343
G1 X153.839 Y130.215 E24.2867
G1 X152.779 Y129.151 E24.4081
G1 X152.392 Y128.646 E24.4596
G1 X151.641 Y127.348 E24.5807
G1 X151.396 Y126.757 E24.6324
G1 X151.004 Y125.304 E24.7540
G1 X150.919 Y124.663 E24.8063
G1 X150.919 Y123.154 E24.9282
G1 X150.962 Y122.826 E24.9550
G1 X145.250 Y122.076 E25.4206
G1 X144.811 Y122.436 E25.4664
G1 X144.325 Y122.746 E25.5131
G1 X143.340 Y123.223 E25.6016
G1 X142.830 Y123.404 E25.6453
G1 X141.799 Y123.646 E25.7309
G1 X141.459 Y123.701 E25.7587
G1 X140.714 Y123.768 E25.8192
G1 X140.494 Y123.778 E25.8370
G1 X89.506 Y123.778 E29.9579
G1 X89.287 Y123.768 E29.9757
G1 X88.541 Y123.701 E30.0361
G1 X88.201 Y123.646 E30.0640
G1 X87.170 Y123.404 E30.1496
G1 X86.660 Y123.223 E30.1933
G1 X85.675 Y122.746 E30.2817
G1 X85.189 Y122.436 E30.3284
G1 X84.750 Y122.077 E30.3742
G1 X79.038 Y122.827 E30.8399
G1 X79.081 Y123.157 E30.8668
G1 X79.081 Y124.660 E30.9883
G1 X78.998 Y125.296 E31.0401
G1 X78.610 Y126.748 E31.1616
G1 X78.363 Y127.345 E31.2138
G1 X77.609 Y128.647 E31.3354
G1 X77.219 Y129.156 E31.3872
G1 X76.156 Y130.219 E31.5088
G1 X75.645 Y130.611 E31.5608
G1 X74.339 Y131.364 E31.6826
G1 X73.746 Y131.609 E31.7345
G1 X72.294 Y131.997 E31.8559
G1 X71.659 Y132.080 E31.9077
G1 X70.158 Y132.080 E32.0290
G1 X69.523 Y131.997 E32.0808
G1 X68.072 Y131.609 E32.2022
G1 X67.478 Y131.364 E32.2541
G1 X66.171 Y130.610 E32.3761
G1 X65.657 Y130.215 E32.4285
G1 X64.994 Y129.550 E32.5043
G1 X64.526 Y130.363 E32.5802
G1 X64.133 Y130.876 E32.6324
G1 X63.069 Y131.941 E32.7541
G1 X62.561 Y132.331 E32.8058
G1 X61.261 Y133.083 E32.9272
G1 X60.670 Y133.328 E32.9789
G1 X59.218 Y133.720 E33.1005
G1 X58.577 Y133.805 E33.1528
G1 X57.068 Y133.805 E33.2747
G1 X56.429 Y133.721 E33.3268
G1 X54.972 Y133.329 E33.4487
G1 X54.378 Y133.081 E33.5008
G1 X53.081 Y132.330 E33.6218
G1 X52.579 Y131.944 E33.6730
G1 X51.907 Y131.275 E33.7497
G1 X51.435 Y132.093 E33.8260
G1 X51.040 Y132.607 E33.8784
G1 X49.976 Y133.668 E33.9999
G1 X49.471 Y134.055 E34.0513
G1 X48.169 Y134.807 E34.1728
G1 X47.572 Y135.055 E34.2251
G1 X46.116 Y135.443 E34.3468
G1 X45.483 Y135.526 E34.3985
G1 X43.983 Y135.526 E34.5197
G1 X43.347 Y135.442 E34.5715
G1 X41.895 Y135.054 E34.6930
G1 X41.298 Y134.807 E34.7452
G1 X39.998 Y134.055 E34.8666
G1 X39.492 Y133.668 E34.9181
G1 X38.820 Y132.998 E34.9948
G1 X38.346 Y133.817 E35.0713
G1 X37.956 Y134.326 E35.1231
G1 X36.893 Y135.388 E35.2446
G1 X36.385 Y135.779 E35.2964
G1 X35.080 Y136.533 E35.4182
G1 X34.477 Y136.782 E35.4709
G1 X33.024 Y137.166 E35.5924
G1 X32.395 Y137.248 E35.6437
G1 X30.898 Y137.248 E35.7647
G1 X30.269 Y137.166 E35.8159
G1 X28.815 Y136.782 E35.9374
G1 X28.213 Y136.533 E35.9901
G1 X26.908 Y135.779 E36.1120
G1 X26.400 Y135.388 E36.1637
G1 X25.337 Y134.326 E36.2852
G1 X24.947 Y133.817 E36.3370
G1 X24.193 Y132.514 E36.4587
G1 X23.946 Y131.916 E36.5110
G1 X23.599 Y130.616 E36.6197
G1 X23.538 Y130.305 E36.6454
G1 X20.478 Y107.056 E38.5406
G1 X20.457 Y106.735 E38.5665
G1 X20.457 Y105.395 E38.6749
G1 X20.540 Y104.759 E38.7267
G1 X20.928 Y103.308 E38.8481
G1 X21.173 Y102.714 E38.9000
G1 X21.926 Y101.409 E39.0218
G1 X22.318 Y100.898 E39.0738
G1 X23.378 Y99.838 E39.1951
G1 X23.884 Y99.448 E39.2467
G1 X25.192 Y98.691 E39.3688
G1 X25.796 Y98.441 E39.4216
G1 X27.250 Y98.057 E39.5432
G92 E0.0000
G1 E-4.0000 F2400
G1 X27.366 Y98.646 F4800
G1 E0.0000 F2400
G92 E0.0000
G1 X27.918 Y98.575 E0.0450 F1200
G1 X29.335 Y98.575 E0.1595
G1 X29.886 Y98.646 E0.2044
G1 X31.267 Y99.011 E0.3199
G1 X31.801 Y99.232 E0.3666
