; G-Code generated by Simplify3D(R) Version 4.1.2
; Apr 16, 2020 at 9:28:17 AM
; Settings Summary
;   processName,Process1
;   applyToModels,USE PLA OR ABS Simple Face Shield 2.0,USE PLA OR ABS Simple Face Shield 2.0(2)
;   profileName,Creality Ender 3 Pro (Mask 2.5) (modified)
;   profileVersion,2020-04-15 19:20:11
;   baseProfile,Creality Ender 3 Pro (modified)
;   printMaterial,PLA
;   printQuality,MASK-2.5
;   printExtruders,
;   extruderName,Primary Extruder
;   extruderToolheadNumber,0
;   extruderDiameter,0.4
;   extruderAutoWidth,0
;   extruderWidth,0.6
;   extrusionMultiplier,0.9
;   extruderUseRetract,1
;   extruderRetractionDistance,4
;   extruderExtraRestartDistance,-0.2
;   extruderRetractionZLift,0
;   extruderRetractionSpeed,1500
;   extruderUseCoasting,0
;   extruderCoastingDistance,0.2
;   extruderUseWipe,0
;   extruderWipeDistance,5
;   primaryExtruder,0
;   layerHeight,0.2
;   topSolidLayers,4
;   bottomSolidLayers,4
;   perimeterOutlines,3
;   printPerimetersInsideOut,0
;   startPointOption,2
;   startPointOriginX,0
;   startPointOriginY,0
;   sequentialIslands,0
;   spiralVaseMode,0
;   firstLayerHeightPercentage,120
;   firstLayerWidthPercentage,110
;   firstLayerUnderspeed,0.5
;   useRaft,0
;   raftExtruder,0
;   raftTopLayers,3
;   raftBaseLayers,2
;   raftOffset,3
;   raftSeparationDistance,0.14
;   raftTopInfill,100
;   aboveRaftSpeedMultiplier,0.3
;   useSkirt,0
;   skirtExtruder,0
;   skirtLayers,1
;   skirtOutlines,2
;   skirtOffset,4
;   usePrimePillar,0
;   primePillarExtruder,999
;   primePillarWidth,12
;   primePillarLocation,7
;   primePillarSpeedMultiplier,1
;   useOozeShield,0
;   oozeShieldExtruder,999
;   oozeShieldOffset,2
;   oozeShieldOutlines,1
;   oozeShieldSidewallShape,1
;   oozeShieldSidewallAngle,30
;   oozeShieldSpeedMultiplier,1
;   infillExtruder,0
;   internalInfillPattern,Rectilinear
;   externalInfillPattern,Rectilinear
;   infillPercentage,50
;   outlineOverlapPercentage,15
;   infillExtrusionWidthPercentage,100
;   minInfillLength,5
;   infillLayerInterval,1
;   internalInfillAngles,45,-45
;   overlapInternalInfillAngles,0
;   externalInfillAngles,45,-45
;   generateSupport,0
;   supportExtruder,0
;   supportInfillPercentage,25
;   supportExtraInflation,0
;   supportBaseLayers,0
;   denseSupportExtruder,0
;   denseSupportLayers,0
;   denseSupportInfillPercentage,70
;   supportLayerInterval,1
;   supportHorizontalPartOffset,0.3
;   supportUpperSeparationLayers,1
;   supportLowerSeparationLayers,1
;   supportType,0
;   supportGridSpacing,4
;   maxOverhangAngle,45
;   supportAngles,0
;   temperatureName,Primary Extruder,Heated Bed
;   temperatureNumber,0,0
;   temperatureSetpointCount,1,1
;   temperatureSetpointLayers,1,1
;   temperatureSetpointTemperatures,200,60
;   temperatureStabilizeAtStartup,1,1
;   temperatureHeatedBed,0,1
;   fanLayers,1,2
;   fanSpeeds,0,100
;   blipFanToFullPower,0
;   adjustSpeedForCooling,1
;   minSpeedLayerTime,15
;   minCoolingSpeedSlowdown,20
;   increaseFanForCooling,0
;   minFanLayerTime,45
;   maxCoolingFanSpeed,100
;   increaseFanForBridging,0
;   bridgingFanSpeed,100
;   use5D,1
;   relativeEdistances,0
;   allowEaxisZeroing,1
;   independentExtruderAxes,0
;   includeM10123,0
;   stickySupport,1
;   applyToolheadOffsets,0
;   gcodeXoffset,0
;   gcodeYoffset,0
;   gcodeZoffset,0
;   overrideMachineDefinition,1
;   machineTypeOverride,0
;   strokeXoverride,220
;   strokeYoverride,220
;   strokeZoverride,250
;   originOffsetXoverride,-5
;   originOffsetYoverride,-5
;   originOffsetZoverride,0
;   homeXdirOverride,-1
;   homeYdirOverride,-1
;   homeZdirOverride,-1
;   flipXoverride,1
;   flipYoverride,-1
;   flipZoverride,1
;   toolheadOffsets,0,0|0,0|0,0|0,0|0,0|0,0
;   overrideFirmwareConfiguration,1
;   firmwareTypeOverride,RepRap (Marlin/Repetier/Sprinter)
;   GPXconfigOverride,r2
;   baudRateOverride,115200
;   overridePrinterModels,1
;   printerModelsOverride
;   startingGcode,G28 ; home all axes,G1 X5 Y10 Z0.2 F3000 ; get ready to prime,G92 E0 ; reset extrusion distance,G1 X160 E15 F600 ; prime nozzle,G1 X180 F5000 ; quick wipe
;   layerChangeGcode,
;   retractionGcode,
;   toolChangeGcode,
;   endingGcode,G28 X0 ; home X axis,M106 S0 ; turn off cooling fan,M104 S0 ; turn off extruder,M140 S0 ; turn off bed,M84 ; disable motors
;   exportFileFormat,gcode
;   celebration,0
;   celebrationSong,Random Song
;   postProcessing,
;   defaultSpeed,3000
;   outlineUnderspeed,0.75
;   solidInfillUnderspeed,0.8
;   supportUnderspeed,0.8
;   rapidXYspeed,4800
;   rapidZspeed,1000
;   minBridgingArea,50
;   bridgingExtraInflation,0
;   bridgingExtrusionMultiplier,1
;   bridgingSpeedMultiplier,1
;   useFixedBridgingAngle,0
;   fixedBridgingAngle,0
;   applyBridgingToPerimeters,0
;   filamentDiameters,1.75|1.75|1.75|1.75|1.75|1.75
;   filamentPricesPerKg,25|46|46|46|46|46
;   filamentDensities,1.25|1.25|1.25|1.25|1.25|1.25
;   useMinPrintHeight,0
;   minPrintHeight,9
;   useMaxPrintHeight,0
;   maxPrintHeight,9
;   useDiaphragm,0
;   diaphragmLayerInterval,20
;   robustSlicing,1
;   mergeAllIntoSolid,0
;   onlyRetractWhenCrossingOutline,1
;   retractBetweenLayers,1
;   useRetractionMinTravel,1
;   retractionMinTravel,3
;   retractWhileWiping,0
;   onlyWipeOutlines,1
;   avoidCrossingOutline,0
;   maxMovementDetourFactor,3
;   toolChangeRetractionDistance,12
;   toolChangeExtraRestartDistance,-0.5
;   toolChangeRetractionSpeed,600
;   externalThinWallType,0
;   internalThinWallType,2
;   thinWallAllowedOverlapPercentage,10
;   singleExtrusionMinLength,1
;   singleExtrusionMinPrintingWidthPercentage,50
;   singleExtrusionMaxPrintingWidthPercentage,200
;   singleExtrusionEndpointExtension,0.2
;   horizontalSizeCompensation,0
G90
M82
M106 S0
M140 S60
M190 S60
M104 S200 T0
M109 S200 T0
G28 ; home all axes
G1 X5 Y10 Z0.2 F3000 ; get ready to prime
G92 E0 ; reset extrusion distance
G1 X160 E15 F600 ; prime nozzle
G1 X180 F5000 ; quick wipe
; process Process1
; layer 1, Z = 0.240
T0
G92 E0.0000
G1 E-4.0000 F1500
; feature outer perimeter
; tool H0.240 W0.660
G1 Z0.240 F1000
G1 X46.793 Y44.893 F4800
G1 E-0.2000 F1500
G92 E0.0000
G1 X47.237 Y44.093 E0.0542 F1125
G1 X47.760 Y43.341 E0.1085
G1 X48.358 Y42.647 E0.1628
G1 X49.023 Y42.017 E0.2171
G1 X49.748 Y41.457 E0.2714
G1 X50.527 Y40.975 E0.3257
G1 X51.351 Y40.574 E0.3800
G1 X52.087 Y40.304 E0.4264
G1 X52.210 Y40.260 E0.4342
G1 X53.100 Y40.034 E0.4886
G1 X53.875 Y39.919 E0.5350
G1 X54.005 Y39.901 E0.5428
G1 X54.782 Y39.866 E0.5889
G1 X55.060 Y39.867 E0.6054
G1 X55.835 Y39.912 E0.6514
G1 X56.740 Y40.058 E0.7057
G1 X57.625 Y40.294 E0.7600
G1 X58.484 Y40.621 E0.8145
G1 X58.601 Y40.677 E0.8222
G1 X59.300 Y41.031 E0.8686
G1 X60.073 Y41.523 E0.9229
G1 X60.791 Y42.091 E0.9772
G1 X61.448 Y42.730 E1.0315
G1 X62.036 Y43.432 E1.0858
G1 X62.550 Y44.190 E1.1401
G1 X62.984 Y44.997 E1.1944
G1 X63.334 Y45.842 E1.2486
G1 X63.629 Y46.861 E1.3115
G1 X63.786 Y47.762 E1.3657
G1 X63.851 Y48.676 E1.4200
G1 X63.822 Y49.591 E1.4743
G1 X63.700 Y50.499 E1.5286
G1 X63.487 Y51.390 E1.5829
G1 X63.183 Y52.254 E1.6372
G1 X62.793 Y53.084 E1.6915
G1 X62.391 Y53.756 E1.7380
G1 X62.322 Y53.867 E1.7457
G1 X61.772 Y54.601 E1.8001
G1 X61.143 Y55.282 E1.8550
G1 X58.469 Y57.966 E2.0795
G1 X55.854 Y60.723 E2.3047
G1 X53.310 Y63.544 E2.5299
G1 X50.837 Y66.428 E2.7551
G1 X48.436 Y69.373 E2.9803
G1 X46.111 Y72.378 E3.2055
G1 X43.860 Y75.439 E3.4307
G1 X41.687 Y78.556 E3.6558
G1 X39.593 Y81.725 E3.8810
G1 X37.579 Y84.947 E4.1062
G1 X35.645 Y88.217 E4.3314
G1 X33.794 Y91.535 E4.5566
G1 X32.027 Y94.898 E4.7818
G1 X30.344 Y98.305 E5.0069
G1 X28.746 Y101.752 E5.2321
G1 X27.236 Y105.238 E5.4573
G1 X26.026 Y108.232 E5.6487
G1 X25.813 Y108.761 E5.6825
G1 X24.478 Y112.318 E5.9077
G1 X23.233 Y115.908 E6.1329
G1 X22.251 Y118.984 E6.3243
G1 X22.078 Y119.527 E6.3581
G1 X21.014 Y123.174 E6.5832
G1 X20.041 Y126.847 E6.8084
G1 X19.160 Y130.543 E7.0336
G1 X18.372 Y134.260 E7.2588
G1 X17.677 Y137.995 E7.4840
G1 X17.076 Y141.746 E7.7092
G1 X16.568 Y145.512 E7.9343
G1 X16.155 Y149.288 E8.1595
G1 X15.837 Y153.074 E8.3847
G1 X15.613 Y156.867 E8.6099
G1 X15.484 Y160.664 E8.8351
G1 X15.449 Y164.463 E9.0603
G1 X15.510 Y168.262 E9.2855
G1 X15.666 Y172.058 E9.5106
G1 X15.917 Y175.849 E9.7358
G1 X16.262 Y179.633 E9.9610
G1 X16.703 Y183.415 E10.1867
G1 X16.845 Y184.149 E10.2310
G1 X17.081 Y184.867 E10.2758
G1 X17.358 Y185.457 E10.3144
G1 X17.812 Y186.186 E10.3653
G1 X18.297 Y186.767 E10.4102
G1 X18.769 Y187.214 E10.4487
G1 X19.373 Y187.667 E10.4934
G1 X20.030 Y188.040 E10.5383
G1 X20.730 Y188.328 E10.5831
G1 X21.462 Y188.526 E10.6280
G1 X23.275 Y188.755 E10.7364
G1 X24.330 Y188.968 E10.8001
G1 X25.362 Y189.268 E10.8638
G1 X26.366 Y189.652 E10.9276
G1 X27.335 Y190.118 E10.9913
G1 X28.262 Y190.662 E11.0550
G1 X29.141 Y191.280 E11.1187
G1 X29.965 Y191.970 E11.1824
G1 X30.730 Y192.725 E11.2461
G1 X31.430 Y193.541 E11.3098
G1 X32.060 Y194.412 E11.3735
G1 X32.616 Y195.332 E11.4372
G1 X33.093 Y196.295 E11.5009
G1 X33.490 Y197.294 E11.5646
G1 X33.802 Y198.322 E11.6283
G1 X34.029 Y199.373 E11.6920
G1 X34.168 Y200.439 E11.7558
G1 X34.218 Y201.513 E11.8195
G1 X34.177 Y202.679 E11.8887
G1 X34.172 Y203.386 E11.9305
G1 X34.255 Y204.103 E11.9733
G1 X34.405 Y204.743 E12.0123
G1 X34.665 Y205.462 E12.0576
G1 X35.067 Y206.218 E12.1083
G1 X35.419 Y206.731 E12.1452
G1 X35.919 Y207.299 E12.1901
G1 X36.486 Y207.800 E12.2349
G1 X37.110 Y208.224 E12.2796
G1 X37.528 Y208.443 E12.3076
G1 X37.692 Y208.502 E12.3179
G1 X37.986 Y208.519 E12.3354
G1 X38.261 Y208.365 E12.3540
G1 X38.375 Y208.099 E12.3712
G1 X38.342 Y207.790 E12.3896
G1 X37.302 Y205.479 E12.5398
G1 X37.158 Y205.077 E12.5651
G1 X37.083 Y204.602 E12.5936
G1 X37.081 Y204.230 E12.6157
G1 X37.760 Y195.481 E13.1357
G1 X37.811 Y195.159 E13.1551
G1 X37.907 Y194.861 E13.1737
G1 X38.050 Y194.581 E13.1923
G1 X38.235 Y194.328 E13.2108
G1 X38.457 Y194.107 E13.2294
G1 X38.711 Y193.923 E13.2480
G1 X38.991 Y193.782 E13.2666
G1 X39.290 Y193.686 E13.2852
G1 X39.599 Y193.639 E13.3038
G1 X39.913 Y193.640 E13.3223
G1 X40.068 Y193.666 E13.3317
G1 X40.217 Y193.716 E13.3410
G1 X40.370 Y193.796 E13.3512
G1 X42.855 Y195.303 E13.5235
G1 X45.402 Y196.734 E13.6966
G1 X47.995 Y198.081 E13.8698
G1 X50.631 Y199.342 E14.0430
G1 X53.307 Y200.514 E14.2161
G1 X56.020 Y201.598 E14.3893
G1 X58.768 Y202.591 E14.5625
G1 X61.547 Y203.493 E14.7357
G1 X64.354 Y204.303 E14.9088
G1 X67.187 Y205.019 E15.0820
G1 X70.042 Y205.642 E15.2552
G1 X72.915 Y206.170 E15.4283
G1 X75.805 Y206.603 E15.6015
G1 X78.707 Y206.940 E15.7747
G1 X81.619 Y207.181 E15.9479
G1 X84.537 Y207.325 E16.1210
G1 X87.459 Y207.374 E16.2942
G1 X90.380 Y207.325 E16.4674
G1 X93.298 Y207.181 E16.6406
G1 X96.210 Y206.940 E16.8137
G1 X99.112 Y206.603 E16.9869
G1 X102.002 Y206.170 E17.1601
G1 X104.875 Y205.642 E17.3332
G1 X107.730 Y205.019 E17.5064
G1 X110.563 Y204.303 E17.6796
G1 X113.370 Y203.493 E17.8528
G1 X116.149 Y202.591 E18.0259
G1 X118.897 Y201.598 E18.1991
G1 X121.610 Y200.514 E18.3723
G1 X124.286 Y199.342 E18.5454
G1 X126.527 Y198.270 E18.6926
G1 X126.922 Y198.081 E18.7186
G1 X129.515 Y196.734 E18.8918
G1 X132.062 Y195.303 E19.0650
G1 X134.547 Y193.796 E19.2372
G1 X134.700 Y193.716 E19.2474
G1 X134.849 Y193.666 E19.2568
G1 X135.004 Y193.640 E19.2661
G1 X135.318 Y193.639 E19.2846
G1 X135.628 Y193.686 E19.3032
G1 X135.926 Y193.782 E19.3218
G1 X136.206 Y193.923 E19.3404
G1 X136.460 Y194.107 E19.3590
G1 X136.682 Y194.328 E19.3776
G1 X136.867 Y194.581 E19.3962
G1 X137.010 Y194.860 E19.4147
G1 X137.107 Y195.159 E19.4333
G1 X137.157 Y195.481 E19.4527
G1 X137.836 Y204.230 E19.9728
G1 X137.836 Y204.619 E19.9958
G1 X137.790 Y204.949 E20.0156
G1 X137.679 Y205.324 E20.0387
G1 X137.535 Y205.638 E20.0592
G1 X136.363 Y207.796 E20.2048
G1 X136.286 Y208.028 E20.2193
G1 X136.302 Y208.326 E20.2370
G1 X136.460 Y208.535 E20.2525
G1 X136.673 Y208.627 E20.2662
G1 X136.905 Y208.629 E20.2800
G1 X137.103 Y208.575 E20.2921
G1 X137.542 Y208.372 E20.3208
G1 X138.211 Y207.963 E20.3673
G1 X138.824 Y207.467 E20.4140
G1 X139.409 Y206.840 E20.4648
G1 X139.831 Y206.255 E20.5075
G1 X140.148 Y205.678 E20.5465
G1 X140.451 Y204.937 E20.5941
G1 X140.653 Y204.158 E20.6417
G1 X140.749 Y203.335 E20.6908
G1 X140.699 Y201.514 E20.7988
G1 X140.749 Y200.439 E20.8626
G1 X140.888 Y199.373 E20.9263
G1 X141.115 Y198.322 E20.9900
G1 X141.427 Y197.294 E21.0537
G1 X141.824 Y196.295 E21.1174
G1 X142.302 Y195.332 E21.1811
G1 X142.775 Y194.549 E21.2354
G1 X142.857 Y194.412 E21.2448
G1 X143.487 Y193.541 E21.3085
G1 X144.187 Y192.725 E21.3723
G1 X144.952 Y191.970 E21.4360
G1 X145.777 Y191.280 E21.4997
G1 X146.655 Y190.662 E21.5634
G1 X147.582 Y190.118 E21.6271
G1 X148.551 Y189.652 E21.6908
G1 X149.555 Y189.268 E21.7545
G1 X150.587 Y188.968 E21.8182
G1 X151.642 Y188.755 E21.8820
G1 X153.455 Y188.526 E21.9903
G1 X154.187 Y188.328 E22.0353
G1 X154.886 Y188.041 E22.0800
G1 X155.455 Y187.722 E22.1187
G1 X156.148 Y187.215 E22.1696
G1 X156.692 Y186.689 E22.2144
G1 X157.104 Y186.186 E22.2530
G1 X157.512 Y185.551 E22.2977
G1 X157.836 Y184.868 E22.3425
G1 X158.072 Y184.149 E22.3873
G1 X158.215 Y183.415 E22.4317
G1 X158.655 Y179.633 E22.6573
G1 X159.000 Y175.849 E22.8825
G1 X159.213 Y172.627 E23.0739
G1 X159.251 Y172.058 E23.1077
G1 X159.407 Y168.262 E23.3329
G1 X159.468 Y164.463 E23.5581
G1 X159.434 Y160.664 E23.7833
G1 X159.304 Y156.867 E24.0085
G1 X159.081 Y153.074 E24.2336
G1 X158.762 Y149.288 E24.4588
G1 X158.349 Y145.512 E24.6840
G1 X157.841 Y141.746 E24.9092
G1 X157.240 Y137.995 E25.1344
G1 X156.545 Y134.260 E25.3596
G1 X155.757 Y130.543 E25.5847
G1 X154.876 Y126.847 E25.8099
G1 X153.903 Y123.174 E26.0351
G1 X152.839 Y119.527 E26.2603
G1 X151.684 Y115.908 E26.4855
G1 X150.439 Y112.318 E26.7107
G1 X149.104 Y108.761 E26.9359
G1 X147.681 Y105.238 E27.1610
G1 X146.397 Y102.275 E27.3524
G1 X146.171 Y101.752 E27.3862
G1 X144.573 Y98.305 E27.6114
G1 X142.890 Y94.898 E27.8366
G1 X141.388 Y92.040 E28.0280
G1 X141.123 Y91.535 E28.0618
G1 X139.272 Y88.217 E28.2870
G1 X137.339 Y84.947 E28.5121
G1 X135.324 Y81.725 E28.7373
G1 X133.230 Y78.556 E28.9625
G1 X131.057 Y75.439 E29.1877
G1 X128.807 Y72.378 E29.4129
G1 X126.481 Y69.373 E29.6381
G1 X124.080 Y66.428 E29.8633
G1 X121.607 Y63.544 E30.0884
G1 X119.063 Y60.723 E30.3136
G1 X116.449 Y57.966 E30.5388
G1 X113.774 Y55.282 E30.7634
G1 X113.145 Y54.601 E30.8183
G1 X112.596 Y53.869 E30.8726
G1 X112.124 Y53.083 E30.9269
G1 X111.734 Y52.254 E30.9812
G1 X111.431 Y51.390 E31.0355
G1 X111.216 Y50.495 E31.0900
G1 X111.196 Y50.367 E31.0977
G1 X111.095 Y49.592 E31.1440
G1 X111.066 Y48.677 E31.1983
G1 X111.151 Y47.618 E31.2612
G1 X111.288 Y46.860 E31.3069
G1 X111.536 Y45.979 E31.3612
G1 X111.933 Y44.995 E31.4240
G1 X112.367 Y44.190 E31.4782
G1 X112.881 Y43.431 E31.5326
G1 X113.373 Y42.838 E31.5782
G1 X114.127 Y42.090 E31.6412
G1 X114.845 Y41.523 E31.6954
G1 X115.503 Y41.100 E31.7418
G1 X115.614 Y41.032 E31.7495
G1 X116.436 Y40.620 E31.8040
G1 X117.292 Y40.294 E31.8583
G1 X118.177 Y40.058 E31.9126
G1 X118.952 Y39.932 E31.9591
G1 X119.081 Y39.912 E31.9668
G1 X119.996 Y39.860 E32.0212
G1 X120.911 Y39.901 E32.0755
G1 X121.819 Y40.035 E32.1299
G1 X121.946 Y40.066 E32.1376
G1 X122.705 Y40.260 E32.1841
G1 X123.566 Y40.574 E32.2384
G1 X124.390 Y40.975 E32.2927
G1 X125.172 Y41.459 E32.3472
G1 X125.277 Y41.536 E32.3549
G1 X125.894 Y42.016 E32.4012
G1 X126.559 Y42.647 E32.4556
G1 X127.157 Y43.341 E32.5099
G1 X127.680 Y44.093 E32.5641
G1 X128.124 Y44.893 E32.6184
G1 X128.534 Y45.871 E32.6812
G1 X128.793 Y46.748 E32.7354
G1 X128.961 Y47.649 E32.7897
G1 X129.038 Y48.562 E32.8441
G1 X129.027 Y49.332 E32.8897
G1 X128.910 Y50.388 E32.9527
G1 X128.708 Y51.280 E33.0069
G1 X128.415 Y52.148 E33.0612
G1 X128.036 Y52.983 E33.1155
G1 X127.642 Y53.661 E33.1620
G1 X127.575 Y53.772 E33.1697
G1 X127.034 Y54.513 E33.2241
G1 X126.425 Y55.190 E33.2780
G1 X126.289 Y55.305 E33.2886
G1 X126.140 Y55.391 E33.2988
G1 X125.978 Y55.450 E33.3090
G1 X125.808 Y55.481 E33.3192
G1 X125.636 Y55.481 E33.3294
G1 X125.466 Y55.451 E33.3397
G1 X125.348 Y55.409 E33.3471
G1 X125.151 Y55.303 E33.3604
G1 X125.022 Y55.196 E33.3703
G1 X124.911 Y55.064 E33.3805
