; G-Code generated by Simplify3D(R) Version 4.1.2
; Apr 8, 2020 at 9:53:33 AM
; Settings Summary
;   processName,Process1
;   applyToModels,Elastic_ClipV1.3,Elastic_ClipV1.3(2),Elastic_ClipV1.3(3),Elastic_ClipV1.3(4),Elastic_ClipV1.3(5),Elastic_ClipV1.3(6),Elastic_ClipV1.3(7),Elastic_ClipV1.3(7)(2)
;   profileName,Creality Ender 3 Pro (modified)
;   profileVersion,2020-04-04 14:59:38
;   baseProfile,
;   printMaterial,PLA
;   printQuality,Medium
;   printExtruders,
;   extruderName,Primary Extruder
;   extruderToolheadNumber,0
;   extruderDiameter,0.4
;   extruderAutoWidth,0
;   extruderWidth,0.4
;   extrusionMultiplier,0.9
;   extruderUseRetract,1
;   extruderRetractionDistance,6
;   extruderExtraRestartDistance,0
;   extruderRetractionZLift,0
;   extruderRetractionSpeed,1500
;   extruderUseCoasting,0
;   extruderCoastingDistance,0.2
;   extruderUseWipe,0
;   extruderWipeDistance,5
;   primaryExtruder,0
;   layerHeight,0.2
;   topSolidLayers,3
;   bottomSolidLayers,3
;   perimeterOutlines,2
;   printPerimetersInsideOut,1
;   startPointOption,2
;   startPointOriginX,0
;   startPointOriginY,0
;   sequentialIslands,0
;   spiralVaseMode,0
;   firstLayerHeightPercentage,120
;   firstLayerWidthPercentage,150
;   firstLayerUnderspeed,0.5
;   useRaft,0
;   raftExtruder,0
;   raftTopLayers,3
;   raftBaseLayers,2
;   raftOffset,3
;   raftSeparationDistance,0.14
;   raftTopInfill,100
;   aboveRaftSpeedMultiplier,0.3
;   useSkirt,1
;   skirtExtruder,0
;   skirtLayers,1
;   skirtOutlines,2
;   skirtOffset,4
;   usePrimePillar,0
;   primePillarExtruder,999
;   primePillarWidth,12
;   primePillarLocation,7
;   primePillarSpeedMultiplier,1
;   useOozeShield,0
;   oozeShieldExtruder,999
;   oozeShieldOffset,2
;   oozeShieldOutlines,1
;   oozeShieldSidewallShape,1
;   oozeShieldSidewallAngle,30
;   oozeShieldSpeedMultiplier,1
;   infillExtruder,0
;   internalInfillPattern,Rectilinear
;   externalInfillPattern,Rectilinear
;   infillPercentage,100
;   outlineOverlapPercentage,15
;   infillExtrusionWidthPercentage,100
;   minInfillLength,5
;   infillLayerInterval,1
;   internalInfillAngles,45,-45
;   overlapInternalInfillAngles,0
;   externalInfillAngles,45,-45
;   generateSupport,0
;   supportExtruder,0
;   supportInfillPercentage,30
;   supportExtraInflation,0
;   supportBaseLayers,0
;   denseSupportExtruder,0
;   denseSupportLayers,0
;   denseSupportInfillPercentage,70
;   supportLayerInterval,1
;   supportHorizontalPartOffset,0.3
;   supportUpperSeparationLayers,1
;   supportLowerSeparationLayers,1
;   supportType,0
;   supportGridSpacing,4
;   maxOverhangAngle,45
;   supportAngles,0
;   temperatureName,Primary Extruder,Heated Bed
;   temperatureNumber,0,0
;   temperatureSetpointCount,1,1
;   temperatureSetpointLayers,1,1
;   temperatureSetpointTemperatures,200,60
;   temperatureStabilizeAtStartup,1,1
;   temperatureHeatedBed,0,1
;   fanLayers,1,2
;   fanSpeeds,0,100
;   blipFanToFullPower,0
;   adjustSpeedForCooling,1
;   minSpeedLayerTime,15
;   minCoolingSpeedSlowdown,20
;   increaseFanForCooling,0
;   minFanLayerTime,45
;   maxCoolingFanSpeed,100
;   increaseFanForBridging,0
;   bridgingFanSpeed,100
;   use5D,1
;   relativeEdistances,0
;   allowEaxisZeroing,1
;   independentExtruderAxes,0
;   includeM10123,0
;   stickySupport,1
;   applyToolheadOffsets,0
;   gcodeXoffset,0
;   gcodeYoffset,0
;   gcodeZoffset,0
;   overrideMachineDefinition,1
;   machineTypeOverride,0
;   strokeXoverride,220
;   strokeYoverride,220
;   strokeZoverride,250
;   originOffsetXoverride,-5
;   originOffsetYoverride,-5
;   originOffsetZoverride,0
;   homeXdirOverride,-1
;   homeYdirOverride,-1
;   homeZdirOverride,-1
;   flipXoverride,1
;   flipYoverride,-1
;   flipZoverride,1
;   toolheadOffsets,0,0|0,0|0,0|0,0|0,0|0,0
;   overrideFirmwareConfiguration,1
;   firmwareTypeOverride,RepRap (Marlin/Repetier/Sprinter)
;   GPXconfigOverride,r2
;   baudRateOverride,115200
;   overridePrinterModels,1
;   printerModelsOverride
;   startingGcode,G28 ; home all axes,G1 X5 Y10 Z0.2 F3000 ; get ready to prime,G92 E0 ; reset extrusion distance,G1 X160 E15 F600 ; prime nozzle,G1 X180 F5000 ; quick wipe
;   layerChangeGcode,
;   retractionGcode,
;   toolChangeGcode,
;   endingGcode,G28 X0 ; home X axis,M106 S0 ; turn off cooling fan,M104 S0 ; turn off extruder,M140 S0 ; turn off bed,M84 ; disable motors
;   exportFileFormat,gcode
;   celebration,0
;   celebrationSong,Random Song
;   postProcessing,
;   defaultSpeed,3000
;   outlineUnderspeed,0.5
;   solidInfillUnderspeed,0.8
;   supportUnderspeed,0.8
;   rapidXYspeed,4800
;   rapidZspeed,1000
;   minBridgingArea,50
;   bridgingExtraInflation,0
;   bridgingExtrusionMultiplier,1
;   bridgingSpeedMultiplier,1
;   useFixedBridgingAngle,0
;   fixedBridgingAngle,0
;   applyBridgingToPerimeters,0
;   filamentDiameters,1.75|1.75|1.75|1.75|1.75|1.75
;   filamentPricesPerKg,46|46|46|46|46|46
;   filamentDensities,1.25|1.25|1.25|1.25|1.25|1.25
;   useMinPrintHeight,0
;   minPrintHeight,0
;   useMaxPrintHeight,0
;   maxPrintHeight,0
;   useDiaphragm,0
;   diaphragmLayerInterval,20
;   robustSlicing,1
;   mergeAllIntoSolid,0
;   onlyRetractWhenCrossingOutline,1
;   retractBetweenLayers,1
;   useRetractionMinTravel,0
;   retractionMinTravel,3
;   retractWhileWiping,0
;   onlyWipeOutlines,1
;   avoidCrossingOutline,0
;   maxMovementDetourFactor,3
;   toolChangeRetractionDistance,12
;   toolChangeExtraRestartDistance,-0.5
;   toolChangeRetractionSpeed,600
;   externalThinWallType,0
;   internalThinWallType,2
;   thinWallAllowedOverlapPercentage,10
;   singleExtrusionMinLength,1
;   singleExtrusionMinPrintingWidthPercentage,50
;   singleExtrusionMaxPrintingWidthPercentage,200
;   singleExtrusionEndpointExtension,0.2
;   horizontalSizeCompensation,0
G90
M82
M106 S0
M140 S60
M190 S60
M104 S200 T0
M109 S200 T0
G28 ; home all axes
G1 X5 Y10 Z0.2 F3000 ; get ready to prime
G92 E0 ; reset extrusion distance
G1 X160 E15 F600 ; prime nozzle
G1 X180 F5000 ; quick wipe
; process Process1
; layer 1, Z = 0.240
T0
G92 E0.0000
G1 E-6.0000 F1500
; feature skirt
; tool H0.240 W0.600
G1 Z0.240 F1000
G1 X79.666 Y85.600 F4800
G1 E0.0000 F1500
G92 E0.0000
G1 X102.364 Y85.600 E1.2230 F1500
G1 X103.008 Y86.244 E1.2720
G1 X103.651 Y85.600 E1.3211
G1 X126.349 Y85.600 E2.5440
G1 X126.992 Y86.244 E2.5931
G1 X127.636 Y85.600 E2.6422
G1 X150.334 Y85.600 E3.8651
G1 X153.204 Y88.470 E4.0838
G1 X153.204 Y105.530 E5.0030
G1 X152.734 Y106.000 E5.0389
G1 X153.204 Y106.470 E5.0747
G1 X153.204 Y123.530 E5.9939
G1 X150.334 Y126.400 E6.2126
G1 X129.219 Y126.400 E7.3503
G1 X129.219 Y141.530 E8.1655
G1 X126.349 Y144.400 E8.3842
G1 X103.651 Y144.400 E9.6072
G1 X103.008 Y143.756 E9.6562
G1 X102.364 Y144.400 E9.7053
G1 X79.666 Y144.400 E10.9283
G1 X76.796 Y141.530 E11.1470
G1 X76.796 Y124.470 E12.0662
G1 X77.266 Y124.000 E12.1020
G1 X76.796 Y123.530 E12.1378
G1 X76.796 Y106.470 E13.0570
G1 X77.266 Y106.000 E13.0929
G1 X76.796 Y105.530 E13.1287
G1 X76.796 Y88.470 E14.0479
G1 X79.666 Y85.600 E14.2666
G92 E0.0000
G1 E-6.0000 F1500
G1 X79.915 Y86.200 F4800
G1 E0.0000 F1500
G92 E0.0000
G1 X102.115 Y86.200 E1.1962 F1500
G1 X103.008 Y87.092 E1.2642
G1 X103.900 Y86.200 E1.3322
G1 X126.100 Y86.200 E2.5284
G1 X126.992 Y87.092 E2.5963
G1 X127.885 Y86.200 E2.6643
G1 X150.085 Y86.200 E3.8605
G1 X152.604 Y88.719 E4.0525
G1 X152.604 Y105.281 E4.9449
G1 X151.885 Y106.000 E4.9996
G1 X152.604 Y106.719 E5.0544
G1 X152.604 Y123.281 E5.9468
G1 X150.085 Y125.800 E6.1388
G1 X128.619 Y125.800 E7.2954
G1 X128.619 Y141.281 E8.1295
G1 X126.100 Y143.800 E8.3215
G1 X103.900 Y143.800 E9.5176
G1 X103.008 Y142.908 E9.5856
G1 X102.115 Y143.800 E9.6536
G1 X79.915 Y143.800 E10.8498
G1 X77.396 Y141.281 E11.0417
G1 X77.396 Y124.719 E11.9341
G1 X78.115 Y124.000 E11.9889
G1 X77.396 Y123.281 E12.0437
G1 X77.396 Y106.719 E12.9361
G1 X78.115 Y106.000 E12.9909
G1 X77.396 Y105.281 E13.0457
G1 X77.396 Y88.719 E13.9381
G1 X79.915 Y86.200 E14.1300
G92 E0.0000
G1 E-6.0000 F1500
; feature inner perimeter
G1 X87.300 Y91.400 F4800
G1 E0.0000 F1500
G92 E0.0000
G1 X88.048 Y91.400 E0.0403 F1125
G1 X88.048 Y102.600 E0.6437
G1 X87.300 Y102.600 E0.6840
G1 X87.300 Y91.400 E1.2875
G1 X93.982 Y91.400 F4800
G92 E0.0000
G1 X94.730 Y91.400 E0.0403 F1125
G1 X94.730 Y102.600 E0.6437
G1 X93.982 Y102.600 E0.6840
G1 X93.982 Y91.400 E1.2875
; feature outer perimeter
G1 X100.034 Y90.800 F4800
G92 E0.0000
G1 X100.034 Y103.200 E0.6681 F750
G1 X81.996 Y103.200 E1.6400
G1 X81.996 Y90.800 E2.3082
G1 X100.034 Y90.800 E3.2801
G1 X98.634 Y91.700 F4800
G92 E0.0000
G1 X95.330 Y91.700 E0.1780 F750
G1 X95.330 Y102.300 E0.7492
G1 X98.634 Y102.300 E0.9272
G1 X98.634 Y91.700 E1.4984
G1 X93.382 Y91.700 F4800
G92 E0.0000
G1 X91.715 Y91.700 E0.0898 F750
G1 X91.715 Y102.300 E0.6610
G1 X93.382 Y102.300 E0.7508
G1 X93.382 Y91.700 E1.3220
G1 X90.315 Y91.700 F4800
G92 E0.0000
G1 X88.648 Y91.700 E0.0898 F750
G1 X88.648 Y102.300 E0.6610
G1 X90.315 Y102.300 E0.7508
G1 X90.315 Y91.700 E1.3220
G1 X86.700 Y91.700 F4800
G92 E0.0000
G1 X83.396 Y91.700 E0.1780 F750
G1 X83.396 Y102.300 E0.7492
G1 X86.700 Y102.300 E0.9272
G1 X86.700 Y91.700 E1.4984
; feature gap fill
; tool H0.240 W0.400
G1 X86.685 Y91.210 F4800
G92 E0.0000
G1 X86.765 Y91.290 E0.0041 F1500
G1 X86.199 Y91.290 E0.0244
G1 X86.119 Y91.210 E0.0284
G1 X85.553 Y91.210 E0.0488
G1 X85.633 Y91.290 E0.0528
G1 X85.067 Y91.290 E0.0732
G1 X84.987 Y91.210 E0.0772
G1 X84.422 Y91.210 E0.0975
G1 X84.502 Y91.290 E0.1016
G1 X83.936 Y91.290 E0.1219
G1 X83.856 Y91.210 E0.1260
G1 X83.290 Y91.210 E0.1463
G1 X83.370 Y91.290 E0.1504
G1 X82.986 Y91.290 E0.1642
G1 X82.986 Y91.471 E0.1707
G1 X82.725 Y91.210 E0.1840
G1 X82.406 Y91.210 E0.1954
G1 X82.406 Y91.457 E0.2043
G1 X82.986 Y92.037 E0.2337
G1 X82.986 Y92.603 E0.2541
G1 X82.406 Y92.023 E0.2835
G1 X82.406 Y92.588 E0.3038
G1 X82.986 Y93.168 E0.3333
G1 X82.986 Y93.734 E0.3536
G1 X82.406 Y93.154 E0.3831
G1 X82.406 Y93.720 E0.4034
G1 X82.986 Y94.300 E0.4329
G1 X82.986 Y94.865 E0.4532
G1 X82.406 Y94.285 E0.4827
G1 X82.406 Y94.851 E0.5030
G1 X82.986 Y95.431 E0.5324
G1 X82.986 Y95.997 E0.5528
G1 X82.406 Y95.417 E0.5822
G1 X82.406 Y95.982 E0.6026
G1 X82.986 Y96.562 E0.6320
G1 X82.986 Y97.128 E0.6523
G1 X82.406 Y96.548 E0.6818
G1 X82.406 Y97.114 E0.7021
G1 X82.986 Y97.694 E0.7316
G1 X82.986 Y98.260 E0.7519
G1 X82.406 Y97.680 E0.7814
G1 X82.406 Y98.245 E0.8017
G1 X82.986 Y98.825 E0.8312
G1 X82.986 Y99.391 E0.8515
G1 X82.406 Y98.811 E0.8809
G1 X82.406 Y99.377 E0.9013
G1 X82.986 Y99.957 E0.9307
G1 X82.986 Y100.522 E0.9510
G1 X82.406 Y99.942 E0.9805
G1 X82.406 Y100.508 E1.0008
G1 X82.986 Y101.088 E1.0303
G1 X82.986 Y101.654 E1.0506
G1 X82.406 Y101.074 E1.0801
G1 X82.406 Y101.639 E1.1004
G1 X82.986 Y102.219 E1.1299
G1 X82.986 Y102.710 E1.1475
G1 X83.477 Y102.710 E1.1651
G1 X83.557 Y102.790 E1.1692
G1 X82.991 Y102.790 E1.1895
G1 X82.406 Y102.205 E1.2192
G1 X82.406 Y102.771 E1.2395
G1 X82.425 Y102.790 E1.2405
G1 X84.042 Y102.710 F4800
G92 E0.0000
G1 X84.122 Y102.790 E0.0041 F1500
G1 X84.688 Y102.790 E0.0244
G1 X84.608 Y102.710 E0.0284
G1 X85.174 Y102.710 E0.0488
G1 X85.254 Y102.790 E0.0528
G1 X85.819 Y102.790 E0.0732
G1 X85.739 Y102.710 E0.0772
G1 X86.305 Y102.710 E0.0975
G1 X86.385 Y102.790 E0.1016
G1 X86.884 Y102.790 E0.1195
G1 X86.884 Y102.724 E0.1219
G1 X86.871 Y102.710 E0.1226
G1 X88.568 Y102.710 F4800
G92 E0.0000
G1 X88.648 Y102.790 E0.0041 F1500
G1 X89.214 Y102.790 E0.0244
G1 X89.134 Y102.710 E0.0284
G1 X89.699 Y102.710 E0.0488
G1 X89.779 Y102.790 E0.0528
G1 X90.345 Y102.790 E0.0732
G1 X90.265 Y102.710 E0.0772
G1 X90.725 Y102.710 E0.0937
G1 X90.725 Y102.604 E0.0975
G1 X90.911 Y102.790 E0.1070
G1 X91.476 Y102.790 E0.1273
G1 X91.396 Y102.710 E0.1313
G1 X91.305 Y102.710 E0.1346
G1 X91.305 Y102.619 E0.1379
G1 X90.725 Y102.039 E0.1674
G1 X90.725 Y101.473 E0.1877
G1 X91.305 Y102.053 E0.2171
G1 X91.305 Y101.487 E0.2375
G1 X90.725 Y100.907 E0.2669
G1 X90.725 Y100.342 E0.2872
G1 X91.305 Y100.922 E0.3167
G1 X91.305 Y100.356 E0.3370
G1 X90.725 Y99.776 E0.3665
G1 X90.725 Y99.210 E0.3868
G1 X91.305 Y99.790 E0.4163
G1 X91.305 Y99.225 E0.4366
G1 X90.725 Y98.645 E0.4661
G1 X90.725 Y98.079 E0.4864
G1 X91.305 Y98.659 E0.5158
G1 X91.305 Y98.093 E0.5362
G1 X90.725 Y97.513 E0.5656
G1 X90.725 Y96.948 E0.5860
G1 X91.305 Y97.528 E0.6154
G1 X91.305 Y96.962 E0.6357
G1 X90.725 Y96.382 E0.6652
G1 X90.725 Y95.816 E0.6855
G1 X91.305 Y96.396 E0.7150
G1 X91.305 Y95.831 E0.7353
G1 X90.725 Y95.251 E0.7648
G1 X90.725 Y94.685 E0.7851
G1 X91.305 Y95.265 E0.8146
G1 X91.305 Y94.699 E0.8349
G1 X90.725 Y94.119 E0.8643
G1 X90.725 Y93.554 E0.8847
G1 X91.305 Y94.134 E0.9141
G1 X91.305 Y93.568 E0.9344
G1 X90.725 Y92.988 E0.9639
G1 X90.725 Y92.422 E0.9842
G1 X91.305 Y93.002 E1.0137
G1 X91.305 Y92.436 E1.0340
G1 X90.725 Y91.856 E1.0635
G1 X89.027 Y91.290 F4800
G92 E0.0000
G1 X88.947 Y91.210 E0.0041 F1500
G1 X89.513 Y91.210 E0.0244
G1 X89.593 Y91.290 E0.0284
G1 X90.159 Y91.290 E0.0488
G1 X90.079 Y91.210 E0.0528
G1 X90.644 Y91.210 E0.0732
G1 X90.724 Y91.290 E0.0772
G1 X91.305 Y91.871 E0.1067
G1 X91.305 Y91.305 E0.1271
G1 X91.210 Y91.210 E0.1319
G1 X91.776 Y91.210 E0.1522
G1 X91.856 Y91.290 E0.1563
G1 X92.421 Y91.290 E0.1766
G1 X92.341 Y91.210 E0.1807
G1 X92.907 Y91.210 E0.2010
G1 X92.987 Y91.290 E0.2050
G1 X93.553 Y91.290 E0.2254
G1 X93.473 Y91.210 E0.2294
G1 X95.170 Y91.210 F4800
G92 E0.0000
G1 X95.250 Y91.290 E0.0041 F1500
G1 X95.815 Y91.290 E0.0244
G1 X95.735 Y91.210 E0.0284
G1 X96.301 Y91.210 E0.0488
G1 X96.381 Y91.290 E0.0528
G1 X96.947 Y91.290 E0.0732
G1 X96.867 Y91.210 E0.0772
G1 X97.433 Y91.210 E0.0975
G1 X97.513 Y91.290 E0.1016
G1 X98.078 Y91.290 E0.1219
G1 X97.998 Y91.210 E0.1260
G1 X98.564 Y91.210 E0.1463
G1 X98.644 Y91.290 E0.1504
G1 X99.044 Y91.290 E0.1647
G1 X99.044 Y91.690 E0.1791
G1 X99.624 Y92.270 E0.2086
G1 X99.624 Y91.705 E0.2289
G1 X99.130 Y91.210 E0.2540
G1 X99.044 Y92.256 F4800
G92 E0.0000
G1 X99.624 Y92.836 E0.0295 F1500
G1 X99.624 Y93.402 E0.0498
G1 X99.044 Y92.822 E0.0792
G1 X99.044 Y93.387 E0.0996
G1 X99.624 Y93.967 E0.1290
G1 X99.624 Y94.533 E0.1494
G1 X99.044 Y93.953 E0.1788
G1 X99.044 Y94.519 E0.1991
G1 X99.624 Y95.099 E0.2286
G1 X99.624 Y95.664 E0.2489
G1 X99.044 Y95.084 E0.2784
G1 X99.044 Y95.650 E0.2987
G1 X99.624 Y96.230 E0.3282
G1 X99.624 Y96.796 E0.3485
G1 X99.044 Y96.216 E0.3780
G1 X99.044 Y96.781 E0.3983
G1 X99.624 Y97.361 E0.4277
G1 X99.624 Y97.927 E0.4481
G1 X99.044 Y97.347 E0.4775
G1 X99.044 Y97.913 E0.4978
G1 X99.624 Y98.493 E0.5273
G1 X99.624 Y99.058 E0.5476
G1 X99.044 Y98.478 E0.5771
G1 X99.044 Y99.044 E0.5974
G1 X99.624 Y99.624 E0.6269
G1 X99.624 Y100.190 E0.6472
G1 X99.044 Y99.610 E0.6767
G1 X99.044 Y100.175 E0.6970
G1 X99.624 Y100.755 E0.7264
G1 X99.624 Y101.321 E0.7468
G1 X99.044 Y100.741 E0.7762
G1 X99.044 Y101.307 E0.7965
G1 X99.624 Y101.887 E0.8260
G1 X99.624 Y102.453 E0.8463
G1 X99.044 Y101.873 E0.8758
G1 X99.044 Y102.438 E0.8961
G1 X99.396 Y102.790 E0.9140
G1 X98.830 Y102.790 E0.9343
G1 X98.750 Y102.710 E0.9384
G1 X98.185 Y102.710 E0.9587
G1 X98.265 Y102.790 E0.9627
G1 X97.699 Y102.790 E0.9831
G1 X97.619 Y102.710 E0.9871
G1 X97.053 Y102.710 E1.0075
G1 X97.133 Y102.790 E1.0115
G1 X96.567 Y102.790 E1.0318
G1 X96.487 Y102.710 E1.0359
G1 X95.922 Y102.710 E1.0562
G1 X96.002 Y102.790 E1.0603
G1 X95.436 Y102.790 E1.0806
G1 X95.356 Y102.710 E1.0847
G1 X93.093 Y102.710 F4800
G92 E0.0000
G1 X93.173 Y102.790 E0.0041 F1500
G1 X92.608 Y102.790 E0.0244
G1 X92.528 Y102.710 E0.0284
G1 X91.962 Y102.710 E0.0488
G1 X92.042 Y102.790 E0.0528
G92 E0.0000
G1 E-6.0000 F1500
; feature inner perimeter
; tool H0.240 W0.600
G1 X93.982 Y109.400 F4800
G1 E0.0000 F1500
G92 E0.0000
G1 X94.730 Y109.400 E0.0403 F1125
G1 X94.730 Y120.600 E0.6437
G1 X93.982 Y120.600 E0.6840
G1 X93.982 Y109.400 E1.2875
G1 X88.048 Y109.400 F4800
G92 E0.0000
G1 X88.048 Y120.600 E0.6035 F1125
G1 X87.300 Y120.600 E0.6437
G1 X87.300 Y109.400 E1.2472
G1 X88.048 Y109.400 E1.2875
; feature outer perimeter
G1 X81.996 Y108.800 F4800
G92 E0.0000
G1 X100.034 Y108.800 E0.9719 F750
G1 X100.034 Y121.200 E1.6400
G1 X81.996 Y121.200 E2.6120
G1 X81.996 Y108.800 E3.2801
G1 X83.396 Y109.700 F4800
G92 E0.0000
G1 X83.396 Y120.300 E0.5711 F750
