; G-Code generated by Simplify3D(R) Version 4.1.2
; Apr 8, 2020 at 9:56:32 PM
; Settings Summary
;   processName,Process1
;   applyToModels,Surgical_Mask_Strap_Remix_0(9),Surgical_Mask_Strap_Remix_0(10)
;   profileName,Creality Ender 3 Pro (modified)
;   profileVersion,2019-04-06 08:00:00
;   baseProfile,
;   printMaterial,PLA
;   printQuality,MASK-2.1
;   printExtruders,
;   extruderName,Primary Extruder
;   extruderToolheadNumber,0
;   extruderDiameter,0.4
;   extruderAutoWidth,0
;   extruderWidth,0.7
;   extrusionMultiplier,0.9
;   extruderUseRetract,1
;   extruderRetractionDistance,6
;   extruderExtraRestartDistance,0
;   extruderRetractionZLift,0
;   extruderRetractionSpeed,1500
;   extruderUseCoasting,0
;   extruderCoastingDistance,0.2
;   extruderUseWipe,0
;   extruderWipeDistance,5
;   primaryExtruder,0
;   layerHeight,0.2
;   topSolidLayers,4
;   bottomSolidLayers,4
;   perimeterOutlines,3
;   printPerimetersInsideOut,0
;   startPointOption,2
;   startPointOriginX,0
;   startPointOriginY,0
;   sequentialIslands,0
;   spiralVaseMode,0
;   firstLayerHeightPercentage,120
;   firstLayerWidthPercentage,110
;   firstLayerUnderspeed,0.5
;   useRaft,0
;   raftExtruder,0
;   raftTopLayers,3
;   raftBaseLayers,2
;   raftOffset,3
;   raftSeparationDistance,0.14
;   raftTopInfill,100
;   aboveRaftSpeedMultiplier,0.3
;   useSkirt,0
;   skirtExtruder,0
;   skirtLayers,1
;   skirtOutlines,2
;   skirtOffset,4
;   usePrimePillar,0
;   primePillarExtruder,999
;   primePillarWidth,12
;   primePillarLocation,7
;   primePillarSpeedMultiplier,1
;   useOozeShield,0
;   oozeShieldExtruder,999
;   oozeShieldOffset,2
;   oozeShieldOutlines,1
;   oozeShieldSidewallShape,1
;   oozeShieldSidewallAngle,30
;   oozeShieldSpeedMultiplier,1
;   infillExtruder,0
;   internalInfillPattern,Rectilinear
;   externalInfillPattern,Rectilinear
;   infillPercentage,50
;   outlineOverlapPercentage,15
;   infillExtrusionWidthPercentage,100
;   minInfillLength,5
;   infillLayerInterval,1
;   internalInfillAngles,45,-45
;   overlapInternalInfillAngles,0
;   externalInfillAngles,45,-45
;   generateSupport,0
;   supportExtruder,0
;   supportInfillPercentage,25
;   supportExtraInflation,0
;   supportBaseLayers,0
;   denseSupportExtruder,0
;   denseSupportLayers,0
;   denseSupportInfillPercentage,70
;   supportLayerInterval,1
;   supportHorizontalPartOffset,0.3
;   supportUpperSeparationLayers,1
;   supportLowerSeparationLayers,1
;   supportType,0
;   supportGridSpacing,4
;   maxOverhangAngle,45
;   supportAngles,0
;   temperatureName,Primary Extruder,Heated Bed
;   temperatureNumber,0,0
;   temperatureSetpointCount,1,1
;   temperatureSetpointLayers,1,1
;   temperatureSetpointTemperatures,200,60
;   temperatureStabilizeAtStartup,1,1
;   temperatureHeatedBed,0,1
;   fanLayers,1,2
;   fanSpeeds,0,100
;   blipFanToFullPower,0
;   adjustSpeedForCooling,1
;   minSpeedLayerTime,15
;   minCoolingSpeedSlowdown,20
;   increaseFanForCooling,0
;   minFanLayerTime,45
;   maxCoolingFanSpeed,100
;   increaseFanForBridging,0
;   bridgingFanSpeed,100
;   use5D,1
;   relativeEdistances,0
;   allowEaxisZeroing,1
;   independentExtruderAxes,0
;   includeM10123,0
;   stickySupport,1
;   applyToolheadOffsets,0
;   gcodeXoffset,0
;   gcodeYoffset,0
;   gcodeZoffset,0
;   overrideMachineDefinition,1
;   machineTypeOverride,0
;   strokeXoverride,220
;   strokeYoverride,220
;   strokeZoverride,250
;   originOffsetXoverride,-5
;   originOffsetYoverride,-5
;   originOffsetZoverride,0
;   homeXdirOverride,-1
;   homeYdirOverride,-1
;   homeZdirOverride,-1
;   flipXoverride,1
;   flipYoverride,-1
;   flipZoverride,1
;   toolheadOffsets,0,0|0,0|0,0|0,0|0,0|0,0
;   overrideFirmwareConfiguration,1
;   firmwareTypeOverride,RepRap (Marlin/Repetier/Sprinter)
;   GPXconfigOverride,r2
;   baudRateOverride,115200
;   overridePrinterModels,1
;   printerModelsOverride
;   startingGcode,G28 ; home all axes,G1 X5 Y10 Z0.2 F3000 ; get ready to prime,G92 E0 ; reset extrusion distance,G1 X160 E15 F600 ; prime nozzle,G1 X180 F5000 ; quick wipe
;   layerChangeGcode,
;   retractionGcode,
;   toolChangeGcode,
;   endingGcode,G28 X0 ; home X axis,M106 S0 ; turn off cooling fan,M104 S0 ; turn off extruder,M140 S0 ; turn off bed,M84 ; disable motors
;   exportFileFormat,gcode
;   celebration,0
;   celebrationSong,Random Song
;   postProcessing,
;   defaultSpeed,3000
;   outlineUnderspeed,0.75
;   solidInfillUnderspeed,0.8
;   supportUnderspeed,0.8
;   rapidXYspeed,4800
;   rapidZspeed,1000
;   minBridgingArea,50
;   bridgingExtraInflation,0
;   bridgingExtrusionMultiplier,1
;   bridgingSpeedMultiplier,1
;   useFixedBridgingAngle,0
;   fixedBridgingAngle,0
;   applyBridgingToPerimeters,0
;   filamentDiameters,1.75|1.75|1.75|1.75|1.75|1.75
;   filamentPricesPerKg,25|46|46|46|46|46
;   filamentDensities,1.25|1.25|1.25|1.25|1.25|1.25
;   useMinPrintHeight,0
;   minPrintHeight,9
;   useMaxPrintHeight,0
;   maxPrintHeight,9
;   useDiaphragm,0
;   diaphragmLayerInterval,20
;   robustSlicing,1
;   mergeAllIntoSolid,0
;   onlyRetractWhenCrossingOutline,1
;   retractBetweenLayers,1
;   useRetractionMinTravel,0
;   retractionMinTravel,3
;   retractWhileWiping,0
;   onlyWipeOutlines,1
;   avoidCrossingOutline,0
;   maxMovementDetourFactor,3
;   toolChangeRetractionDistance,12
;   toolChangeExtraRestartDistance,-0.5
;   toolChangeRetractionSpeed,600
;   externalThinWallType,0
;   internalThinWallType,2
;   thinWallAllowedOverlapPercentage,10
;   singleExtrusionMinLength,1
;   singleExtrusionMinPrintingWidthPercentage,50
;   singleExtrusionMaxPrintingWidthPercentage,200
;   singleExtrusionEndpointExtension,0.2
;   horizontalSizeCompensation,0
G90
M82
M106 S0
M140 S60
M190 S60
M104 S200 T0
M109 S200 T0
G28 ; home all axes
G1 X5 Y10 Z0.2 F3000 ; get ready to prime
G92 E0 ; reset extrusion distance
G1 X160 E15 F600 ; prime nozzle
G1 X180 F5000 ; quick wipe
; process Process1
; layer 1, Z = 0.240
T0
G92 E0.0000
G1 E-6.0000 F1500
; feature outer perimeter
; tool H0.240 W0.770
G1 Z0.240 F1000
G1 X81.415 Y55.146 F4800
G1 E0.0000 F1500
G92 E0.0000
G1 X81.899 Y54.666 E0.0472 F1125
G1 X82.490 Y54.327 E0.0943
G1 X83.175 Y54.147 E0.1433
G1 X103.984 Y51.488 E1.5938
G1 X104.690 Y51.490 E1.6427
G1 X105.347 Y51.669 E1.6898
G1 X105.938 Y52.012 E1.7370
G1 X106.417 Y52.495 E1.7840
G1 X106.757 Y53.088 E1.8313
G1 X106.929 Y53.746 E1.8784
G1 X106.926 Y54.428 E1.9255
G1 X106.750 Y55.087 E1.9727
G1 X106.405 Y55.675 E2.0199
G1 X105.922 Y56.156 E2.0670
G1 X105.329 Y56.495 E2.1142
G1 X104.670 Y56.668 E2.1613
G1 X103.989 Y56.666 E2.2084
G1 X103.330 Y56.487 E2.2556
G1 X102.741 Y56.144 E2.3027
G1 X102.261 Y55.660 E2.3499
G1 X101.924 Y55.069 E2.3969
G1 X101.652 Y54.032 E2.4711
G1 X99.806 Y54.270 E2.5998
G1 X101.042 Y63.962 E3.2754
G1 X105.505 Y63.390 E3.5865
G1 X106.211 Y63.392 E3.6353
G1 X106.871 Y63.572 E3.6826
G1 X107.459 Y63.914 E3.7297
G1 X107.940 Y64.400 E3.7769
G1 X108.279 Y64.990 E3.8240
G1 X108.452 Y65.650 E3.8712
G1 X108.450 Y66.333 E3.9184
G1 X108.272 Y66.988 E3.9654
G1 X107.928 Y67.577 E4.0125
G1 X107.444 Y68.058 E4.0597
G1 X106.852 Y68.397 E4.1068
G1 X106.191 Y68.572 E4.1541
G1 X105.511 Y68.570 E4.2011
G1 X104.854 Y68.389 E4.2483
G1 X104.263 Y68.046 E4.2955
G1 X103.784 Y67.562 E4.3426
G1 X103.445 Y66.970 E4.3898
G1 X103.173 Y65.938 E4.4636
G1 X101.323 Y66.173 E4.5925
G1 X102.559 Y75.866 E5.2681
G1 X107.026 Y75.293 E5.5795
G1 X107.733 Y75.296 E5.6284
G1 X108.392 Y75.474 E5.6756
G1 X108.981 Y75.818 E5.7227
G1 X109.461 Y76.302 E5.7699
G1 X109.800 Y76.893 E5.8170
G1 X109.974 Y77.554 E5.8643
G1 X109.971 Y78.235 E5.9113
G1 X109.793 Y78.892 E5.9585
G1 X109.449 Y79.483 E6.0057
G1 X108.965 Y79.962 E6.0527
G1 X108.374 Y80.301 E6.0999
G1 X107.713 Y80.474 E6.1471
G1 X107.032 Y80.471 E6.1942
G1 X106.375 Y80.293 E6.2413
G1 X105.786 Y79.950 E6.2885
G1 X105.305 Y79.467 E6.3355
G1 X104.966 Y78.874 E6.3828
G1 X104.691 Y77.840 E6.4568
G1 X102.841 Y78.077 E6.5858
G1 X104.077 Y87.767 E7.2613
G1 X108.550 Y87.197 E7.5731
G1 X109.255 Y87.200 E7.6219
G1 X109.913 Y87.380 E7.6690
G1 X110.502 Y87.722 E7.7161
G1 X110.983 Y88.206 E7.7633
G1 X111.322 Y88.797 E7.8104
G1 X111.495 Y89.456 E7.8575
G1 X111.492 Y90.139 E7.9047
G1 X111.314 Y90.796 E7.9518
G1 X110.971 Y91.385 E7.9990
G1 X110.486 Y91.867 E8.0462
G1 X109.895 Y92.205 E8.0933
G1 X109.236 Y92.380 E8.1404
G1 X108.556 Y92.377 E8.1875
G1 X107.896 Y92.197 E8.2348
G1 X107.307 Y91.855 E8.2818
G1 X106.827 Y91.370 E8.3291
G1 X106.488 Y90.778 E8.3762
G1 X106.216 Y89.744 E8.4502
G1 X104.358 Y89.981 E8.5797
G1 X106.933 Y110.175 E9.9874
G1 X110.153 Y111.523 E10.2287
G1 X110.691 Y111.939 E10.2757
G1 X111.105 Y112.482 E10.3230
G1 X111.364 Y113.111 E10.3700
G1 X111.451 Y113.814 E10.4190
G1 X111.310 Y151.436 E13.0205
G1 X111.217 Y152.138 E13.0695
G1 X110.954 Y152.765 E13.1165
G1 X110.536 Y153.305 E13.1637
G1 X109.994 Y153.718 E13.2108
G1 X106.765 Y155.041 E13.4521
G1 X104.038 Y175.215 E14.8598
G1 X105.894 Y175.467 E14.9893
G1 X106.174 Y174.434 E15.0633
G1 X106.517 Y173.843 E15.1105
G1 X107.001 Y173.363 E15.1576
G1 X107.592 Y173.026 E15.2047
G1 X108.253 Y172.853 E15.2519
G1 X108.934 Y172.855 E15.2990
G1 X109.592 Y173.034 E15.3462
G1 X110.181 Y173.375 E15.3932
G1 X110.661 Y173.859 E15.4404
G1 X111.000 Y174.452 E15.4876
G1 X111.173 Y175.111 E15.5347
G1 X111.171 Y175.794 E15.5819
G1 X110.993 Y176.451 E15.6290
G1 X110.649 Y177.040 E15.6762
G1 X110.165 Y177.520 E15.7233
G1 X109.573 Y177.858 E15.7704
G1 X108.914 Y178.033 E15.8176
G1 X108.208 Y178.030 E15.8664
G1 X103.740 Y177.427 E16.1782
G1 X102.431 Y187.107 E16.8536
G1 X104.280 Y187.359 E16.9827
G1 X104.563 Y186.327 E17.0566
G1 X104.906 Y185.736 E17.1039
G1 X105.390 Y185.257 E17.1510
G1 X105.982 Y184.918 E17.1981
G1 X106.641 Y184.745 E17.2452
G1 X107.322 Y184.747 E17.2923
G1 X107.981 Y184.926 E17.3395
G1 X108.570 Y185.269 E17.3867
G1 X109.050 Y185.751 E17.4338
G1 X109.389 Y186.344 E17.4810
G1 X109.563 Y187.003 E17.5281
G1 X109.560 Y187.684 E17.5752
G1 X109.382 Y188.343 E17.6224
G1 X109.038 Y188.932 E17.6696
G1 X108.554 Y189.413 E17.7167
G1 X107.963 Y189.752 E17.7639
G1 X107.302 Y189.925 E17.8111
G1 X106.596 Y189.922 E17.8599
G1 X102.133 Y189.317 E18.1713
G1 X100.825 Y199.000 E18.8470
G1 X102.672 Y199.248 E18.9759
G1 X102.952 Y198.217 E19.0498
G1 X103.296 Y197.629 E19.0969
G1 X103.778 Y197.147 E19.1440
G1 X104.371 Y196.810 E19.1912
G1 X105.031 Y196.635 E19.2384
G1 X105.711 Y196.637 E19.2854
G1 X106.370 Y196.817 E19.3327
G1 X106.959 Y197.159 E19.3798
G1 X107.440 Y197.645 E19.4270
G1 X107.779 Y198.235 E19.4741
G1 X107.952 Y198.893 E19.5211
G1 X107.949 Y199.578 E19.5685
G1 X107.771 Y200.235 E19.6156
G1 X107.428 Y200.822 E19.6626
G1 X106.944 Y201.303 E19.7098
G1 X106.352 Y201.642 E19.7570
G1 X105.691 Y201.817 E19.8042
G1 X104.985 Y201.815 E19.8530
G1 X100.527 Y201.211 E20.1641
G1 X99.218 Y210.894 E20.8398
G1 X101.062 Y211.143 E20.9684
G1 X101.342 Y210.108 E21.0425
G1 X101.683 Y209.519 E21.0896
G1 X102.167 Y209.039 E21.1367
G1 X102.759 Y208.700 E21.1839
G1 X103.419 Y208.527 E21.2311
G1 X104.100 Y208.529 E21.2782
G1 X104.758 Y208.708 E21.3253
G1 X105.348 Y209.051 E21.3725
G1 X105.827 Y209.535 E21.4196
G1 X106.168 Y210.127 E21.4668
G1 X106.339 Y210.787 E21.5140
G1 X106.337 Y211.469 E21.5611
G1 X106.160 Y212.126 E21.6082
G1 X105.815 Y212.716 E21.6555
G1 X105.333 Y213.195 E21.7024
G1 X104.740 Y213.534 E21.7497
G1 X104.081 Y213.707 E21.7968
G1 X103.375 Y213.705 E21.8456
G1 X82.587 Y210.889 E23.2962
G1 X81.903 Y210.704 E23.3452
G1 X81.314 Y210.361 E23.3923
G1 X80.834 Y209.876 E23.4395
G1 X80.495 Y209.286 E23.4866
G1 X80.323 Y208.625 E23.5338
G1 X80.326 Y207.943 E23.5809
G1 X80.502 Y207.286 E23.6280
G1 X80.846 Y206.696 E23.6752
G1 X81.330 Y206.217 E23.7223
G1 X81.921 Y205.878 E23.7694
G1 X82.582 Y205.704 E23.8166
G1 X83.265 Y205.707 E23.8639
G1 X83.920 Y205.885 E23.9108
G1 X84.511 Y206.229 E23.9581
G1 X84.990 Y206.711 E24.0051
G1 X85.330 Y207.304 E24.0524
G1 X85.502 Y207.963 E24.0994
G1 X85.498 Y209.031 E24.1733
G1 X87.683 Y209.331 E24.3259
G1 X88.990 Y199.648 E25.0015
G1 X84.198 Y198.997 E25.3359
G1 X83.516 Y198.812 E25.3848
G1 X82.925 Y198.469 E25.4320
G1 X82.446 Y197.985 E25.4791
G1 X82.107 Y197.393 E25.5263
G1 X81.934 Y196.734 E25.5733
G1 X81.937 Y196.053 E25.6204
G1 X82.115 Y195.394 E25.6677
G1 X82.458 Y194.805 E25.7148
G1 X82.941 Y194.325 E25.7619
G1 X83.534 Y193.986 E25.8091
G1 X84.192 Y193.812 E25.8562
G1 X84.874 Y193.815 E25.9033
G1 X85.533 Y193.993 E25.9505
G1 X86.121 Y194.337 E25.9977
G1 X86.602 Y194.821 E26.0448
G1 X86.941 Y195.412 E26.0920
G1 X87.114 Y196.073 E26.1392
G1 X87.110 Y197.142 E26.2131
G1 X89.290 Y197.439 E26.3652
G1 X90.597 Y187.754 E27.0410
G1 X85.809 Y187.107 E27.3751
G1 X85.126 Y186.920 E27.4240
G1 X84.538 Y186.579 E27.4710
G1 X84.057 Y186.093 E27.5183
G1 X83.718 Y185.502 E27.5654
G1 X83.543 Y184.842 E27.6126
G1 X83.545 Y184.160 E27.6598
G1 X83.725 Y183.503 E27.7069
G1 X84.069 Y182.913 E27.7541
G1 X84.553 Y182.433 E27.8012
G1 X85.145 Y182.096 E27.8483
G1 X85.804 Y181.920 E27.8955
G1 X86.484 Y181.923 E27.9425
G1 X87.143 Y182.103 E27.9898
G1 X87.732 Y182.445 E28.0369
G1 X88.213 Y182.929 E28.0841
G1 X88.552 Y183.520 E28.1312
G1 X88.725 Y184.179 E28.1783
G1 X88.721 Y185.250 E28.2524
G1 X90.897 Y185.544 E28.4042
G1 X92.205 Y175.862 E29.0798
G1 X87.418 Y175.213 E29.4138
G1 X86.737 Y175.030 E29.4626
G1 X86.148 Y174.687 E29.5097
G1 X85.668 Y174.202 E29.5569
G1 X85.329 Y173.611 E29.6040
G1 X85.155 Y172.950 E29.6512
G1 X85.158 Y172.268 E29.6985
G1 X85.336 Y171.612 E29.7454
G1 X85.680 Y171.021 E29.7927
G1 X86.163 Y170.543 E29.8397
G1 X86.756 Y170.203 E29.8869
G1 X87.414 Y170.028 E29.9341
G1 X88.096 Y170.031 E29.9812
G1 X88.754 Y170.211 E30.0283
G1 X89.343 Y170.555 E30.0755
G1 X89.823 Y171.037 E30.1226
G1 X90.162 Y171.630 E30.1698
G1 X90.336 Y172.287 E30.2168
G1 X90.332 Y173.358 E30.2909
G1 X92.503 Y173.653 E30.4424
G1 X94.704 Y157.361 E31.5791
G1 X94.109 Y157.346 E31.6203
G1 X93.820 Y157.309 E31.6405
G1 X93.582 Y157.238 E31.6576
G1 X93.387 Y157.135 E31.6729
G1 X93.220 Y156.997 E31.6879
G1 X93.074 Y156.818 E31.7039
G1 X93.021 Y156.727 E31.7112
G1 X92.908 Y156.466 E31.7308
G1 X92.868 Y156.335 E31.7403
G1 X92.802 Y155.998 E31.7640
G1 X92.768 Y155.614 E31.7907
G1 X92.942 Y109.497 E34.9796
G1 X92.978 Y109.113 E35.0062
G1 X93.047 Y108.777 E35.0300
G1 X93.088 Y108.646 E35.0395
G1 X93.202 Y108.385 E35.0592
G1 X93.255 Y108.297 E35.0663
G1 X93.402 Y108.118 E35.0823
G1 X93.571 Y107.983 E35.0973
G1 X93.769 Y107.879 E35.1127
G1 X94.006 Y107.810 E35.1298
G1 X94.293 Y107.775 E35.1498
G1 X94.891 Y107.771 E35.1911
G1 X92.812 Y91.457 E36.3284
G1 X90.638 Y91.735 E36.4799
G1 X90.634 Y92.804 E36.5538
G1 X90.456 Y93.462 E36.6009
G1 X90.112 Y94.053 E36.6482
G1 X89.628 Y94.533 E36.6954
G1 X89.037 Y94.872 E36.7425
G1 X88.378 Y95.045 E36.7896
G1 X87.695 Y95.043 E36.8368
G1 X87.038 Y94.865 E36.8839
G1 X86.449 Y94.521 E36.9310
G1 X85.969 Y94.037 E36.9782
G1 X85.630 Y93.444 E37.0254
G1 X85.456 Y92.785 E37.0726
G1 X85.459 Y92.104 E37.1196
G1 X85.637 Y91.447 E37.1667
G1 X85.980 Y90.856 E37.2140
G1 X86.465 Y90.377 E37.2611
G1 X87.056 Y90.036 E37.3083
G1 X87.739 Y89.859 E37.3571
G1 X92.530 Y89.245 E37.6911
G1 X91.295 Y79.553 E38.3667
G1 X89.117 Y79.832 E38.5185
G1 X89.113 Y80.903 E38.5926
G1 X88.935 Y81.560 E38.6396
G1 X88.591 Y82.149 E38.6868
G1 X88.107 Y82.629 E38.7339
G1 X87.516 Y82.966 E38.7810
G1 X86.855 Y83.142 E38.8283
G1 X86.174 Y83.139 E38.8753
G1 X85.517 Y82.959 E38.9225
G1 X84.928 Y82.617 E38.9696
G1 X84.447 Y82.133 E39.0168
G1 X84.108 Y81.541 E39.0639
G1 X83.933 Y80.883 E39.1110
G1 X83.936 Y80.201 E39.1582
G1 X84.116 Y79.541 E39.2055
G1 X84.459 Y78.954 E39.2525
G1 X84.943 Y78.472 E39.2998
G1 X85.535 Y78.134 E39.3469
G1 X86.219 Y77.953 E39.3958
G1 X91.011 Y77.342 E39.7298
G1 X89.777 Y67.650 E40.4054
G1 X87.596 Y67.928 E40.5575
G1 X87.592 Y68.997 E40.6315
G1 X87.413 Y69.656 E40.6787
G1 X87.070 Y70.245 E40.7258
G1 X86.586 Y70.726 E40.7730
G1 X85.994 Y71.065 E40.8201
G1 X85.334 Y71.238 E40.8674
G1 X84.653 Y71.235 E40.9145
G1 X83.995 Y71.057 E40.9616
G1 X83.405 Y70.714 E41.0088
G1 X82.926 Y70.230 E41.0559
G1 X82.587 Y69.638 E41.1030
G1 X82.414 Y68.977 E41.1502
