;FLAVOR:Marlin
;TIME:384
;Filament used: 0.216095m
;Layer height: 0.2
;MINX:30
;MINY:30
;MINZ:0.2
;MAXX:205
;MAXY:205
;MAXZ:0.2
;Generated with Cura_SteamEngine 4.6.0
M82 ;absolute extrusion mode
; Ender 3 Custom Start G-code JG 2020-05-30 13:46
G92 E0 ; Reset Extruder
M140 S50 ; Set Heat Bed temperature
M190 S50 ; Wait for Heat Bed temperature
G28 ; Home all axes
G29 ;
G1 Z2.0 F3000 ; Move Z Axis up little to prevent scratching of Heat Bed
M104 S200 ; Set Extruder temperature
G1 X0.1 Y20 Z0.3 F5000.0 ; Move to start position
M109 S200 ; Wait for Extruder temperature
G1 X0.1 Y200.0 Z0.3 F1500.0 E15 ; Draw the first line
G1 X0.4 Y200.0 Z0.3 F5000.0 ; Move to side a little
G1 X0.4 Y20 Z0.3 F1500.0 E30 ; Draw the second line
G92 E0 ; Reset Extruder
G1 Z2.0 F3000 ; Move Z Axis up little to prevent scratching of Heat Bed
G1 X5 Y20 Z0.3 F5000.0 ; Move over to prevent blob squish
G92 E0
G92 E0
G1 F2700 E-5
;LAYER_COUNT:1
;LAYER:0
M107
G0 F6000 X194.137 Y30.811 Z0.2
;TYPE:SKIRT
G1 F2700 E0
G1 F1200 X195.039 Y30.864 E0.03005
G1 X195.932 Y30.996 E0.06008
G1 X196.81 Y31.207 E0.09011
G1 X197.666 Y31.495 E0.12015
G1 X198.493 Y31.857 E0.15018
G1 X199.285 Y32.292 E0.18023
G1 X200.036 Y32.794 E0.21027
G1 X200.739 Y33.361 E0.24031
G1 X201.389 Y33.988 E0.27035
G1 X201.981 Y34.67 E0.30039
G1 X202.511 Y35.401 E0.33042
G1 X202.973 Y36.177 E0.36046
G1 X203.366 Y36.99 E0.39049
G1 X203.684 Y37.835 E0.42052
G1 X203.927 Y38.705 E0.45056
G1 X204.092 Y39.593 E0.4806
G1 X204.187 Y40.723 E0.51832
G1 X204.2 Y41.33 E0.53851
G1 X204.2 Y193.264 E5.59186
G1 X204.19 Y194.117 E5.62023
G1 X204.139 Y195.019 E5.65028
G1 X204.008 Y195.913 E5.68033
G1 X203.799 Y196.791 E5.71035
G1 X203.513 Y197.648 E5.7404
G1 X203.152 Y198.476 E5.77044
G1 X202.72 Y199.268 E5.80045
G1 X202.219 Y200.02 E5.8305
G1 X201.653 Y200.724 E5.86055
G1 X201.028 Y201.375 E5.89056
G1 X200.347 Y201.969 E5.92062
G1 X199.616 Y202.5 E5.95067
G1 X198.842 Y202.964 E5.98069
G1 X198.029 Y203.358 E6.01073
G1 X197.185 Y203.678 E6.04076
G1 X196.315 Y203.923 E6.07082
G1 X195.428 Y204.089 E6.10083
G1 X194.277 Y204.187 E6.13925
G1 X193.67 Y204.2 E6.15945
G1 X41.707 Y204.2 E11.21376
G1 X40.877 Y204.19 E11.24136
G1 X39.976 Y204.139 E11.27138
G1 X39.082 Y204.007 E11.30144
G1 X38.204 Y203.798 E11.33145
G1 X37.347 Y203.511 E11.36151
G1 X36.52 Y203.15 E11.39153
G1 X35.727 Y202.717 E11.42158
G1 X34.976 Y202.216 E11.4516
G1 X34.272 Y201.65 E11.48165
G1 X33.621 Y201.024 E11.51169
G1 X33.028 Y200.343 E11.54172
G1 X32.498 Y199.612 E11.57175
G1 X32.034 Y198.837 E11.6018
G1 X31.64 Y198.024 E11.63184
G1 X31.32 Y197.18 E11.66187
G1 X31.076 Y196.31 E11.69192
G1 X30.91 Y195.422 E11.72197
G1 X30.813 Y194.267 E11.76052
G1 X30.8 Y193.658 E11.78078
G1 X30.8 Y41.674 E16.83578
G1 X30.81 Y40.871 E16.86249
G1 X30.862 Y39.969 E16.89254
G1 X30.994 Y39.076 E16.92257
G1 X31.204 Y38.198 E16.95259
G1 X31.491 Y37.341 E16.98265
G1 X31.853 Y36.514 E17.01268
G1 X32.286 Y35.722 E17.0427
G1 X32.788 Y34.971 E17.07275
G1 X33.355 Y34.267 E17.10281
G1 X33.981 Y33.617 E17.13283
G1 X34.662 Y33.024 E17.16286
G1 X35.394 Y32.494 E17.19292
G1 X36.169 Y32.031 E17.22295
G1 X36.982 Y31.638 E17.25298
G1 X37.827 Y31.318 E17.28303
G1 X38.696 Y31.075 E17.31304
G1 X39.584 Y30.909 E17.34309
G1 X40.723 Y30.813 E17.38111
G1 X41.33 Y30.8 E17.4013
G1 X193.293 Y30.8 E22.45561
G1 X193.439 Y30.801 E22.46047
G1 X194.137 Y30.811 E22.48369
G0 F6000 X194.143 Y30.411
G1 F1200 X195.062 Y30.464 E22.5143
G1 X195.973 Y30.597 E22.54492
G1 X196.869 Y30.808 E22.57554
G1 X197.743 Y31.096 E22.60615
G1 X198.59 Y31.459 E22.6368
G1 X199.401 Y31.894 E22.66741
G1 X200.171 Y32.398 E22.69801
G1 X200.895 Y32.967 E22.72864
G1 X201.567 Y33.597 E22.75928
G1 X202.182 Y34.282 E22.7899
G1 X202.735 Y35.018 E22.82052
G1 X203.222 Y35.799 E22.85113
G1 X203.639 Y36.62 E22.88176
G1 X203.984 Y37.474 E22.91239
G1 X204.253 Y38.354 E22.943
G1 X204.445 Y39.255 E22.97364
G1 X204.558 Y40.168 E23.00423
G1 X204.587 Y40.712 E23.02235
G1 X204.6 Y41.33 E23.04291
G1 X204.6 Y193.264 E28.09626
G1 X204.59 Y194.122 E28.1248
G1 X204.539 Y195.041 E28.15541
G1 X204.408 Y195.953 E28.18605
G1 X204.198 Y196.849 E28.21666
G1 X203.912 Y197.724 E28.24728
G1 X203.551 Y198.571 E28.2779
G1 X203.117 Y199.383 E28.30853
G1 X202.615 Y200.155 E28.33916
G1 X202.047 Y200.88 E28.36979
G1 X201.419 Y201.553 E28.4004
G1 X200.735 Y202.169 E28.43102
G1 X200 Y202.723 E28.46163
G1 X199.22 Y203.212 E28.49225
G1 X198.4 Y203.631 E28.52288
G1 X197.547 Y203.977 E28.5535
G1 X196.667 Y204.248 E28.58412
G1 X195.767 Y204.441 E28.61474
G1 X194.853 Y204.556 E28.64537
G1 X194.288 Y204.587 E28.6642
G1 X193.67 Y204.6 E28.68475
G1 X41.707 Y204.6 E33.73906
G1 X40.872 Y204.59 E33.76684
G1 X39.953 Y204.538 E33.79745
G1 X39.042 Y204.407 E33.82807
G1 X38.146 Y204.197 E33.85867
G1 X37.271 Y203.91 E33.8893
G1 X36.424 Y203.548 E33.91994
G1 X35.612 Y203.114 E33.95056
G1 X34.841 Y202.612 E33.98116
G1 X34.116 Y202.044 E34.01179
G1 X33.443 Y201.415 E34.04243
G1 X32.828 Y200.731 E34.07303
G1 X32.274 Y199.996 E34.10364
G1 X31.786 Y199.215 E34.13427
G1 X31.367 Y198.395 E34.1649
G1 X31.021 Y197.542 E34.19551
G1 X30.751 Y196.662 E34.22613
G1 X30.558 Y195.761 E34.25678
G1 X30.444 Y194.848 E34.28738
G1 X30.413 Y194.277 E34.3064
G1 X30.4 Y193.658 E34.32699
G1 X30.4 Y41.674 E39.382
G1 X30.41 Y40.866 E39.40887
G1 X30.462 Y39.946 E39.43952
G1 X30.594 Y39.035 E39.47014
G1 X30.805 Y38.139 E39.50076
G1 X31.092 Y37.264 E39.53138
G1 X31.455 Y36.418 E39.562
G1 X31.889 Y35.606 E39.59262
G1 X32.392 Y34.835 E39.62324
G1 X32.961 Y34.111 E39.65387
G1 X33.589 Y33.439 E39.68446
G1 X34.274 Y32.823 E39.7151
G1 X35.01 Y32.27 E39.74572
G1 X35.791 Y31.782 E39.77635
G1 X36.611 Y31.364 E39.80696
G1 X37.465 Y31.019 E39.8376
G1 X38.345 Y30.749 E39.86821
G1 X39.245 Y30.557 E39.89882
G1 X40.159 Y30.443 E39.92946
G1 X40.712 Y30.413 E39.94788
G1 X41.33 Y30.4 E39.96844
G1 X193.293 Y30.4 E45.02275
G1 X193.445 Y30.401 E45.0278
G1 X194.143 Y30.411 E45.05102
G0 F6000 X194.149 Y30.011
G1 F1200 X195.085 Y30.065 E45.0822
G1 X196.013 Y30.197 E45.11338
G1 X196.927 Y30.409 E45.14459
G1 X197.819 Y30.698 E45.17577
G1 X198.684 Y31.061 E45.20697
G1 X199.514 Y31.497 E45.23816
G1 X200.305 Y32.002 E45.26937
G1 X201.049 Y32.573 E45.30056
G1 X201.742 Y33.205 E45.33176
G1 X202.379 Y33.893 E45.36294
G1 X202.954 Y34.634 E45.39414
G1 X203.465 Y35.42 E45.42532
G1 X203.907 Y36.248 E45.45654
G1 X204.276 Y37.11 E45.48772
G1 X204.571 Y38 E45.51891
G1 X204.789 Y38.912 E45.5501
G1 X204.929 Y39.84 E45.58131
G1 X204.987 Y40.701 E45.61001
G1 X205 Y41.33 E45.63094
G1 X205 Y193.264 E50.68428
G1 X204.99 Y194.127 E50.71299
G1 X204.939 Y195.064 E50.7442
G1 X204.807 Y195.992 E50.77538
G1 X204.598 Y196.906 E50.80656
G1 X204.311 Y197.799 E50.83776
G1 X203.949 Y198.665 E50.86898
G1 X203.515 Y199.496 E50.90016
G1 X203.011 Y200.287 E50.93135
G1 X202.442 Y201.032 E50.96253
G1 X201.811 Y201.727 E50.99375
G1 X201.124 Y202.365 E51.02494
G1 X200.385 Y202.942 E51.05612
G1 X199.599 Y203.454 E51.08732
G1 X198.773 Y203.897 E51.1185
G1 X197.911 Y204.269 E51.14972
G1 X197.022 Y204.565 E51.18089
G1 X196.11 Y204.785 E51.21209
G1 X195.183 Y204.926 E51.24328
G1 X194.299 Y204.987 E51.27275
G1 X193.67 Y205 E51.29367
G1 X41.707 Y205 E56.34798
G1 X40.867 Y204.99 E56.37592
G1 X39.931 Y204.938 E56.4071
G1 X39.002 Y204.806 E56.43831
G1 X38.088 Y204.596 E56.4695
G1 X37.195 Y204.309 E56.5007
G1 X36.33 Y203.946 E56.5319
G1 X35.499 Y203.512 E56.56308
G1 X34.708 Y203.008 E56.59428
G1 X33.963 Y202.438 E56.62548
G1 X33.269 Y201.807 E56.65668
G1 X32.632 Y201.12 E56.68784
G1 X32.055 Y200.38 E56.71905
G1 X31.543 Y199.594 E56.75025
G1 X31.1 Y198.767 E56.78145
G1 X30.729 Y197.906 E56.81263
G1 X30.433 Y197.016 E56.84383
G1 X30.214 Y196.104 E56.87502
G1 X30.073 Y195.177 E56.90621
G1 X30.013 Y194.288 E56.93585
G1 X30 Y193.658 E56.9568
G1 X30 Y41.674 E62.01181
G1 X30.01 Y40.86 E62.03889
G1 X30.063 Y39.924 E62.07007
G1 X30.195 Y38.995 E62.10128
G1 X30.406 Y38.081 E62.13248
G1 X30.694 Y37.189 E62.16365
G1 X31.057 Y36.324 E62.19486
G1 X31.492 Y35.493 E62.22605
G1 X31.996 Y34.703 E62.25722
G1 X32.566 Y33.958 E62.28842
G1 X33.198 Y33.264 E62.31964
G1 X33.886 Y32.627 E62.35082
G1 X34.626 Y32.051 E62.38201
G1 X35.412 Y31.539 E62.41321
G1 X36.239 Y31.097 E62.4444
G1 X37.101 Y30.727 E62.4756
G1 X37.991 Y30.431 E62.5068
G1 X38.903 Y30.213 E62.53798
G1 X39.83 Y30.072 E62.56917
G1 X40.701 Y30.013 E62.59821
G1 X41.33 Y30 E62.61913
G1 X193.293 Y30 E67.67344
G1 X193.451 Y30.001 E67.6787
G1 X194.149 Y30.011 E67.70192
G1 F2700 E62.70192
;MESH:bedleveling-try_this_one_first.stl
G0 F6000 X183.38 Y50.635
G0 X183.38 Y51.62
G0 X51.972 Y51.972
G0 X51.9 Y182.9
G0 X52.1 Y182.9
;TYPE:WALL-OUTER
G1 F2700 E67.70192
G1 F1200 X182.9 Y182.9 E72.05234
G1 X182.9 Y52.1 E76.40277
G1 X52.1 Y52.1 E80.75319
G1 X52.1 Y182.9 E85.10362
G0 F6000 X51.5 Y183.5
G1 F1200 X51.5 Y51.5 E89.49396
G1 X183.5 Y51.5 E93.88429
G1 X183.5 Y183.5 E98.27463
G1 X51.5 Y183.5 E102.66497
G0 F6000 X51.738 Y183.26
;TYPE:SKIN
G1 F1200 X51.879 Y183.118 E102.66912
G1 X52.809 Y183.199 E102.68849
G1 X118.428 Y183.199 E104.04966
G1 X183.199 Y183.199 E105.39325
G1 X183.199 Y117.579 E106.75444
G1 X183.199 Y52.243 E108.10975
G1 X183.119 Y51.88 E108.11746
G1 X182.19 Y51.799 E108.1368
G1 X116.57 Y51.799 E109.498
G1 X51.799 Y51.799 E110.84159
G1 X51.799 Y117.419 E112.20278
G1 X51.799 Y182.755 E113.55809
G1 F2700 E108.55809
G0 F6000 X51.9 Y182.881
G0 X51.972 Y51.972
G0 X183.197 Y51.7
G0 X183.197 Y51.675
G1 F2700 E113.55809
G1 F1200 X183.324 Y51.802 E113.56108
G0 F6000 X183.282 Y51.718
G1 F2700 E108.56108
G0 F6000 X183.028 Y183.028
G0 X51.972 Y183.027
G0 X50.635 Y183
G0 X47.815 Y183
G0 X46.85 Y183
G0 X46.75 Y188.05
G0 X46.95 Y188.05
;TYPE:WALL-OUTER
G1 F2700 E113.56108
G1 F1200 X188.05 Y188.05 E118.25408
G1 X188.05 Y46.95 E122.94709
G1 X46.95 Y46.95 E127.64009
G1 X46.95 Y188.05 E132.3331
G0 F6000 X46.35 Y188.65
G1 F1200 X46.35 Y46.35 E137.06601
G1 X188.65 Y46.35 E141.79893
G1 X188.65 Y188.65 E146.53185
G1 X46.35 Y188.65 E151.26477
G0 F6000 X46.647 Y188.351
;TYPE:SKIN
G1 F1200 X46.649 Y188.071 E151.27058
G1 X46.649 Y122.451 E152.63218
G1 X46.649 Y56.832 E153.99377
G1 X46.649 Y46.649 E154.20507
G1 X112.269 Y46.649 E155.56668
G1 X177.888 Y46.649 E156.92826
G1 X188.07 Y46.649 E157.13954
G1 X188.349 Y46.928 E157.14773
G1 X188.349 Y112.547 E158.50931
G1 X188.349 Y178.167 E159.87092
G1 X188.349 Y188.349 E160.0822
G1 X122.729 Y188.349 E161.44381
G1 X57.11 Y188.349 E162.80539
G1 X46.928 Y188.349 E163.01667
G1 F2700 E158.01667
G0 F6000 X46.78 Y188.22
G0 X188.178 Y188.178
G0 X188.45 Y46.77
G0 X188.474 Y46.77
G1 F2700 E163.01667
G1 F1200 X188.229 Y46.525 E163.02243
G0 F6000 X188.432 Y46.568
G1 F2700 E158.02243
G0 F6000 X188.178 Y188.178
G0 X46.821 Y188.178
G0 X45.485 Y188.15
G0 X42.665 Y188.15
G0 X41.7 Y188.15
G0 X41.6 Y193.2
G0 X41.8 Y193.2
;TYPE:WALL-OUTER
G1 F2700 E163.02243
G1 F1200 X193.2 Y193.2 E168.05802
G1 X193.2 Y41.8 E173.0936
G1 X41.8 Y41.8 E178.12919
G1 X41.8 Y193.2 E183.16477
G0 F6000 X41.2 Y193.8
G1 F1200 X41.2 Y41.2 E188.24027
G1 X193.8 Y41.2 E193.31576
G1 X193.8 Y193.8 E198.39126
G1 X41.2 Y193.8 E203.46676
G0 F6000 X41.414 Y193.584
;TYPE:SKIN
G1 F1200 X41.556 Y193.442 E203.47093
G1 X41.499 Y192.255 E203.49561
G1 X41.499 Y126.635 E204.85849
G1 X41.499 Y61.016 E206.22136
G1 X41.499 Y41.499 E206.62671
G1 X107.119 Y41.499 E207.9896
G1 X172.738 Y41.499 E209.35246
G1 X193.103 Y41.499 E209.77543
G1 X193.499 Y41.895 E209.78706
G1 X193.499 Y107.515 E211.14995
G1 X193.499 Y173.134 E212.51281
G1 X193.499 Y193.499 E212.93578
G1 X127.88 Y193.499 E214.29864
G1 X62.26 Y193.499 E215.66153
G1 X41.895 Y193.499 E216.0845
G1 F2700 E211.0845
G0 F6000 X41.77 Y193.4
G0 X193.328 Y193.328
G0 X193.6 Y41.738
G0 X193.624 Y41.738
G1 F2700 E216.0845
G1 F1200 X193.261 Y41.374 E216.09305
G0 F6000 X193.544 Y41.374
G1 F1200 X193.624 Y41.455 E216.09494
;TIME_ELAPSED:384.318171
G1 F2700 E211.09494
M140 S0
G91 ;Relative positioning
G1 E-2 F2700 ;Retract a bit
G1 E-2 Z0.2 F2400 ;Retract and raise Z
G1 X5 Y5 F3000 ;Wipe out
G1 Z10 ;Raise Z more
G90 ;Absolute positionning

G1 X0 Y235 ;Present print
M106 S0 ;Turn-off fan
M104 S0 ;Turn-off hotend
M140 S0 ;Turn-off bed

M84 X Y E ;Disable all steppers but Z

M82 ;absolute extrusion mode
;End of Gcode
