; G-Code generated by Simplify3D(R) Version 4.1.2
; Apr 4, 2020 at 11:49:41 AM
; Settings Summary
;   processName,All but Knob
;   applyToModels,Ender-3_Extruder_PTFE_Cable_Clip_1.8mm_Leo_N,Ender_3_Cable_Clip_Mirrored,Extruder_Insert_Leo_N,CableClip1,CableClip1(2),filament_guide_-_updated,BigWheel
;   profileName,Creality Ender 3 Pro
;   profileVersion,2019-04-06 08:00:00
;   baseProfile,
;   printMaterial,PLA
;   printQuality,Medium
;   printExtruders,
;   extruderName,Primary Extruder
;   extruderToolheadNumber,0
;   extruderDiameter,0.4
;   extruderAutoWidth,0
;   extruderWidth,0.4
;   extrusionMultiplier,0.9
;   extruderUseRetract,1
;   extruderRetractionDistance,4
;   extruderExtraRestartDistance,0
;   extruderRetractionZLift,0
;   extruderRetractionSpeed,2400
;   extruderUseCoasting,0
;   extruderCoastingDistance,0.2
;   extruderUseWipe,0
;   extruderWipeDistance,5
;   primaryExtruder,0
;   layerHeight,0.2
;   topSolidLayers,3
;   bottomSolidLayers,3
;   perimeterOutlines,2
;   printPerimetersInsideOut,1
;   startPointOption,2
;   startPointOriginX,0
;   startPointOriginY,0
;   sequentialIslands,0
;   spiralVaseMode,0
;   firstLayerHeightPercentage,120
;   firstLayerWidthPercentage,150
;   firstLayerUnderspeed,0.5
;   useRaft,0
;   raftExtruder,0
;   raftTopLayers,3
;   raftBaseLayers,2
;   raftOffset,3
;   raftSeparationDistance,0.14
;   raftTopInfill,100
;   aboveRaftSpeedMultiplier,0.3
;   useSkirt,1
;   skirtExtruder,0
;   skirtLayers,1
;   skirtOutlines,2
;   skirtOffset,4
;   usePrimePillar,0
;   primePillarExtruder,999
;   primePillarWidth,12
;   primePillarLocation,7
;   primePillarSpeedMultiplier,1
;   useOozeShield,0
;   oozeShieldExtruder,999
;   oozeShieldOffset,2
;   oozeShieldOutlines,1
;   oozeShieldSidewallShape,1
;   oozeShieldSidewallAngle,30
;   oozeShieldSpeedMultiplier,1
;   infillExtruder,0
;   internalInfillPattern,Rectilinear
;   externalInfillPattern,Rectilinear
;   infillPercentage,20
;   outlineOverlapPercentage,15
;   infillExtrusionWidthPercentage,100
;   minInfillLength,5
;   infillLayerInterval,1
;   internalInfillAngles,45,-45
;   overlapInternalInfillAngles,0
;   externalInfillAngles,45,-45
;   generateSupport,0
;   supportExtruder,0
;   supportInfillPercentage,30
;   supportExtraInflation,0
;   supportBaseLayers,0
;   denseSupportExtruder,0
;   denseSupportLayers,0
;   denseSupportInfillPercentage,70
;   supportLayerInterval,1
;   supportHorizontalPartOffset,0.3
;   supportUpperSeparationLayers,1
;   supportLowerSeparationLayers,1
;   supportType,0
;   supportGridSpacing,4
;   maxOverhangAngle,45
;   supportAngles,0
;   temperatureName,Primary Extruder,Heated Bed
;   temperatureNumber,0,0
;   temperatureSetpointCount,1,1
;   temperatureSetpointLayers,1,1
;   temperatureSetpointTemperatures,210,60
;   temperatureStabilizeAtStartup,1,1
;   temperatureHeatedBed,0,1
;   fanLayers,1,2
;   fanSpeeds,0,100
;   blipFanToFullPower,0
;   adjustSpeedForCooling,1
;   minSpeedLayerTime,15
;   minCoolingSpeedSlowdown,20
;   increaseFanForCooling,0
;   minFanLayerTime,45
;   maxCoolingFanSpeed,100
;   increaseFanForBridging,0
;   bridgingFanSpeed,100
;   use5D,1
;   relativeEdistances,0
;   allowEaxisZeroing,1
;   independentExtruderAxes,0
;   includeM10123,0
;   stickySupport,1
;   applyToolheadOffsets,0
;   gcodeXoffset,0
;   gcodeYoffset,0
;   gcodeZoffset,0
;   overrideMachineDefinition,1
;   machineTypeOverride,0
;   strokeXoverride,220
;   strokeYoverride,220
;   strokeZoverride,250
;   originOffsetXoverride,-5
;   originOffsetYoverride,-5
;   originOffsetZoverride,0
;   homeXdirOverride,-1
;   homeYdirOverride,-1
;   homeZdirOverride,-1
;   flipXoverride,1
;   flipYoverride,-1
;   flipZoverride,1
;   toolheadOffsets,0,0|0,0|0,0|0,0|0,0|0,0
;   overrideFirmwareConfiguration,1
;   firmwareTypeOverride,RepRap (Marlin/Repetier/Sprinter)
;   GPXconfigOverride,r2
;   baudRateOverride,115200
;   overridePrinterModels,1
;   printerModelsOverride
;   startingGcode,G28 ; home all axes,G1 X5 Y10 Z0.2 F3000 ; get ready to prime,G92 E0 ; reset extrusion distance,G1 X160 E15 F600 ; prime nozzle,G1 X180 F5000 ; quick wipe
;   layerChangeGcode,
;   retractionGcode,
;   toolChangeGcode,
;   endingGcode,G28 X0 ; home X axis,M106 S0 ; turn off cooling fan,M104 S0 ; turn off extruder,M140 S0 ; turn off bed,M84 ; disable motors
;   exportFileFormat,gcode
;   celebration,0
;   celebrationSong,Random Song
;   postProcessing,
;   defaultSpeed,2400
;   outlineUnderspeed,0.5
;   solidInfillUnderspeed,0.8
;   supportUnderspeed,0.8
;   rapidXYspeed,4800
;   rapidZspeed,1000
;   minBridgingArea,50
;   bridgingExtraInflation,0
;   bridgingExtrusionMultiplier,1
;   bridgingSpeedMultiplier,1
;   useFixedBridgingAngle,0
;   fixedBridgingAngle,0
;   applyBridgingToPerimeters,0
;   filamentDiameters,1.75|1.75|1.75|1.75|1.75|1.75
;   filamentPricesPerKg,46|46|46|46|46|46
;   filamentDensities,1.25|1.25|1.25|1.25|1.25|1.25
;   useMinPrintHeight,0
;   minPrintHeight,0
;   useMaxPrintHeight,0
;   maxPrintHeight,0
;   useDiaphragm,0
;   diaphragmLayerInterval,20
;   robustSlicing,1
;   mergeAllIntoSolid,0
;   onlyRetractWhenCrossingOutline,1
;   retractBetweenLayers,1
;   useRetractionMinTravel,0
;   retractionMinTravel,3
;   retractWhileWiping,0
;   onlyWipeOutlines,1
;   avoidCrossingOutline,0
;   maxMovementDetourFactor,3
;   toolChangeRetractionDistance,12
;   toolChangeExtraRestartDistance,-0.5
;   toolChangeRetractionSpeed,600
;   externalThinWallType,0
;   internalThinWallType,2
;   thinWallAllowedOverlapPercentage,10
;   singleExtrusionMinLength,1
;   singleExtrusionMinPrintingWidthPercentage,50
;   singleExtrusionMaxPrintingWidthPercentage,200
;   singleExtrusionEndpointExtension,0.2
;   horizontalSizeCompensation,0
G90
M82
M106 S0
M140 S60
M190 S60
M104 S210 T0
M109 S210 T0
G28 ; home all axes
G1 X5 Y10 Z0.2 F3000 ; get ready to prime
G92 E0 ; reset extrusion distance
G1 X160 E15 F600 ; prime nozzle
G1 X180 F5000 ; quick wipe
; process All but Knob
; layer 1, Z = 0.240
T0
G92 E0.0000
G1 E-4.0000 F2400
; feature skirt
; tool H0.240 W0.600
G1 Z0.240 F1000
G1 X63.358 Y79.806 F4800
G1 E0.0000 F2400
G92 E0.0000
G1 X66.228 Y76.936 E0.2187 F1200
G1 X105.288 Y76.936 E2.3233
G1 X108.158 Y79.806 E2.5420
G1 X108.158 Y87.200 E2.9404
G1 X109.006 Y86.038 E3.0180
G1 X109.080 Y85.942 E3.0245
G1 X109.796 Y85.056 E3.0859
G1 X109.879 Y84.959 E3.0927
G1 X110.646 Y84.105 E3.1546
G1 X110.742 Y84.004 E3.1621
G1 X111.663 Y83.088 E3.2321
G1 X111.750 Y83.006 E3.2385
G1 X112.479 Y82.350 E3.2914
G1 X112.571 Y82.271 E3.2979
G1 X113.454 Y81.551 E3.3593
G1 X113.554 Y81.473 E3.3662
G1 X114.479 Y80.797 E3.4279
G1 X114.589 Y80.720 E3.4351
G1 X115.683 Y80.008 E3.5054
G1 X115.800 Y79.937 E3.5128
G1 X116.795 Y79.366 E3.5746
G1 X116.906 Y79.306 E3.5815
G1 X117.925 Y78.789 E3.6430
G1 X118.039 Y78.735 E3.6498
G1 X119.083 Y78.272 E3.7113
G1 X119.200 Y78.223 E3.7182
G1 X120.264 Y77.816 E3.7795
G1 X120.379 Y77.775 E3.7861
G1 X121.894 Y77.280 E3.8720
G1 X123.257 Y77.226 E3.9455
G1 X124.996 Y77.647 E4.0419
G1 X125.753 Y77.788 E4.0834
G1 X126.534 Y77.897 E4.1259
G1 X127.319 Y77.969 E4.1684
G1 X128.106 Y78.006 E4.2108
G1 X128.894 Y78.006 E4.2533
G1 X129.681 Y77.969 E4.2957
G1 X130.466 Y77.897 E4.3382
G1 X131.247 Y77.788 E4.3807
G1 X132.004 Y77.647 E4.4222
G1 X133.743 Y77.226 E4.5186
G1 X135.106 Y77.280 E4.5921
G1 X136.621 Y77.775 E4.6780
G1 X136.736 Y77.816 E4.6845
G1 X137.800 Y78.223 E4.7459
G1 X137.917 Y78.272 E4.7528
G1 X138.967 Y78.737 E4.8146
G1 X139.093 Y78.798 E4.8221
G1 X140.248 Y79.391 E4.8921
G1 X140.353 Y79.448 E4.8986
G1 X141.202 Y79.938 E4.9514
G1 X141.306 Y80.002 E4.9580
G1 X142.267 Y80.622 E5.0196
G1 X142.379 Y80.698 E5.0269
G1 X143.435 Y81.465 E5.0972
G1 X143.543 Y81.548 E5.1045
G1 X144.431 Y82.272 E5.1663
G1 X144.527 Y82.355 E5.1731
G1 X145.374 Y83.121 E5.2346
G1 X145.466 Y83.209 E5.2415
G1 X146.271 Y84.017 E5.3030
G1 X146.359 Y84.110 E5.3098
G1 X147.121 Y84.959 E5.3713
G1 X147.204 Y85.056 E5.3782
G1 X147.920 Y85.942 E5.4396
G1 X147.994 Y86.038 E5.4461
G1 X148.933 Y87.326 E5.5320
G1 X149.006 Y87.523 E5.5433
G1 X148.947 Y87.207 E5.5606
G1 X148.911 Y86.935 E5.5755
G1 X148.842 Y86.019 E5.6250
G1 X148.842 Y85.652 E5.6447
G1 X148.911 Y84.736 E5.6942
G1 X148.947 Y84.464 E5.7090
G1 X149.053 Y83.900 E5.7400
G1 X149.119 Y83.632 E5.7548
G1 X149.390 Y82.755 E5.8043
G1 X149.524 Y82.413 E5.8240
G1 X149.943 Y81.544 E5.8760
G1 X150.126 Y81.227 E5.8958
G1 X150.644 Y80.468 E5.9453
G1 X150.811 Y80.249 E5.9601
G1 X151.186 Y79.814 E5.9910
G1 X151.376 Y79.616 E6.0058
G1 X152.050 Y78.992 E6.0553
G1 X152.336 Y78.763 E6.0751
G1 X153.095 Y78.245 E6.1246
G1 X153.331 Y78.104 E6.1394
G1 X153.838 Y77.835 E6.1703
G1 X154.088 Y77.721 E6.1851
G1 X154.901 Y77.402 E6.2322
G1 X155.162 Y77.316 E6.2470
G1 X155.672 Y77.179 E6.2754
G1 X155.851 Y77.138 E6.2853
G1 X156.370 Y77.040 E6.3138
G1 X156.643 Y77.004 E6.3286
G1 X157.513 Y76.939 E6.3756
G1 X157.788 Y76.934 E6.3905
G1 X158.362 Y76.955 E6.4214
G1 X158.635 Y76.981 E6.4362
G1 X159.498 Y77.111 E6.4832
G1 X159.768 Y77.167 E6.4980
G1 X160.322 Y77.316 E6.5290
G1 X160.583 Y77.402 E6.5438
G1 X161.438 Y77.737 E6.5933
G1 X161.769 Y77.896 E6.6130
G1 X162.604 Y78.379 E6.6650
G1 X162.907 Y78.585 E6.6848
G1 X163.625 Y79.158 E6.7343
G1 X163.830 Y79.341 E6.7491
G1 X164.204 Y79.715 E6.7775
G1 X164.329 Y79.849 E6.7874
G1 X164.673 Y80.250 E6.8159
G1 X164.840 Y80.468 E6.8307
G1 X165.358 Y81.227 E6.8802
G1 X165.541 Y81.544 E6.9000
G1 X165.960 Y82.413 E6.9519
G1 X166.094 Y82.755 E6.9717
G1 X166.365 Y83.633 E7.0212
G1 X166.431 Y83.900 E7.0360
G1 X166.529 Y84.419 E7.0645
G1 X166.556 Y84.600 E7.0743
G1 X166.615 Y85.124 E7.1028
G1 X166.631 Y85.399 E7.1176
G1 X166.631 Y86.318 E7.1671
G1 X166.603 Y86.684 E7.1869
G1 X166.467 Y87.592 E7.2364
G1 X166.410 Y87.861 E7.2512
G1 X166.262 Y88.416 E7.2821
G1 X166.176 Y88.677 E7.2969
G1 X165.840 Y89.532 E7.3464
G1 X165.681 Y89.862 E7.3662
G1 X165.199 Y90.698 E7.4182
G1 X164.992 Y91.001 E7.4379
G1 X164.420 Y91.719 E7.4874
G1 X164.236 Y91.924 E7.5022
G1 X163.830 Y92.330 E7.5332
G1 X163.625 Y92.513 E7.5480
G1 X162.943 Y93.057 E7.5950
G1 X162.719 Y93.216 E7.6098
G1 X162.232 Y93.522 E7.6408
G1 X161.992 Y93.655 E7.6556
G1 X161.164 Y94.053 E7.7051
G1 X160.823 Y94.187 E7.7248
G1 X159.945 Y94.458 E7.7743
G1 X159.678 Y94.524 E7.7892
G1 X159.159 Y94.623 E7.8176
G1 X158.978 Y94.650 E7.8275
G1 X158.453 Y94.709 E7.8559
G1 X158.179 Y94.724 E7.8708
G1 X157.260 Y94.724 E7.9203
G1 X156.894 Y94.697 E7.9400
G1 X155.986 Y94.560 E7.9895
G1 X155.716 Y94.504 E8.0043
G1 X155.162 Y94.355 E8.0353
G1 X154.901 Y94.269 E8.0501
G1 X154.046 Y93.934 E8.0996
G1 X153.715 Y93.775 E8.1193
G1 X152.880 Y93.292 E8.1713
G1 X152.577 Y93.086 E8.1911
G1 X151.859 Y92.513 E8.2406
G1 X151.654 Y92.330 E8.2554
G1 X151.248 Y91.924 E8.2863
G1 X151.065 Y91.719 E8.3011
G1 X150.492 Y91.001 E8.3506
G1 X150.285 Y90.698 E8.3704
G1 X149.826 Y89.902 E8.4199
G1 X149.702 Y89.656 E8.4347
G1 X149.472 Y89.130 E8.4656
G1 X149.439 Y89.041 E8.4708
G1 X149.543 Y90.389 E8.5436
G1 X149.643 Y91.154 E8.5852
G1 X149.781 Y91.930 E8.6276
G1 X149.954 Y92.699 E8.6701
G1 X150.163 Y93.458 E8.7125
G1 X150.406 Y94.208 E8.7550
G1 X150.684 Y94.945 E8.7975
G1 X150.996 Y95.669 E8.8399
G1 X151.340 Y96.378 E8.8824
G1 X151.709 Y97.055 E8.9239
G1 X152.646 Y98.579 E9.0203
G1 X153.016 Y99.892 E9.0938
G1 X153.013 Y101.486 E9.1797
G1 X153.010 Y101.607 E9.1863
G1 X152.951 Y102.745 E9.2476
G1 X152.942 Y102.872 E9.2545
G1 X152.824 Y104.007 E9.3160
G1 X152.807 Y104.133 E9.3228
G1 X152.631 Y105.261 E9.3843
G1 X152.608 Y105.386 E9.3912
G1 X152.374 Y106.503 E9.4527
G1 X152.344 Y106.627 E9.4595
G1 X152.051 Y107.735 E9.5213
G1 X152.013 Y107.865 E9.5286
G1 X151.609 Y109.106 E9.5989
G1 X151.564 Y109.234 E9.6062
G1 X151.150 Y110.303 E9.6680
G1 X151.101 Y110.420 E9.6748
G1 X150.634 Y111.462 E9.7364
G1 X150.579 Y111.576 E9.7432
G1 X150.059 Y112.592 E9.8047
G1 X149.998 Y112.704 E9.8115
G1 X149.426 Y113.692 E9.8731
G1 X149.359 Y113.800 E9.8799
G1 X148.738 Y114.755 E9.9413
G1 X148.669 Y114.855 E9.9478
G1 X147.735 Y116.146 E10.0337
G1 X146.663 Y116.991 E10.1072
G1 X145.010 Y117.673 E10.2036
G1 X144.313 Y118.004 E10.2452
G1 X143.618 Y118.375 E10.2876
G1 X142.941 Y118.778 E10.3301
G1 X142.283 Y119.211 E10.3725
G1 X141.645 Y119.674 E10.4150
G1 X141.029 Y120.166 E10.4575
G1 X140.437 Y120.686 E10.4999
G1 X139.870 Y121.233 E10.5424
G1 X139.340 Y121.793 E10.5839
G1 X138.180 Y123.155 E10.6803
G1 X137.046 Y123.913 E10.7538
G1 X136.378 Y124.132 E10.7920
G1 X136.378 Y138.191 E11.5495
G1 X133.507 Y141.061 E11.7682
G1 X118.208 Y141.061 E12.5926
G1 X116.558 Y139.411 E12.7183
G1 X116.558 Y142.291 E12.8735
G1 X116.551 Y142.463 E12.8828
G1 X116.494 Y143.279 E12.9268
G1 X116.463 Y143.534 E12.9407
G1 X116.366 Y144.082 E12.9707
G1 X116.308 Y144.330 E12.9844
G1 X116.075 Y145.145 E13.0301
G1 X115.992 Y145.386 E13.0438
G1 X115.784 Y145.901 E13.0738
G1 X115.676 Y146.134 E13.0876
G1 X115.253 Y146.930 E13.1361
G1 X115.072 Y147.221 E13.1546
G1 X114.377 Y148.177 E13.2183
G1 X113.796 Y148.749 E13.2622
G1 X112.864 Y149.402 E13.3236
G1 X111.872 Y149.813 E13.3814
G1 X110.793 Y150.003 E13.4404
G1 X109.936 Y150.003 E13.4866
G1 X108.963 Y149.831 E13.5398
G1 X108.157 Y149.538 E13.5861
G1 X107.358 Y149.076 E13.6358
G1 X106.558 Y149.538 E13.6856
G1 X105.752 Y149.831 E13.7318
G1 X104.779 Y150.003 E13.7850
G1 X103.922 Y150.003 E13.8312
G1 X102.950 Y149.831 E13.8844
G1 X102.258 Y149.580 E13.9241
G1 X102.258 Y150.194 E13.9572
G1 X99.387 Y153.064 E14.1759
G1 X85.578 Y153.064 E14.9199
G1 X82.708 Y150.194 E15.1387
G1 X82.708 Y144.306 E15.4559
G1 X82.697 Y144.124 E15.4658
G1 X82.694 Y144.105 E15.4668
G1 X82.634 Y143.977 E15.4744
G1 X82.549 Y143.881 E15.4813
G1 X82.542 Y143.876 E15.4817
G1 X82.397 Y143.828 E15.4900
G1 X82.245 Y143.842 E15.4982
G1 X82.224 Y143.849 E15.4994
G1 X82.201 Y143.861 E15.5008
G1 X82.075 Y143.973 E15.5099
G1 X82.062 Y143.993 E15.5112
G1 X82.053 Y144.010 E15.5122
G1 X82.014 Y144.199 E15.5226
G1 X82.008 Y144.306 E15.5284
G1 X82.008 Y150.191 E15.8455
G1 X79.137 Y153.062 E16.0642
G1 X66.228 Y153.062 E16.7598
G1 X63.358 Y150.191 E16.9785
G1 X63.358 Y137.510 E17.6617
G1 X64.736 Y135.194 E17.8070
G1 X89.358 Y121.829 E19.3165
G1 X89.358 Y104.736 E20.2375
G1 X74.228 Y104.736 E21.0527
G1 X73.758 Y104.265 E21.0885
G1 X73.288 Y104.736 E21.1244
G1 X66.228 Y104.736 E21.5048
G1 X63.358 Y101.865 E21.7235
G1 X63.358 Y79.806 E22.9121
G92 E0.0000
G1 E-4.0000 F2400
G1 X63.958 Y80.054 F4800
G1 E0.0000 F2400
G92 E0.0000
G1 X66.477 Y77.536 E0.1919 F1200
G1 X105.039 Y77.536 E2.2697
G1 X107.558 Y80.054 E2.4617
G1 X107.558 Y93.099 E3.1645
G1 X107.628 Y92.844 E3.1788
G1 X107.808 Y92.048 E3.2227
G1 X107.950 Y91.245 E3.2667
G1 X108.054 Y90.451 E3.3098
G1 X108.186 Y88.735 E3.4025
G1 X108.601 Y87.612 E3.4671
G1 X109.486 Y86.398 E3.5480
G1 X109.551 Y86.313 E3.5538
G1 X110.258 Y85.439 E3.6143
G1 X110.330 Y85.354 E3.6204
G1 X111.086 Y84.512 E3.6813
G1 X111.171 Y84.423 E3.6879
G1 X112.081 Y83.519 E3.7571
G1 X112.157 Y83.447 E3.7627
G1 X112.875 Y82.800 E3.8148
G1 X112.956 Y82.731 E3.8205
G1 X113.827 Y82.021 E3.8811
G1 X113.915 Y81.953 E3.8871
G1 X114.826 Y81.286 E3.9479
G1 X114.924 Y81.219 E3.9543
G1 X116.003 Y80.516 E4.0237
G1 X116.106 Y80.453 E4.0302
G1 X117.087 Y79.890 E4.0911
G1 X117.185 Y79.837 E4.0971
G1 X118.189 Y79.328 E4.1578
G1 X118.290 Y79.280 E4.1638
G1 X119.319 Y78.823 E4.2245
G1 X119.422 Y78.781 E4.2305
G1 X120.472 Y78.379 E4.2910
G1 X120.572 Y78.343 E4.2968
G1 X122.001 Y77.876 E4.3778
G1 X123.197 Y77.829 E4.4423
G1 X124.870 Y78.234 E4.5350
G1 X125.657 Y78.380 E4.5782
G1 X126.465 Y78.493 E4.6221
G1 X127.278 Y78.568 E4.6661
G1 X128.092 Y78.606 E4.7100
G1 X128.908 Y78.606 E4.7540
G1 X129.722 Y78.568 E4.7979
G1 X130.535 Y78.493 E4.8419
G1 X131.343 Y78.380 E4.8858
G1 X132.130 Y78.234 E4.9290
G1 X133.803 Y77.829 E5.0217
G1 X134.999 Y77.876 E5.0862
G1 X136.428 Y78.343 E5.1672
G1 X136.528 Y78.379 E5.1729
G1 X137.578 Y78.781 E5.2335
G1 X137.681 Y78.823 E5.2395
G1 X138.716 Y79.282 E5.3005
G1 X138.826 Y79.335 E5.3071
G1 X139.967 Y79.921 E5.3762
G1 X140.059 Y79.972 E5.3819
G1 X140.896 Y80.454 E5.4339
G1 X140.987 Y80.510 E5.4397
G1 X141.935 Y81.121 E5.5004
