; G-Code generated by Simplify3D(R) Version 4.1.2
; Apr 14, 2020 at 10:57:37 AM
; Settings Summary
;   processName,Process1
;   applyToModels,tier-test(2)
;   profileName,Creality Ender 3 Pro (modified)
;   profileVersion,2020-04-11 07:39:05
;   baseProfile,
;   printMaterial,PLA
;   printQuality,High
;   printExtruders,
;   extruderName,Primary Extruder
;   extruderToolheadNumber,0
;   extruderDiameter,0.4
;   extruderAutoWidth,0
;   extruderWidth,0.4
;   extrusionMultiplier,0.9
;   extruderUseRetract,1
;   extruderRetractionDistance,6
;   extruderExtraRestartDistance,0
;   extruderRetractionZLift,0
;   extruderRetractionSpeed,1500
;   extruderUseCoasting,0
;   extruderCoastingDistance,0.2
;   extruderUseWipe,0
;   extruderWipeDistance,5
;   primaryExtruder,0
;   layerHeight,0.1
;   topSolidLayers,4
;   bottomSolidLayers,4
;   perimeterOutlines,2
;   printPerimetersInsideOut,1
;   startPointOption,2
;   startPointOriginX,0
;   startPointOriginY,0
;   sequentialIslands,0
;   spiralVaseMode,0
;   firstLayerHeightPercentage,120
;   firstLayerWidthPercentage,150
;   firstLayerUnderspeed,0.5
;   useRaft,0
;   raftExtruder,0
;   raftTopLayers,3
;   raftBaseLayers,2
;   raftOffset,3
;   raftSeparationDistance,0.14
;   raftTopInfill,100
;   aboveRaftSpeedMultiplier,0.3
;   useSkirt,1
;   skirtExtruder,0
;   skirtLayers,2
;   skirtOutlines,2
;   skirtOffset,4
;   usePrimePillar,0
;   primePillarExtruder,999
;   primePillarWidth,12
;   primePillarLocation,7
;   primePillarSpeedMultiplier,1
;   useOozeShield,0
;   oozeShieldExtruder,999
;   oozeShieldOffset,2
;   oozeShieldOutlines,1
;   oozeShieldSidewallShape,1
;   oozeShieldSidewallAngle,30
;   oozeShieldSpeedMultiplier,1
;   infillExtruder,0
;   internalInfillPattern,Rectilinear
;   externalInfillPattern,Rectilinear
;   infillPercentage,30
;   outlineOverlapPercentage,15
;   infillExtrusionWidthPercentage,100
;   minInfillLength,5
;   infillLayerInterval,1
;   internalInfillAngles,45,-45
;   overlapInternalInfillAngles,0
;   externalInfillAngles,45,-45
;   generateSupport,0
;   supportExtruder,0
;   supportInfillPercentage,40
;   supportExtraInflation,0
;   supportBaseLayers,0
;   denseSupportExtruder,0
;   denseSupportLayers,0
;   denseSupportInfillPercentage,70
;   supportLayerInterval,1
;   supportHorizontalPartOffset,0.3
;   supportUpperSeparationLayers,1
;   supportLowerSeparationLayers,1
;   supportType,0
;   supportGridSpacing,4
;   maxOverhangAngle,45
;   supportAngles,0
;   temperatureName,Primary Extruder,Heated Bed
;   temperatureNumber,0,0
;   temperatureSetpointCount,1,1
;   temperatureSetpointLayers,1,1
;   temperatureSetpointTemperatures,200,60
;   temperatureStabilizeAtStartup,1,1
;   temperatureHeatedBed,0,1
;   fanLayers,1,2
;   fanSpeeds,0,100
;   blipFanToFullPower,0
;   adjustSpeedForCooling,1
;   minSpeedLayerTime,15
;   minCoolingSpeedSlowdown,20
;   increaseFanForCooling,0
;   minFanLayerTime,45
;   maxCoolingFanSpeed,100
;   increaseFanForBridging,0
;   bridgingFanSpeed,100
;   use5D,1
;   relativeEdistances,0
;   allowEaxisZeroing,1
;   independentExtruderAxes,0
;   includeM10123,0
;   stickySupport,1
;   applyToolheadOffsets,0
;   gcodeXoffset,0
;   gcodeYoffset,0
;   gcodeZoffset,0
;   overrideMachineDefinition,1
;   machineTypeOverride,0
;   strokeXoverride,220
;   strokeYoverride,220
;   strokeZoverride,250
;   originOffsetXoverride,-5
;   originOffsetYoverride,-5
;   originOffsetZoverride,0
;   homeXdirOverride,-1
;   homeYdirOverride,-1
;   homeZdirOverride,-1
;   flipXoverride,1
;   flipYoverride,-1
;   flipZoverride,1
;   toolheadOffsets,0,0|0,0|0,0|0,0|0,0|0,0
;   overrideFirmwareConfiguration,1
;   firmwareTypeOverride,RepRap (Marlin/Repetier/Sprinter)
;   GPXconfigOverride,r2
;   baudRateOverride,115200
;   overridePrinterModels,1
;   printerModelsOverride
;   startingGcode,G28 ; home all axes,G1 X5 Y10 Z0.2 F3000 ; get ready to prime,G92 E0 ; reset extrusion distance,G1 X160 E15 F600 ; prime nozzle,G1 X180 F5000 ; quick wipe
;   layerChangeGcode,
;   retractionGcode,
;   toolChangeGcode,
;   endingGcode,G28 X0 ; home X axis,M106 S0 ; turn off cooling fan,M104 S0 ; turn off extruder,M140 S0 ; turn off bed,M84 ; disable motors
;   exportFileFormat,gcode
;   celebration,0
;   celebrationSong,Random Song
;   postProcessing,
;   defaultSpeed,2400
;   outlineUnderspeed,0.5
;   solidInfillUnderspeed,0.8
;   supportUnderspeed,0.8
;   rapidXYspeed,4800
;   rapidZspeed,1000
;   minBridgingArea,50
;   bridgingExtraInflation,0
;   bridgingExtrusionMultiplier,1
;   bridgingSpeedMultiplier,1
;   useFixedBridgingAngle,0
;   fixedBridgingAngle,0
;   applyBridgingToPerimeters,0
;   filamentDiameters,1.75|1.75|1.75|1.75|1.75|1.75
;   filamentPricesPerKg,46|46|46|46|46|46
;   filamentDensities,1.25|1.25|1.25|1.25|1.25|1.25
;   useMinPrintHeight,0
;   minPrintHeight,0
;   useMaxPrintHeight,0
;   maxPrintHeight,0
;   useDiaphragm,0
;   diaphragmLayerInterval,20
;   robustSlicing,1
;   mergeAllIntoSolid,0
;   onlyRetractWhenCrossingOutline,1
;   retractBetweenLayers,1
;   useRetractionMinTravel,0
;   retractionMinTravel,3
;   retractWhileWiping,0
;   onlyWipeOutlines,1
;   avoidCrossingOutline,0
;   maxMovementDetourFactor,3
;   toolChangeRetractionDistance,12
;   toolChangeExtraRestartDistance,-0.5
;   toolChangeRetractionSpeed,600
;   externalThinWallType,0
;   internalThinWallType,2
;   thinWallAllowedOverlapPercentage,10
;   singleExtrusionMinLength,1
;   singleExtrusionMinPrintingWidthPercentage,50
;   singleExtrusionMaxPrintingWidthPercentage,200
;   singleExtrusionEndpointExtension,0.2
;   horizontalSizeCompensation,0
G90
M82
M106 S0
M140 S60
M190 S60
M104 S200 T0
M109 S200 T0
G28 ; home all axes
G1 X5 Y10 Z0.2 F3000 ; get ready to prime
G92 E0 ; reset extrusion distance
G1 X160 E15 F600 ; prime nozzle
G1 X180 F5000 ; quick wipe
; process Process1
; layer 1, Z = 0.120
T0
G92 E0.0000
G1 E-6.0000 F1500
; feature skirt
; tool H0.120 W0.600
G1 Z0.120 F1000
G1 X121.100 Y107.970 F4800
G1 E0.0000 F1500
G92 E0.0000
G1 X123.970 Y105.100 E0.1094 F992
G1 X138.030 Y105.100 E0.4881
G1 X140.900 Y107.970 E0.5975
G1 X140.900 Y122.030 E0.9763
G1 X138.030 Y124.900 E1.0856
G1 X123.970 Y124.900 E1.4644
G1 X121.100 Y122.030 E1.5737
G1 X121.100 Y107.970 E1.9525
G92 E0.0000
G1 E-6.0000 F1500
G1 X121.700 Y108.219 F4800
G1 E0.0000 F1500
G92 E0.0000
G1 X124.219 Y105.700 E0.0960 F992
G1 X137.781 Y105.700 E0.4613
G1 X140.300 Y108.219 E0.5573
G1 X140.300 Y121.781 E0.9227
G1 X137.781 Y124.300 E1.0187
G1 X124.219 Y124.300 E1.3840
G1 X121.700 Y121.781 E1.4800
G1 X121.700 Y108.219 E1.8454
G92 E0.0000
G1 E-6.0000 F1500
; feature inner perimeter
G1 X126.900 Y110.900 F4800
G1 E0.0000 F1500
G92 E0.0000
G1 X135.100 Y110.900 E0.2209 F744
G1 X135.100 Y119.100 E0.4418
G1 X126.900 Y119.100 E0.6627
G1 X126.900 Y110.900 E0.8837
; feature outer perimeter
G1 X126.300 Y110.300 F4800
G92 E0.0000
G1 X135.700 Y110.300 E0.2532 F496
G1 X135.700 Y119.700 E0.5065
G1 X126.300 Y119.700 E0.7597
G1 X126.300 Y110.300 E1.0130
; feature inner perimeter
G1 X129.605 Y113.793 F4800
G92 E0.0000
G1 X129.379 Y114.121 E0.0107 F744
G1 X129.252 Y114.414 E0.0193
G1 X129.176 Y114.727 E0.0280
G1 X129.160 Y115.136 E0.0390
G1 X129.216 Y115.467 E0.0481
G1 X129.358 Y115.839 E0.0588
G1 X129.529 Y116.110 E0.0674
G1 X129.742 Y116.348 E0.0760
G1 X130.060 Y116.587 E0.0868
G1 X130.365 Y116.732 E0.0958
G1 X130.778 Y116.833 E0.1073
G1 X131.205 Y116.833 E0.1188
G1 X131.534 Y116.765 E0.1279
G1 X131.901 Y116.609 E0.1386
G1 X132.178 Y116.419 E0.1477
G1 X132.462 Y116.124 E0.1587
G1 X132.642 Y115.839 E0.1678
G1 X132.784 Y115.467 E0.1785
G1 X132.837 Y115.153 E0.1871
G1 X132.837 Y114.847 E0.1953
G1 X132.784 Y114.533 E0.2039
G1 X132.642 Y114.161 E0.2146
G1 X132.471 Y113.890 E0.2233
G1 X132.258 Y113.652 E0.2319
G1 X131.940 Y113.413 E0.2426
G1 X131.635 Y113.268 E0.2517
G1 X131.222 Y113.167 E0.2632
G1 X130.795 Y113.167 E0.2746
G1 X130.466 Y113.235 E0.2837
G1 X130.099 Y113.391 E0.2944
G1 X129.835 Y113.571 E0.3030
G1 X129.605 Y113.793 E0.3117
; feature outer perimeter
G1 X130.065 Y114.184 F4800
G92 E0.0000
G1 X129.906 Y114.413 E0.0075 F496
G1 X129.823 Y114.606 E0.0132
G1 X129.773 Y114.810 E0.0188
G1 X129.762 Y115.097 E0.0266
G1 X129.798 Y115.309 E0.0324
G1 X129.897 Y115.570 E0.0399
G1 X130.009 Y115.748 E0.0455
G1 X130.149 Y115.904 E0.0512
G1 X130.372 Y116.071 E0.0587
G1 X130.567 Y116.164 E0.0645
G1 X130.851 Y116.233 E0.0724
G1 X131.143 Y116.233 E0.0803
G1 X131.355 Y116.190 E0.0861
G1 X131.611 Y116.081 E0.0936
G1 X131.789 Y115.959 E0.0994
G1 X131.988 Y115.752 E0.1071
G1 X132.103 Y115.570 E0.1129
G1 X132.202 Y115.309 E0.1204
G1 X132.237 Y115.103 E0.1261
G1 X132.237 Y114.897 E0.1316
G1 X132.202 Y114.691 E0.1372
G1 X132.103 Y114.430 E0.1448
G1 X131.991 Y114.252 E0.1504
G1 X131.851 Y114.096 E0.1561
G1 X131.628 Y113.929 E0.1636
G1 X131.433 Y113.836 E0.1694
G1 X131.149 Y113.767 E0.1773
G1 X130.857 Y113.767 E0.1851
G1 X130.645 Y113.810 E0.1910
G1 X130.389 Y113.919 E0.1985
G1 X130.216 Y114.038 E0.2041
G1 X130.065 Y114.184 E0.2098
G92 E0.0000
G1 E-6.0000 F1500
; feature solid layer
G1 X130.798 Y117.343 F4800
G1 E0.0000 F1500
G92 E0.0000
G1 X132.044 Y118.590 E0.0475 F794
G1 X132.893 Y118.590 E0.0704
G1 X131.580 Y117.277 E0.1204
G1 X131.687 Y117.254 E0.1234
G1 X132.147 Y117.059 E0.1368
G1 X132.185 Y117.033 E0.1381
G1 X133.741 Y118.590 E0.1974
G1 X134.590 Y118.590 E0.2202
G1 X132.657 Y116.657 E0.2939
G1 X132.866 Y116.441 E0.3020
G1 X133.030 Y116.181 E0.3102
G1 X134.590 Y117.741 E0.3697
G1 X134.590 Y116.893 E0.3925
G1 X133.281 Y115.584 E0.4424
G1 X134.198 Y111.410 F4800
G92 E0.0000
G1 X134.590 Y111.802 E0.0149 F794
G1 X134.590 Y112.650 E0.0378
G1 X133.350 Y111.410 E0.0850
G1 X132.501 Y111.410 E0.1079
G1 X134.590 Y113.499 E0.1875
G1 X134.590 Y114.347 E0.2103
G1 X131.653 Y111.410 E0.3223
G1 X130.804 Y111.410 E0.3451
G1 X134.590 Y115.196 E0.4894
G1 X134.590 Y116.044 E0.5122
G1 X133.346 Y114.800 E0.5596
G1 X133.278 Y114.398 E0.5706
G1 X133.101 Y113.931 E0.5841
G1 X132.879 Y113.581 E0.5952
G1 X132.605 Y113.274 E0.6063
G1 X132.205 Y112.974 E0.6198
G1 X131.807 Y112.785 E0.6316
G1 X131.283 Y112.657 E0.6462
G1 X131.202 Y112.657 E0.6484
G1 X129.956 Y111.410 E0.6959
G1 X129.107 Y111.410 E0.7187
G1 X130.420 Y112.723 E0.7688
G1 X130.313 Y112.746 E0.7717
G1 X129.853 Y112.941 E0.7852
G1 X129.815 Y112.967 E0.7864
G1 X128.259 Y111.410 E0.8457
G1 X127.410 Y111.410 E0.8686
G1 X129.340 Y113.340 E0.9421
G1 X129.214 Y113.462 E0.9468
G1 X128.969 Y113.817 E0.9585
G1 X127.410 Y112.259 E1.0179
G1 X127.410 Y113.107 E1.0407
G1 X128.725 Y114.422 E1.0908
G1 X128.668 Y114.656 E1.0973
G1 X128.649 Y115.169 E1.1112
G1 X128.654 Y115.200 E1.1120
G1 X127.410 Y113.956 E1.1594
G1 X127.410 Y114.804 E1.1822
G1 X131.196 Y118.590 E1.3265
G1 X130.347 Y118.590 E1.3493
G1 X127.410 Y115.653 E1.4613
G1 X127.410 Y116.501 E1.4841
G1 X129.499 Y118.590 E1.5637
G1 X128.650 Y118.590 E1.5866
G1 X127.410 Y117.350 E1.6338
G1 X127.410 Y118.198 E1.6567
G1 X127.802 Y118.590 E1.6716
G92 E0.0000
G1 E-6.0000 F1500
; layer 2, Z = 0.220
M106 S255
; feature skirt
; tool H0.100 W0.400
G1 Z0.220 F1000
G1 X124.095 Y124.600 F4800
G1 E0.0000 F1500
G92 E0.0000
G1 X121.400 Y121.905 E0.0570 F1521
G1 X121.400 Y108.095 E0.2637
G1 X124.095 Y105.400 E0.3208
G1 X137.905 Y105.400 E0.5275
G1 X140.600 Y108.095 E0.5845
G1 X140.600 Y121.905 E0.7912
G1 X137.905 Y124.600 E0.8483
G1 X124.095 Y124.600 E1.0550
G92 E0.0000
G1 E-6.0000 F1500
G1 X124.260 Y124.200 F4800
G1 E0.0000 F1500
G92 E0.0000
G1 X121.800 Y121.740 E0.0521 F1521
G1 X121.800 Y108.260 E0.2538
G1 X124.260 Y105.800 E0.3059
G1 X137.740 Y105.800 E0.5076
G1 X140.200 Y108.260 E0.5597
G1 X140.200 Y121.740 E0.7615
G1 X137.740 Y124.200 E0.8135
G1 X124.260 Y124.200 E1.0153
G92 E0.0000
G1 E-6.0000 F1500
; feature inner perimeter
G1 X127.600 Y118.400 F4800
G1 E0.0000 F1500
G92 E0.0000
G1 X127.600 Y111.600 E0.1018 F1141
G1 X134.400 Y111.600 E0.2036
G1 X134.400 Y118.400 E0.3053
G1 X127.600 Y118.400 E0.4071
; feature outer perimeter
G1 X127.200 Y118.800 F4800
G92 E0.0000
G1 X127.200 Y111.200 E0.1137 F760
G1 X134.800 Y111.200 E0.2275
G1 X134.800 Y118.800 E0.3412
G1 X127.200 Y118.800 E0.4550
; feature inner perimeter
G1 X130.032 Y116.056 F4800
G92 E0.0000
G1 X130.268 Y116.232 E0.0044 F1141
G1 X130.508 Y116.346 E0.0084
G1 X130.830 Y116.424 E0.0133
G1 X131.161 Y116.424 E0.0183
G1 X131.420 Y116.370 E0.0223
G1 X131.691 Y116.254 E0.0267
G1 X131.911 Y116.107 E0.0306
G1 X132.135 Y115.875 E0.0354
G1 X132.277 Y115.651 E0.0394
G1 X132.382 Y115.376 E0.0438
G1 X132.427 Y115.126 E0.0476
G1 X132.427 Y114.874 E0.0514
G1 X132.382 Y114.624 E0.0552
G1 X132.277 Y114.349 E0.0596
G1 X132.139 Y114.132 E0.0634
G1 X131.968 Y113.944 E0.0673
G1 X131.732 Y113.768 E0.0717
G1 X131.492 Y113.654 E0.0756
G1 X131.170 Y113.576 E0.0806
G1 X130.839 Y113.576 E0.0856
G1 X130.579 Y113.630 E0.0895
G1 X130.309 Y113.745 E0.0939
G1 X130.097 Y113.888 E0.0977
G1 X129.913 Y114.067 E0.1016
G1 X129.746 Y114.308 E0.1060
G1 X129.643 Y114.542 E0.1098
G1 X129.582 Y114.794 E0.1137
G1 X129.571 Y115.116 E0.1185
G1 X129.618 Y115.376 E0.1225
G1 X129.723 Y115.651 E0.1269
G1 X129.861 Y115.868 E0.1307
G1 X130.032 Y116.056 E0.1345
; feature outer perimeter
G1 X130.302 Y115.758 F4800
G92 E0.0000
G1 X130.476 Y115.888 E0.0032 F760
G1 X130.642 Y115.967 E0.0060
G1 X130.877 Y116.024 E0.0096
G1 X131.119 Y116.024 E0.0133
G1 X131.300 Y115.986 E0.0160
G1 X131.500 Y115.901 E0.0193
G1 X131.653 Y115.798 E0.0220
G1 X131.819 Y115.627 E0.0256
G1 X131.917 Y115.470 E0.0284
G1 X131.995 Y115.268 E0.0316
G1 X132.027 Y115.090 E0.0343
G1 X132.027 Y114.910 E0.0370
G1 X131.995 Y114.732 E0.0397
G1 X131.917 Y114.529 E0.0430
G1 X131.820 Y114.376 E0.0457
G1 X131.698 Y114.242 E0.0484
G1 X131.524 Y114.112 E0.0516
G1 X131.357 Y114.033 E0.0544
G1 X131.123 Y113.976 E0.0580
G1 X130.881 Y113.976 E0.0616
G1 X130.700 Y114.014 E0.0644
G1 X130.500 Y114.099 E0.0676
G1 X130.350 Y114.200 E0.0704
G1 X130.220 Y114.326 E0.0731
G1 X130.096 Y114.505 E0.0763
G1 X130.023 Y114.671 E0.0790
G1 X129.980 Y114.848 E0.0818
G1 X129.973 Y115.087 E0.0853
G1 X130.005 Y115.268 E0.0881
G1 X130.083 Y115.470 E0.0913
G1 X130.180 Y115.624 E0.0941
G1 X130.302 Y115.758 E0.0968
G92 E0.0000
G1 E-6.0000 F1500
; feature solid layer
G1 X130.400 Y113.337 F4800
G1 E0.0000 F1500
G92 E0.0000
G1 X131.797 Y111.940 E0.0296 F1217
G1 X132.363 Y111.940 E0.0380
G1 X131.067 Y113.236 E0.0655
G1 X131.211 Y113.236 E0.0676
G1 X131.550 Y113.318 E0.0729
G1 X132.929 Y111.940 E0.1020
G1 X133.494 Y111.940 E0.1105
G1 X131.937 Y113.497 E0.1435
G1 X132.197 Y113.691 E0.1483
G1 X132.250 Y113.750 E0.1495
G1 X134.060 Y111.940 E0.1878
G1 X134.060 Y112.506 E0.1963
G1 X132.500 Y114.066 E0.2293
G1 X132.582 Y114.196 E0.2316
G1 X132.680 Y114.452 E0.2357
G1 X134.060 Y113.071 E0.2649
G1 X134.060 Y113.637 E0.2734
G1 X132.767 Y114.930 E0.3007
G1 X134.060 Y117.597 F4800
G92 E0.0000
G1 X133.597 Y118.060 E0.0098 F1217
G1 X133.031 Y118.060 E0.0183
G1 X134.060 Y117.031 E0.0400
G1 X134.060 Y116.466 E0.0485
G1 X132.466 Y118.060 E0.0823
G1 X131.900 Y118.060 E0.0907
G1 X134.060 Y115.900 E0.1365
G1 X134.060 Y115.334 E0.1449
G1 X131.334 Y118.060 E0.2026
G1 X130.768 Y118.060 E0.2111
G1 X134.060 Y114.768 E0.2808
G1 X134.060 Y114.203 E0.2892
G1 X132.658 Y115.604 E0.3189
G1 X132.582 Y115.804 E0.3221
G1 X132.404 Y116.086 E0.3271
G1 X132.130 Y116.369 E0.3330
G1 X131.854 Y116.555 E0.3379
G1 X131.600 Y116.663 E0.3421
G1 X130.203 Y118.060 E0.3717
G1 X129.637 Y118.060 E0.3801
G1 X130.933 Y116.764 E0.4076
G1 X130.789 Y116.764 E0.4097
G1 X130.450 Y116.682 E0.4149
G1 X129.071 Y118.060 E0.4441
G1 X128.506 Y118.060 E0.4526
G1 X130.063 Y116.503 E0.4855
G1 X129.803 Y116.309 E0.4904
G1 X129.750 Y116.250 E0.4916
G1 X127.940 Y118.060 E0.5299
G1 X127.940 Y117.494 E0.5383
G1 X129.500 Y115.934 E0.5714
G1 X129.418 Y115.804 E0.5737
G1 X129.320 Y115.548 E0.5778
G1 X127.940 Y116.929 E0.6070
G1 X127.940 Y116.363 E0.6154
G1 X129.233 Y115.070 E0.6428
G1 X129.243 Y114.748 E0.6476
G1 X129.319 Y114.433 E0.6525
G1 X129.331 Y114.406 E0.6529
G1 X127.940 Y115.797 E0.6824
G1 X127.940 Y115.232 E0.6908
G1 X131.232 Y111.940 E0.7605
G1 X130.666 Y111.940 E0.7690
G1 X127.940 Y114.666 E0.8267
