; G-Code generated by Simplify3D(R) Version 4.1.2
; Apr 27, 2020 at 2:06:17 PM
; Settings Summary
;   processName,Process1
;   applyToModels,xyzCalibration_cube
;   profileName,Creality Ender 3 Pro (modified)
;   profileVersion,2019-04-06 08:00:00
;   baseProfile,
;   printMaterial,PLA
;   printQuality,High
;   printExtruders,
;   extruderName,Primary Extruder
;   extruderToolheadNumber,0
;   extruderDiameter,0.4
;   extruderAutoWidth,0
;   extruderWidth,0.4
;   extrusionMultiplier,0.9
;   extruderUseRetract,1
;   extruderRetractionDistance,4
;   extruderExtraRestartDistance,0
;   extruderRetractionZLift,0
;   extruderRetractionSpeed,2400
;   extruderUseCoasting,0
;   extruderCoastingDistance,0.2
;   extruderUseWipe,0
;   extruderWipeDistance,5
;   primaryExtruder,0
;   layerHeight,0.1
;   topSolidLayers,4
;   bottomSolidLayers,4
;   perimeterOutlines,2
;   printPerimetersInsideOut,0
;   startPointOption,2
;   startPointOriginX,0
;   startPointOriginY,0
;   sequentialIslands,0
;   spiralVaseMode,0
;   firstLayerHeightPercentage,120
;   firstLayerWidthPercentage,150
;   firstLayerUnderspeed,0.5
;   useRaft,0
;   raftExtruder,0
;   raftTopLayers,3
;   raftBaseLayers,2
;   raftOffset,3
;   raftSeparationDistance,0.14
;   raftTopInfill,100
;   aboveRaftSpeedMultiplier,0.3
;   useSkirt,0
;   skirtExtruder,0
;   skirtLayers,2
;   skirtOutlines,2
;   skirtOffset,4
;   usePrimePillar,0
;   primePillarExtruder,999
;   primePillarWidth,12
;   primePillarLocation,7
;   primePillarSpeedMultiplier,1
;   useOozeShield,0
;   oozeShieldExtruder,999
;   oozeShieldOffset,2
;   oozeShieldOutlines,1
;   oozeShieldSidewallShape,1
;   oozeShieldSidewallAngle,30
;   oozeShieldSpeedMultiplier,1
;   infillExtruder,0
;   internalInfillPattern,Rectilinear
;   externalInfillPattern,Rectilinear
;   infillPercentage,30
;   outlineOverlapPercentage,15
;   infillExtrusionWidthPercentage,100
;   minInfillLength,5
;   infillLayerInterval,1
;   internalInfillAngles,45,-45
;   overlapInternalInfillAngles,0
;   externalInfillAngles,45,-45
;   generateSupport,0
;   supportExtruder,0
;   supportInfillPercentage,40
;   supportExtraInflation,0
;   supportBaseLayers,0
;   denseSupportExtruder,0
;   denseSupportLayers,0
;   denseSupportInfillPercentage,70
;   supportLayerInterval,1
;   supportHorizontalPartOffset,0.3
;   supportUpperSeparationLayers,1
;   supportLowerSeparationLayers,1
;   supportType,0
;   supportGridSpacing,4
;   maxOverhangAngle,45
;   supportAngles,0
;   temperatureName,Primary Extruder,Heated Bed
;   temperatureNumber,0,0
;   temperatureSetpointCount,1,1
;   temperatureSetpointLayers,1,1
;   temperatureSetpointTemperatures,210,60
;   temperatureStabilizeAtStartup,1,1
;   temperatureHeatedBed,0,1
;   fanLayers,1,2
;   fanSpeeds,0,100
;   blipFanToFullPower,0
;   adjustSpeedForCooling,1
;   minSpeedLayerTime,15
;   minCoolingSpeedSlowdown,20
;   increaseFanForCooling,0
;   minFanLayerTime,45
;   maxCoolingFanSpeed,100
;   increaseFanForBridging,0
;   bridgingFanSpeed,100
;   use5D,1
;   relativeEdistances,0
;   allowEaxisZeroing,1
;   independentExtruderAxes,0
;   includeM10123,0
;   stickySupport,1
;   applyToolheadOffsets,0
;   gcodeXoffset,0
;   gcodeYoffset,0
;   gcodeZoffset,0
;   overrideMachineDefinition,1
;   machineTypeOverride,0
;   strokeXoverride,220
;   strokeYoverride,220
;   strokeZoverride,250
;   originOffsetXoverride,-5
;   originOffsetYoverride,-5
;   originOffsetZoverride,0
;   homeXdirOverride,-1
;   homeYdirOverride,-1
;   homeZdirOverride,-1
;   flipXoverride,1
;   flipYoverride,-1
;   flipZoverride,1
;   toolheadOffsets,0,0|0,0|0,0|0,0|0,0|0,0
;   overrideFirmwareConfiguration,1
;   firmwareTypeOverride,RepRap (Marlin/Repetier/Sprinter)
;   GPXconfigOverride,r2
;   baudRateOverride,115200
;   overridePrinterModels,1
;   printerModelsOverride
;   startingGcode,G28 ; home all axes,G1 X5 Y10 Z0.2 F3000 ; get ready to prime,G92 E0 ; reset extrusion distance,G1 X160 E15 F600 ; prime nozzle,G1 X180 F5000 ; quick wipe
;   layerChangeGcode,
;   retractionGcode,
;   toolChangeGcode,
;   endingGcode,G28 X0 ; home X axis,M106 S0 ; turn off cooling fan,M104 S0 ; turn off extruder,M140 S0 ; turn off bed,M84 ; disable motors
;   exportFileFormat,gcode
;   celebration,0
;   celebrationSong,Random Song
;   postProcessing,
;   defaultSpeed,2400
;   outlineUnderspeed,0.5
;   solidInfillUnderspeed,0.8
;   supportUnderspeed,0.8
;   rapidXYspeed,4800
;   rapidZspeed,1000
;   minBridgingArea,50
;   bridgingExtraInflation,0
;   bridgingExtrusionMultiplier,1
;   bridgingSpeedMultiplier,1
;   useFixedBridgingAngle,0
;   fixedBridgingAngle,0
;   applyBridgingToPerimeters,0
;   filamentDiameters,1.75|1.75|1.75|1.75|1.75|1.75
;   filamentPricesPerKg,46|46|46|46|46|46
;   filamentDensities,1.25|1.25|1.25|1.25|1.25|1.25
;   useMinPrintHeight,0
;   minPrintHeight,0
;   useMaxPrintHeight,0
;   maxPrintHeight,0
;   useDiaphragm,0
;   diaphragmLayerInterval,20
;   robustSlicing,1
;   mergeAllIntoSolid,0
;   onlyRetractWhenCrossingOutline,1
;   retractBetweenLayers,1
;   useRetractionMinTravel,0
;   retractionMinTravel,3
;   retractWhileWiping,0
;   onlyWipeOutlines,1
;   avoidCrossingOutline,0
;   maxMovementDetourFactor,3
;   toolChangeRetractionDistance,12
;   toolChangeExtraRestartDistance,-0.5
;   toolChangeRetractionSpeed,600
;   externalThinWallType,0
;   internalThinWallType,2
;   thinWallAllowedOverlapPercentage,10
;   singleExtrusionMinLength,1
;   singleExtrusionMinPrintingWidthPercentage,50
;   singleExtrusionMaxPrintingWidthPercentage,200
;   singleExtrusionEndpointExtension,0.2
;   horizontalSizeCompensation,0
G90
M82
M106 S0
M140 S60
M190 S60
M104 S200 T0
M109 S200 T0
G28 ; home all axes
G1 X5 Y10 Z0.2 F3000 ; get ready to prime
G92 E0 ; reset extrusion distance
G1 X160 E15 F600 ; prime nozzle
G1 X180 F5000 ; quick wipe
; process Process1
; layer 1, Z = 0.120
T0
G92 E0.0000
G1 E-4.0000 F2400
; feature outer perimeter
; tool H0.120 W0.600
G1 Z0.120 F1000
G1 X105.300 Y105.300 F4800
G1 E0.0000 F2400
G92 E0.0000
G1 X124.700 Y105.300 E0.5226 F600
G1 X124.700 Y124.700 E1.0453
G1 X105.300 Y124.700 E1.5679
G1 X105.300 Y105.300 E2.0906
; feature inner perimeter
G1 X105.900 Y105.900 F4800
G92 E0.0000
G1 X124.100 Y105.900 E0.4903 F900
G1 X124.100 Y124.100 E0.9806
G1 X105.900 Y124.100 E1.4710
G1 X105.900 Y105.900 E1.9613
; feature solid layer
G1 X123.381 Y106.410 F4800
G92 E0.0000
G1 X123.590 Y106.619 E0.0080 F960
G1 X123.590 Y107.468 E0.0308
G1 X122.532 Y106.410 E0.0711
G1 X121.684 Y106.410 E0.0940
G1 X123.590 Y108.316 E0.1666
G1 X123.590 Y109.165 E0.1895
G1 X120.835 Y106.410 E0.2945
G1 X119.986 Y106.410 E0.3173
G1 X123.590 Y110.014 E0.4546
G1 X123.590 Y110.862 E0.4775
G1 X119.138 Y106.410 E0.6471
G1 X118.289 Y106.410 E0.6700
G1 X123.590 Y111.711 E0.8719
G1 X123.590 Y112.559 E0.8948
G1 X117.441 Y106.410 E1.1291
G1 X116.592 Y106.410 E1.1519
G1 X123.590 Y113.408 E1.4185
G1 X123.590 Y114.256 E1.4414
G1 X115.744 Y106.410 E1.7403
G1 X114.895 Y106.410 E1.7632
G1 X123.590 Y115.105 E2.0945
G1 X123.590 Y115.953 E2.1173
G1 X114.047 Y106.410 E2.4809
G1 X113.198 Y106.410 E2.5038
G1 X123.590 Y116.802 E2.8997
G1 X123.590 Y117.650 E2.9226
G1 X112.350 Y106.410 E3.3508
G1 X111.501 Y106.410 E3.3737
G1 X123.590 Y118.499 E3.8343
G1 X123.590 Y119.347 E3.8571
G1 X110.653 Y106.410 E4.3500
G1 X109.804 Y106.410 E4.3729
G1 X123.590 Y120.196 E4.8981
G1 X123.590 Y121.044 E4.9210
G1 X108.956 Y106.410 E5.4786
G1 X108.107 Y106.410 E5.5014
G1 X123.590 Y121.893 E6.0913
G1 X123.590 Y122.741 E6.1142
G1 X107.259 Y106.410 E6.7364
G1 X106.410 Y106.410 E6.7593
G1 X123.590 Y123.590 E7.4138
G1 X122.741 Y123.590 E7.4367
G1 X106.410 Y107.259 E8.0589
G1 X106.410 Y108.107 E8.0818
G1 X121.893 Y123.590 E8.6717
G1 X121.044 Y123.590 E8.6945
G1 X106.410 Y108.956 E9.2521
G1 X106.410 Y109.804 E9.2750
G1 X120.196 Y123.590 E9.8002
G1 X119.347 Y123.590 E9.8231
G1 X106.410 Y110.653 E10.3160
G1 X106.410 Y111.501 E10.3388
G1 X118.499 Y123.590 E10.7994
G1 X117.650 Y123.590 E10.8223
G1 X106.410 Y112.350 E11.2505
G1 X106.410 Y113.198 E11.2734
G1 X116.802 Y123.590 E11.6693
G1 X115.953 Y123.590 E11.6922
G1 X106.410 Y114.047 E12.0558
G1 X106.410 Y114.895 E12.0786
G1 X115.105 Y123.590 E12.4099
G1 X114.256 Y123.590 E12.4328
G1 X106.410 Y115.744 E12.7317
G1 X106.410 Y116.592 E12.7546
G1 X113.408 Y123.590 E13.0212
G1 X112.559 Y123.590 E13.0440
G1 X106.410 Y117.441 E13.2783
G1 X106.410 Y118.289 E13.3012
G1 X111.711 Y123.590 E13.5031
G1 X110.862 Y123.590 E13.5260
G1 X106.410 Y119.138 E13.6956
G1 X106.410 Y119.986 E13.7185
G1 X110.014 Y123.590 E13.8558
G1 X109.165 Y123.590 E13.8786
G1 X106.410 Y120.835 E13.9836
G1 X106.410 Y121.683 E14.0065
G1 X108.317 Y123.590 E14.0791
G1 X107.468 Y123.590 E14.1020
G1 X106.410 Y122.532 E14.1423
G1 X106.410 Y123.381 E14.1651
G1 X106.619 Y123.590 E14.1731
G92 E0.0000
G1 E-4.0000 F2400
; layer 2, Z = 0.220
M106 S255
; feature outer perimeter
; tool H0.100 W0.400
G1 Z0.220 F1000
G1 X105.200 Y124.800 F4800
G1 E0.0000 F2400
G92 E0.0000
G1 X105.200 Y105.200 E0.2934 F1200
G1 X124.800 Y105.200 E0.5867
G1 X124.800 Y124.800 E0.8801
G1 X105.200 Y124.800 E1.1734
; feature inner perimeter
G1 X105.600 Y124.400 F4800
G92 E0.0000
G1 X105.600 Y105.600 E0.2814 F1800
G1 X124.400 Y105.600 E0.5628
G1 X124.400 Y124.400 E0.8441
G1 X105.600 Y124.400 E1.1255
; feature solid layer
G1 X105.940 Y105.958 F4800
G92 E0.0000
G1 X105.958 Y105.940 E0.0004 F1920
G1 X106.524 Y105.940 E0.0088
G1 X105.940 Y106.524 E0.0212
G1 X105.940 Y107.089 E0.0297
G1 X107.089 Y105.940 E0.0540
G1 X107.655 Y105.940 E0.0625
G1 X105.940 Y107.655 E0.0988
G1 X105.940 Y108.221 E0.1072
G1 X108.221 Y105.940 E0.1555
G1 X108.787 Y105.940 E0.1640
G1 X105.940 Y108.787 E0.2242
G1 X105.940 Y109.352 E0.2327
G1 X109.352 Y105.940 E0.3049
G1 X109.918 Y105.940 E0.3134
G1 X105.940 Y109.918 E0.3976
G1 X105.940 Y110.484 E0.4061
G1 X110.484 Y105.940 E0.5022
G1 X111.049 Y105.940 E0.5107
G1 X105.940 Y111.049 E0.6188
G1 X105.940 Y111.615 E0.6273
G1 X111.615 Y105.940 E0.7474
G1 X112.181 Y105.940 E0.7559
G1 X105.940 Y112.181 E0.8880
G1 X105.940 Y112.746 E0.8965
G1 X112.746 Y105.940 E1.0405
G1 X113.312 Y105.940 E1.0490
G1 X105.940 Y113.312 E1.2050
G1 X105.940 Y113.878 E1.2135
G1 X113.878 Y105.940 E1.3815
G1 X114.443 Y105.940 E1.3900
G1 X105.940 Y114.443 E1.5700
G1 X105.940 Y115.009 E1.5784
G1 X115.009 Y105.940 E1.7704
G1 X115.575 Y105.940 E1.7789
G1 X105.940 Y115.575 E1.9828
G1 X105.940 Y116.140 E1.9913
G1 X116.140 Y105.940 E2.2072
G1 X116.706 Y105.940 E2.2156
G1 X105.940 Y116.706 E2.4435
G1 X105.940 Y117.272 E2.4520
G1 X117.272 Y105.940 E2.6918
G1 X117.837 Y105.940 E2.7003
G1 X105.940 Y117.837 E2.9521
G1 X105.940 Y118.403 E2.9606
G1 X118.403 Y105.940 E3.2244
G1 X118.969 Y105.940 E3.2329
G1 X105.940 Y118.969 E3.5087
G1 X105.940 Y119.535 E3.5171
G1 X119.535 Y105.940 E3.8049
G1 X120.100 Y105.940 E3.8133
G1 X105.940 Y120.100 E4.1131
G1 X105.940 Y120.666 E4.1215
G1 X120.666 Y105.940 E4.4332
G1 X121.232 Y105.940 E4.4417
G1 X105.940 Y121.232 E4.7654
G1 X105.940 Y121.797 E4.7738
G1 X121.797 Y105.940 E5.1095
G1 X122.363 Y105.940 E5.1179
G1 X105.940 Y122.363 E5.4656
G1 X105.940 Y122.929 E5.4740
G1 X122.929 Y105.940 E5.8336
G1 X123.494 Y105.940 E5.8421
G1 X105.940 Y123.494 E6.2137
G1 X105.940 Y124.060 E6.2221
G1 X124.060 Y105.940 E6.6057
G1 X124.060 Y106.506 E6.6141
G1 X106.506 Y124.060 E6.9857
G1 X107.071 Y124.060 E6.9942
G1 X124.060 Y107.071 E7.3537
G1 X124.060 Y107.637 E7.3622
G1 X107.637 Y124.060 E7.7098
G1 X108.203 Y124.060 E7.7183
G1 X124.060 Y108.203 E8.0539
G1 X124.060 Y108.768 E8.0624
G1 X108.768 Y124.060 E8.3861
G1 X109.334 Y124.060 E8.3945
G1 X124.060 Y109.334 E8.7062
G1 X124.060 Y109.900 E8.7147
G1 X109.900 Y124.060 E9.0144
G1 X110.466 Y124.060 E9.0229
G1 X124.060 Y110.466 E9.3107
G1 X124.060 Y111.031 E9.3191
G1 X111.031 Y124.060 E9.5949
G1 X111.597 Y124.060 E9.6034
G1 X124.060 Y111.597 E9.8672
G1 X124.060 Y112.163 E9.8756
G1 X112.163 Y124.060 E10.1275
G1 X112.728 Y124.060 E10.1359
G1 X124.060 Y112.728 E10.3758
G1 X124.060 Y113.294 E10.3842
G1 X113.294 Y124.060 E10.6121
G1 X113.860 Y124.060 E10.6206
G1 X124.060 Y113.860 E10.8365
G1 X124.060 Y114.425 E10.8450
G1 X114.425 Y124.060 E11.0489
G1 X114.991 Y124.060 E11.0574
G1 X124.060 Y114.991 E11.2493
G1 X124.060 Y115.557 E11.2578
G1 X115.557 Y124.060 E11.4378
G1 X116.122 Y124.060 E11.4462
G1 X124.060 Y116.122 E11.6143
G1 X124.060 Y116.688 E11.6227
G1 X116.688 Y124.060 E11.7788
G1 X117.254 Y124.060 E11.7872
G1 X124.060 Y117.254 E11.9313
G1 X124.060 Y117.819 E11.9398
G1 X117.819 Y124.060 E12.0719
G1 X118.385 Y124.060 E12.0803
G1 X124.060 Y118.385 E12.2004
G1 X124.060 Y118.951 E12.2089
G1 X118.951 Y124.060 E12.3171
G1 X119.516 Y124.060 E12.3255
G1 X124.060 Y119.516 E12.4217
G1 X124.060 Y120.082 E12.4302
G1 X120.082 Y124.060 E12.5144
G1 X120.648 Y124.060 E12.5228
G1 X124.060 Y120.648 E12.5950
G1 X124.060 Y121.214 E12.6035
G1 X121.214 Y124.060 E12.6638
G1 X121.779 Y124.060 E12.6722
G1 X124.060 Y121.779 E12.7205
G1 X124.060 Y122.345 E12.7290
G1 X122.345 Y124.060 E12.7653
G1 X122.911 Y124.060 E12.7737
G1 X124.060 Y122.911 E12.7981
G1 X124.060 Y123.476 E12.8065
G1 X123.476 Y124.060 E12.8189
G1 X124.042 Y124.060 E12.8274
G1 X124.060 Y124.042 E12.8277
G92 E0.0000
G1 E-4.0000 F2400
; layer 3, Z = 0.320
; feature outer perimeter
G1 Z0.320 F1000
G1 X124.800 Y124.800 F4800
G1 E0.0000 F2400
G92 E0.0000
G1 X105.200 Y124.800 E0.2934 F1200
G1 X105.200 Y105.200 E0.5867
G1 X124.800 Y105.200 E0.8801
G1 X124.800 Y124.800 E1.1734
; feature inner perimeter
G1 X124.400 Y124.400 F4800
G92 E0.0000
G1 X105.600 Y124.400 E0.2814 F1800
G1 X105.600 Y105.600 E0.5628
G1 X124.400 Y105.600 E0.8441
G1 X124.400 Y124.400 E1.1255
; feature solid layer
G1 X105.958 Y124.060 F4800
G92 E0.0000
G1 X105.940 Y124.042 E0.0004 F1920
G1 X105.940 Y123.476 E0.0088
G1 X106.524 Y124.060 E0.0212
G1 X107.089 Y124.060 E0.0297
G1 X105.940 Y122.911 E0.0540
G1 X105.940 Y122.345 E0.0625
G1 X107.655 Y124.060 E0.0988
G1 X108.221 Y124.060 E0.1072
G1 X105.940 Y121.779 E0.1555
G1 X105.940 Y121.213 E0.1640
G1 X108.787 Y124.060 E0.2242
G1 X109.352 Y124.060 E0.2327
G1 X105.940 Y120.648 E0.3049
G1 X105.940 Y120.082 E0.3134
G1 X109.918 Y124.060 E0.3976
G1 X110.484 Y124.060 E0.4061
G1 X105.940 Y119.516 E0.5022
G1 X105.940 Y118.951 E0.5107
G1 X111.049 Y124.060 E0.6188
G1 X111.615 Y124.060 E0.6273
G1 X105.940 Y118.385 E0.7474
G1 X105.940 Y117.819 E0.7559
G1 X112.181 Y124.060 E0.8880
G1 X112.746 Y124.060 E0.8965
G1 X105.940 Y117.254 E1.0405
G1 X105.940 Y116.688 E1.0490
G1 X113.312 Y124.060 E1.2050
G1 X113.878 Y124.060 E1.2135
G1 X105.940 Y116.122 E1.3815
G1 X105.940 Y115.557 E1.3900
G1 X114.443 Y124.060 E1.5700
G1 X115.009 Y124.060 E1.5784
G1 X105.940 Y114.991 E1.7704
G1 X105.940 Y114.425 E1.7789
G1 X115.575 Y124.060 E1.9828
G1 X116.140 Y124.060 E1.9913
G1 X105.940 Y113.860 E2.2072
G1 X105.940 Y113.294 E2.2156
G1 X116.706 Y124.060 E2.4435
G1 X117.272 Y124.060 E2.4520
G1 X105.940 Y112.728 E2.6918
G1 X105.940 Y112.163 E2.7003
G1 X117.837 Y124.060 E2.9521
G1 X118.403 Y124.060 E2.9606
G1 X105.940 Y111.597 E3.2244
G1 X105.940 Y111.031 E3.2329
G1 X118.969 Y124.060 E3.5086
G1 X119.535 Y124.060 E3.5171
G1 X105.940 Y110.465 E3.8049
G1 X105.940 Y109.900 E3.8133
G1 X120.100 Y124.060 E4.1131
G1 X120.666 Y124.060 E4.1215
G1 X105.940 Y109.334 E4.4332
G1 X105.940 Y108.768 E4.4417
G1 X121.232 Y124.060 E4.7654
G1 X121.797 Y124.060 E4.7738
G1 X105.940 Y108.203 E5.1095
G1 X105.940 Y107.637 E5.1179
G1 X122.363 Y124.060 E5.4656
G1 X122.929 Y124.060 E5.4740
G1 X105.940 Y107.071 E5.8336
G1 X105.940 Y106.506 E5.8421
G1 X123.494 Y124.060 E6.2136
G1 X124.060 Y124.060 E6.2221
G1 X105.940 Y105.940 E6.6056
G1 X106.506 Y105.940 E6.6141
G1 X124.060 Y123.494 E6.9857
G1 X124.060 Y122.929 E6.9941
G1 X107.071 Y105.940 E7.3537
G1 X107.637 Y105.940 E7.3622
G1 X124.060 Y122.363 E7.7098
G1 X124.060 Y121.797 E7.7183
G1 X108.203 Y105.940 E8.0539
G1 X108.768 Y105.940 E8.0624
G1 X124.060 Y121.232 E8.3861
G1 X124.060 Y120.666 E8.3945
G1 X109.334 Y105.940 E8.7062
G1 X109.900 Y105.940 E8.7147
G1 X124.060 Y120.100 E9.0144
G1 X124.060 Y119.535 E9.0229
G1 X110.465 Y105.940 E9.3106
G1 X111.031 Y105.940 E9.3191
