;FLAVOR:Marlin
;TIME:4213
;Filament used: 4.03127m
;Layer height: 0.32
;MINX:2.627
;MINY:17.045
;MINZ:0.32
;MAXX:230.944
;MAXY:220.796
;MAXZ:1.92
;Generated with Cura_SteamEngine 4.6.0
M82 ;absolute extrusion mode
; Ender 3 Custom Start G-code JG 2020-05-30 13:46
G92 E0 ; Reset Extruder
M140 S60 ; Set Heat Bed temperature
M190 S60 ; Wait for Heat Bed temperature
G28 ; Home all axes
G29 ;
G1 Z2.0 F3000 ; Move Z Axis up little to prevent scratching of Heat Bed
M104 S200 ; Set Extruder temperature
G1 X0.1 Y20 Z0.3 F5000.0 ; Move to start position
M109 S200 ; Wait for Extruder temperature
G1 X0.1 Y200.0 Z0.3 F1500.0 E15 ; Draw the first line
G1 X0.4 Y200.0 Z0.3 F5000.0 ; Move to side a little
G1 X0.4 Y20 Z0.3 F1500.0 E30 ; Draw the second line
G92 E0 ; Reset Extruder
G1 Z2.0 F3000 ; Move Z Axis up little to prevent scratching of Heat Bed
G1 X5 Y20 Z0.3 F5000.0 ; Move over to prevent blob squish
G92 E0
G92 E0
G1 F2700 E-5
;LAYER_COUNT:6
;LAYER:0
M107
G0 F6000 X36.831 Y17.967 Z0.32
;TYPE:SKIRT
G1 F2700 E0
G1 F1200 X37.506 Y18.073 E0.03636
G1 X37.844 Y18.132 E0.05462
G1 X38.298 Y18.219 E0.07922
G1 X39.176 Y18.428 E0.12725
G1 X40.033 Y18.714 E0.17533
G1 X40.524 Y18.918 E0.20362
G1 X41.268 Y19.249 E0.24696
G1 X41.582 Y19.395 E0.26539
G1 X41.944 Y19.571 E0.28681
G1 X42.738 Y20.001 E0.33486
G1 X43.366 Y20.411 E0.37477
G1 X43.383 Y20.423 E0.37588
G1 X43.689 Y20.647 E0.39606
G1 X44.129 Y20.983 E0.42552
G1 X46.194 Y22.512 E0.56226
G1 X48.293 Y23.977 E0.69847
G1 X50.414 Y25.37 E0.83351
G1 X52.578 Y26.704 E0.96879
G1 X54.721 Y27.944 E1.10055
G1 X57.496 Y29.438 E1.26827
G1 X57.492 Y29.446 E1.26874
G1 X58.013 Y29.736 E1.30048
G1 X58.838 Y30.302 E1.35372
G1 X59.413 Y30.74 E1.39218
G1 X61.476 Y32.263 E1.52864
G1 X63.573 Y33.722 E1.66459
G1 X65.672 Y35.096 E1.7981
G1 X67.873 Y36.449 E1.93559
G1 X70.044 Y37.702 E2.06898
G1 X72.667 Y39.112 E2.22746
G1 X73.443 Y39.574 E2.27552
G1 X74.006 Y39.973 E2.31224
G1 X74.58 Y40.409 E2.3506
G1 X76.661 Y41.946 E2.48827
G1 X78.743 Y43.393 E2.6232
G1 X80.882 Y44.795 E2.7593
G1 X83.045 Y46.124 E2.8944
G1 X85.222 Y47.378 E3.0281
G1 X87.822 Y48.777 E3.18522
G1 X88.597 Y49.24 E3.23326
G1 X89.409 Y49.833 E3.28677
G1 X89.945 Y50.267 E3.32347
G1 X90.212 Y50.491 E3.34201
G1 X90.598 Y50.826 E3.36921
G1 X91.253 Y51.447 E3.41725
G1 X91.602 Y51.828 E3.44474
G1 X92.401 Y52.746 E3.50951
G1 X92.888 Y53.32 E3.54957
G1 X94.576 Y55.199 E3.68398
G1 X96.317 Y57.032 E3.81851
G1 X98.117 Y58.819 E3.95349
G1 X99.964 Y60.555 E4.08838
G1 X101.88 Y62.255 E4.22469
G1 X103.849 Y63.905 E4.3614
G1 X105.797 Y65.446 E4.49358
G1 X107.854 Y66.98 E4.63014
G1 X109.939 Y68.446 E4.76577
G1 X112.037 Y69.833 E4.89962
G1 X114.225 Y71.193 E5.03671
G1 X114.438 Y71.321 E5.04994
G1 X116.076 Y72.328 E5.15226
G1 X116.369 Y72.515 E5.17076
G1 X116.71 Y72.741 E5.19253
G1 X117.417 Y73.254 E5.23901
G1 X117.78 Y73.543 E5.2637
G1 X117.929 Y73.667 E5.27402
G1 X160.471 Y109.392 E8.23032
G1 X161.017 Y109.864 E8.26873
G1 X161.64 Y110.45 E8.31425
G1 X162.225 Y111.066 E8.35945
G1 X162.902 Y111.82 E8.41338
G1 X164.587 Y113.757 E8.55
G1 X166.293 Y115.608 E8.68396
G1 X168.057 Y117.414 E8.81831
G1 X169.899 Y119.2 E8.95485
G1 X171.747 Y120.891 E9.08815
G1 X173.693 Y122.572 E9.22499
G1 X175.658 Y124.177 E9.36001
G1 X177.673 Y125.729 E9.49536
G1 X179.712 Y127.208 E9.62941
G1 X181.834 Y128.658 E9.76618
G1 X183.966 Y130.03 E9.9011
G1 X185.595 Y131.021 E10.00257
G1 X186.593 Y131.616 E10.0644
G1 X187.348 Y132.112 E10.11248
G1 X187.787 Y132.448 E10.1419
G1 X188.356 Y132.908 E10.18083
G1 X188.627 Y133.135 E10.19965
G1 X188.989 Y133.449 E10.22515
G1 X189.644 Y134.07 E10.27318
G1 X190.358 Y134.893 E10.33116
G1 X190.903 Y135.594 E10.37841
G1 X192.485 Y137.574 E10.51328
G1 X194.124 Y139.511 E10.64831
G1 X195.836 Y141.421 E10.78481
G1 X197.579 Y143.26 E10.91965
G1 X199.367 Y145.039 E11.05387
G1 X201.329 Y146.886 E11.19727
G1 X201.347 Y146.903 E11.19859
G1 X201.985 Y147.542 E11.24664
G1 X202.512 Y148.166 E11.29011
G1 X203.044 Y148.851 E11.33626
G1 X204.657 Y150.868 E11.4737
G1 X206.303 Y152.812 E11.60926
G1 X208.011 Y154.717 E11.74541
G1 X209.75 Y156.55 E11.87987
G1 X211.556 Y158.346 E12.01541
G1 X213.69 Y160.357 E12.17146
G1 X214.314 Y161.01 E12.21952
G1 X214.69 Y161.466 E12.25098
G1 X215.214 Y162.141 E12.29645
G1 X216.845 Y164.182 E12.43548
G1 X218.474 Y166.106 E12.56964
G1 X220.183 Y168.01 E12.70579
G1 X221.93 Y169.852 E12.84089
G1 X223.719 Y171.631 E12.97516
G1 X225.702 Y173.498 E13.1201
G1 X225.706 Y173.503 E13.12044
G1 X225.758 Y173.552 E13.12424
G1 X226.387 Y174.199 E13.17226
G1 X226.998 Y174.956 E13.22403
G1 X227.554 Y175.725 E13.27453
G1 X227.828 Y176.124 E13.30029
G1 X228.306 Y176.89 E13.34834
G1 X228.714 Y177.696 E13.39641
G1 X228.943 Y178.244 E13.42802
G1 X229.245 Y179.031 E13.47288
G1 X229.355 Y179.333 E13.48998
G1 X229.474 Y179.675 E13.50925
G1 X229.733 Y180.54 E13.5573
G1 X229.914 Y181.425 E13.60537
G1 X229.989 Y181.994 E13.63591
G1 X230.081 Y182.946 E13.68681
G1 X230.117 Y183.435 E13.71291
G1 X230.144 Y184.338 E13.76098
G1 X230.09 Y185.239 E13.80902
G1 X230.021 Y185.773 E13.83767
G1 X229.91 Y186.477 E13.8756
G1 X229.849 Y186.821 E13.89419
G1 X229.761 Y187.277 E13.9189
G1 X229.551 Y188.155 E13.96694
G1 X229.264 Y189.011 E14.01499
G1 X229.059 Y189.504 E14.0434
G1 X228.645 Y190.421 E14.09694
G1 X228.442 Y190.841 E14.12177
G1 X228.013 Y191.636 E14.16984
G1 X227.516 Y192.39 E14.2179
G1 X227.186 Y192.819 E14.2467
G1 X226.74 Y193.37 E14.28443
G1 X226.506 Y193.649 E14.30381
G1 X226.184 Y194.019 E14.32991
G1 X226.181 Y194.016 E14.33013
G1 X226.094 Y194.122 E14.33743
G1 X225.616 Y194.622 E14.37424
G1 X225.121 Y195.096 E14.41071
G1 X202.534 Y215.779 E16.04052
G1 X202.02 Y216.237 E16.07716
G1 X201.315 Y216.811 E16.12554
G1 X200.604 Y217.324 E16.17219
G1 X200.062 Y217.695 E16.20715
G1 X199.295 Y218.172 E16.25521
G1 X198.489 Y218.579 E16.30326
G1 X197.941 Y218.806 E16.33483
G1 X196.936 Y219.186 E16.39201
G1 X196.549 Y219.321 E16.41382
G1 X195.684 Y219.58 E16.46187
G1 X194.799 Y219.762 E16.50995
G1 X194.247 Y219.835 E16.53958
G1 X193.528 Y219.91 E16.57805
G1 X193.205 Y219.938 E16.59531
G1 X192.762 Y219.97 E16.61894
G1 X191.859 Y219.996 E16.66702
G1 X190.958 Y219.941 E16.71505
G1 X190.446 Y219.874 E16.74253
G1 X189.745 Y219.764 E16.78029
G1 X189.394 Y219.702 E16.79926
G1 X188.917 Y219.61 E16.82511
G1 X188.039 Y219.4 E16.87316
G1 X187.016 Y219.047 E16.93075
G1 X185.861 Y218.579 E16.99706
G1 X185.677 Y218.512 E17.00749
G1 X184.453 Y218.015 E17.07779
G1 X182.05 Y217.116 E17.21432
G1 X179.694 Y216.31 E17.34683
G1 X177.228 Y215.543 E17.48426
G1 X174.807 Y214.864 E17.61807
G1 X172.353 Y214.25 E17.75269
G1 X169.862 Y213.702 E17.88842
G1 X167.343 Y213.222 E18.02489
G1 X164.848 Y212.819 E18.15938
G1 X162.331 Y212.485 E18.2945
G1 X159.822 Y212.224 E18.42874
G1 X157.279 Y212.032 E18.56445
G1 X154.726 Y211.913 E18.70046
G1 X152.219 Y211.866 E18.8339
G1 X149.651 Y211.891 E18.97057
G1 X147.094 Y211.987 E19.10673
G1 X144.611 Y212.153 E19.23917
G1 X142.047 Y212.395 E19.37622
G1 X139.531 Y212.706 E19.51113
G1 X137.025 Y213.087 E19.64602
G1 X134.536 Y213.539 E19.78064
G1 X132.018 Y214.069 E19.91758
G1 X129.567 Y214.659 E20.05174
G1 X127.144 Y215.315 E20.18532
G1 X124.675 Y216.057 E20.32252
G1 X122.304 Y216.845 E20.45548
G1 X119.762 Y217.789 E20.59978
G1 X118.869 Y218.108 E20.65024
G1 X118.006 Y218.373 E20.69829
G1 X117.123 Y218.562 E20.74634
G1 X116.592 Y218.637 E20.77488
G1 X115.706 Y218.729 E20.82228
G1 X114.804 Y218.767 E20.87033
G1 X113.902 Y218.725 E20.91838
G1 X113.316 Y218.654 E20.94979
G1 X112.789 Y218.575 E20.97815
G1 X112.308 Y218.492 E21.00413
G1 X111.43 Y218.284 E21.05214
G1 X110.573 Y217.999 E21.1002
G1 X110.133 Y217.819 E21.1255
G1 X109.602 Y217.587 E21.15634
G1 X109.136 Y217.369 E21.18372
G1 X108.344 Y216.936 E21.23175
G1 X107.293 Y216.205 E21.29988
G1 X106.974 Y215.952 E21.32155
G1 X106.521 Y215.575 E21.35291
G1 X105.86 Y214.96 E21.40096
G1 X105.493 Y214.566 E21.42961
G1 X105 Y214.008 E21.46924
G1 X104.045 Y212.899 E21.54712
G1 X102.317 Y211.004 E21.6836
G1 X100.584 Y209.208 E21.81641
G1 X100.26 Y208.89 E21.84057
G1 X99.354 Y207.978 E21.90898
G1 X99.355 Y207.977 E21.90906
G1 X98.947 Y207.545 E21.94068
G1 X98.487 Y207.024 E21.97767
G1 X97.459 Y205.834 E22.06135
G1 X95.717 Y203.928 E22.19876
G1 X93.95 Y202.099 E22.3341
G1 X93.566 Y201.722 E22.36273
G1 X92.818 Y200.97 E22.41918
G1 X92.425 Y200.552 E22.44971
G1 X91.978 Y200.047 E22.4856
G1 X90.942 Y198.844 E22.57009
G1 X89.208 Y196.943 E22.70702
G1 X87.478 Y195.151 E22.83957
G1 X87.082 Y194.762 E22.86911
G1 X86.289 Y193.964 E22.92898
G1 X85.681 Y193.296 E22.97704
G1 X85.331 Y192.85 E23.00721
G1 X85.024 Y192.436 E23.03464
G1 X84.713 Y191.995 E23.06336
G1 X84.588 Y191.807 E23.07537
G1 X83.916 Y190.775 E23.14091
G1 X82.49 Y188.653 E23.27696
G1 X80.997 Y186.558 E23.41387
G1 X79.484 Y184.558 E23.54732
G1 X77.875 Y182.551 E23.68421
G1 X76.237 Y180.624 E23.8188
G1 X74.544 Y178.743 E23.95348
G1 X72.781 Y176.889 E24.08963
G1 X71 Y175.121 E24.22317
G1 X69.115 Y173.353 E24.36071
G1 X67.249 Y171.701 E24.49333
G1 X65.288 Y170.059 E24.62944
G1 X63.269 Y168.465 E24.76633
G1 X61.262 Y166.969 E24.89954
G1 X59.186 Y165.514 E25.03445
G1 X57.049 Y164.101 E25.17079
G1 X54.912 Y162.776 E25.3046
G1 X52.694 Y161.484 E25.4412
G1 X50.457 Y160.265 E25.57677
G1 X48.221 Y159.128 E25.71026
G1 X45.908 Y158.033 E25.84645
G1 X43.562 Y157.002 E25.98282
G1 X41.194 Y156.033 E26.11897
G1 X40.575 Y155.764 E26.15489
G1 X40.072 Y155.531 E26.18439
G1 X39.276 Y155.104 E26.23246
G1 X38.868 Y154.848 E26.25809
G1 X38.274 Y154.455 E26.296
G1 X37.072 Y153.636 E26.3734
G1 X34.917 Y152.255 E26.50961
G1 X32.779 Y150.968 E26.64241
G1 X32.6 Y150.868 E26.65332
G1 X32.471 Y150.788 E26.6614
G1 X32.469 Y150.791 E26.66159
G1 X31.261 Y150.092 E26.73586
G1 X30.753 Y149.777 E26.76767
G1 X30.254 Y149.447 E26.79951
G1 X28.712 Y148.401 E26.89866
G1 X26.604 Y147.055 E27.03176
G1 X24.399 Y145.735 E27.16852
G1 X23.772 Y145.38 E27.20687
G1 X23.07 Y144.97 E27.25013
G1 X22.586 Y144.668 E27.28049
G1 X21.862 Y144.189 E27.32669
G1 X20.793 Y143.459 E27.39557
G1 X18.66 Y142.089 E27.53048
G1 X16.476 Y140.772 E27.6662
G1 X15.557 Y140.25 E27.72244
G1 X14.929 Y139.882 E27.76118
G1 X14.171 Y139.392 E27.80921
G1 X13.717 Y139.049 E27.83949
G1 X13.408 Y138.802 E27.86054
G1 X12.99 Y138.452 E27.88956
G1 X12.329 Y137.837 E27.9376
G1 X11.724 Y137.166 E27.98568
G1 X11.418 Y136.774 E28.01215
G1 X10.893 Y136.051 E28.05969
G1 X10.408 Y135.289 E28.10776
G1 X9.993 Y134.487 E28.15582
G1 X9.764 Y133.953 E28.18674
G1 X9.412 Y133.044 E28.23861
G1 X9.146 Y132.181 E28.28667
G1 X8.957 Y131.298 E28.33472
G1 X8.878 Y130.74 E28.36471
G1 X8.79 Y129.887 E28.41035
G1 X8.751 Y128.985 E28.45839
G1 X8.792 Y128.083 E28.50644
G1 X8.863 Y127.491 E28.53817
G1 X8.942 Y126.962 E28.56664
G1 X9.066 Y126.282 E28.60342
G1 X9.221 Y125.634 E28.63888
G1 X9.296 Y125.358 E28.6541
G1 X9.951 Y122.813 E28.79395
G1 X10.504 Y120.389 E28.92626
G1 X11.009 Y117.829 E29.06512
G1 X11.427 Y115.351 E29.19885
G1 X11.778 Y112.836 E29.33399
G1 X12.059 Y110.296 E29.46998
G1 X12.267 Y107.76 E29.60539
G1 X12.402 Y105.256 E29.73884
G1 X12.469 Y102.682 E29.87586
G1 X12.461 Y100.151 E30.01055
G1 X12.383 Y97.621 E30.14525
G1 X12.232 Y95.095 E30.27992
G1 X12.009 Y92.554 E30.41566
G1 X11.712 Y90.001 E30.55244
G1 X11.352 Y87.521 E30.6858
G1 X10.915 Y85.018 E30.82101
G1 X10.408 Y82.526 E30.95634
G1 X9.828 Y80.034 E31.0925
G1 X9.188 Y77.607 E31.22607
G1 X8.475 Y75.177 E31.36084
G1 X7.676 Y72.717 E31.49848
G1 X6.833 Y70.348 E31.6323
G1 X5.917 Y67.992 E31.76682
G1 X5.276 Y66.47 E31.8547
G1 X5.221 Y66.32 E31.8632
G1 X4.852 Y65.452 E31.9134
G1 X4.725 Y65.138 E31.93142
G1 X4.343 Y64.148 E31.98789
G1 X4.234 Y63.824 E32.00608
G1 X4.226 Y63.827 E32.00654
G1 X4.098 Y63.459 E32.02727
G1 X3.839 Y62.594 E32.07532
G1 X3.658 Y61.709 E32.1234
G1 X3.586 Y61.153 E32.15323
G1 X3.488 Y60.167 E32.20596
G1 X3.454 Y59.711 E32.23029
G1 X3.427 Y58.809 E32.27832
G1 X3.48 Y57.907 E32.3264
G1 X3.551 Y57.361 E32.3557
G1 X3.661 Y56.665 E32.3932
G1 X3.72 Y56.328 E32.41141
G1 X3.808 Y55.871 E32.43617
G1 X4.018 Y54.993 E32.48421
G1 X4.305 Y54.137 E32.53226
G1 X4.507 Y53.648 E32.56042
G1 X4.827 Y52.93 E32.60225
G1 X4.973 Y52.618 E32.62058
G1 X5.157 Y52.24 E32.64295
G1 X5.628 Y51.38 E32.69513
G1 X5.985 Y50.8 E32.73137
G1 X22.337 Y25.157 E34.34984
G1 X22.764 Y24.507 E34.39123
G1 X23.288 Y23.78 E34.43892
G1 X23.836 Y23.109 E34.48502
G1 X24.295 Y22.576 E34.52245
G1 X24.914 Y21.918 E34.57053
G1 X25.589 Y21.318 E34.61859
G1 X26.025 Y20.983 E34.64785
G1 X26.823 Y20.408 E34.70019
G1 X27.22 Y20.137 E34.72577
G1 X27.988 Y19.661 E34.77385
G1 X28.795 Y19.255 E34.82193
G1 X29.319 Y19.037 E34.85213
G1 X30.317 Y18.659 E34.90892
G1 X30.706 Y18.523 E34.93085
G1 X31.571 Y18.263 E34.97892
G1 X32.455 Y18.081 E35.02695
G1 X33.015 Y18.007 E35.05701
G1 X34.057 Y17.903 E35.11274
G1 X34.514 Y17.87 E35.13712
G1 X35.417 Y17.845 E35.18519
G1 X36.319 Y17.9 E35.23328
G1 X36.831 Y17.967 E35.26076
G0 F6000 X36.893 Y17.572
G1 F1200 X37.568 Y17.678 E35.29712
G1 X37.919 Y17.739 E35.31608
G1 X38.373 Y17.826 E35.34068
G1 X39.269 Y18.039 E35.38969
G1 X40.143 Y18.328 E35.43868
G1 X40.687 Y18.552 E35.46999
G1 X41.431 Y18.883 E35.51332
G1 X41.757 Y19.035 E35.53246
G1 X42.119 Y19.211 E35.55388
G1 X42.929 Y19.649 E35.60289
G1 X43.597 Y20.084 E35.64531
G1 X43.614 Y20.096 E35.64642
G1 X43.931 Y20.329 E35.66735
G1 X44.334 Y20.637 E35.69434
G1 X46.439 Y22.195 E35.83371
G1 X48.536 Y23.659 E35.96981
G1 X50.622 Y25.028 E36.10259
G1 X52.767 Y26.351 E36.2367
G1 X54.933 Y27.604 E36.36987
G1 X57.685 Y29.086 E36.5362
G1 X57.681 Y29.094 E36.53668
G1 X58.207 Y29.386 E36.5687
G1 X59.08 Y29.984 E36.62501
G1 X59.608 Y30.386 E36.66032
G1 X61.72 Y31.946 E36.80005
G1 X63.791 Y33.386 E36.93429
G1 X65.905 Y34.77 E37.06875
G1 X68.077 Y36.105 E37.20442
G1 X70.242 Y37.355 E37.33746
G1 X72.856 Y38.76 E37.49539
G1 X73.648 Y39.23 E37.5444
G1 X74.248 Y39.654 E37.5835
G1 X74.82 Y40.088 E37.62171
G1 X76.905 Y41.628 E37.75965
G1 X78.97 Y43.064 E37.8935
G1 X81.096 Y44.457 E38.02876
G1 X83.233 Y45.769 E38.1622
G1 X85.445 Y47.045 E38.2981
G1 X88.011 Y48.425 E38.45315
G1 X88.802 Y48.896 E38.50214
G1 X89.66 Y49.522 E38.55866
G1 X90.196 Y49.956 E38.59536
G1 X90.474 Y50.188 E38.61463
G1 X90.86 Y50.523 E38.64183
G1 X91.528 Y51.157 E38.69084
G1 X91.904 Y51.566 E38.7204
G1 X92.706 Y52.487 E38.78539
G1 X93.175 Y53.039 E38.82394
G1 X94.881 Y54.939 E38.95983
G1 X96.606 Y56.755 E39.09312
G1 X98.411 Y58.547 E39.22847
G1 X100.237 Y60.264 E39.36186
G1 X102.156 Y61.966 E39.49836
G1 X104.053 Y63.555 E39.63005
G1 X106.056 Y65.14 E39.76597
G1 X108.101 Y66.665 E39.90173
G1 X110.144 Y68.102 E40.03465
G1 X112.263 Y69.503 E40.16983
G1 X114.444 Y70.858 E40.30647
G1 X114.647 Y70.98 E40.31908
G1 X116.285 Y71.987 E40.4214
G1 X116.59 Y72.181 E40.44064
G1 X116.931 Y72.407 E40.46241
G1 X117.665 Y72.941 E40.51071
G1 X118.033 Y73.233 E40.53571
G1 X118.187 Y73.36 E40.54633
G1 X160.732 Y109.089 E43.50289
G1 X161.278 Y109.561 E43.5413
G1 X161.926 Y110.17 E43.58863
G1 X162.523 Y110.798 E43.63474
G1 X163.203 Y111.558 E43.68901
G1 X164.85 Y113.45 E43.8225
G1 X166.592 Y115.341 E43.95932
G1 X168.357 Y117.148 E44.09374
G1 X170.148 Y118.884 E44.22648
G1 X172.031 Y120.607 E44.3623
G1 X173.944 Y122.261 E44.49688
G1 X175.91 Y123.866 E44.63194
G1 X177.923 Y125.416 E44.76714
G1 X179.95 Y126.887 E44.90042
G1 X182.038 Y128.314 E45.03501
G1 X184.197 Y129.703 E45.17163
G1 X185.772 Y130.662 E45.26976
G1 X186.798 Y131.273 E45.3333
G1 X187.567 Y131.778 E45.38226
G1 X188.038 Y132.137 E45.41378
G1 X188.607 Y132.597 E45.45272
G1 X188.889 Y132.833 E45.47228
G1 X189.251 Y133.147 E45.49779
G1 X189.919 Y133.78 E45.54676
G1 X190.673 Y134.648 E45.60795
G1 X191.157 Y135.27 E45.64989
G1 X192.802 Y137.329 E45.79013
G1 X194.429 Y139.252 E45.92418
G1 X196.141 Y141.162 E46.06068
G1 X197.869 Y142.984 E46.19431
G1 X199.64 Y144.748 E46.32733
G1 X201.59 Y146.583 E46.46983
G1 X201.617 Y146.608 E46.47178
G1 X202.268 Y147.258 E46.52074
G1 X202.828 Y147.92 E46.56688
G1 X203.388 Y148.641 E46.61547
G1 X204.975 Y150.626 E46.75071
G1 X206.582 Y152.523 E46.88302
G1 X208.316 Y154.458 E47.02129
G1 X210.022 Y156.257 E47.15322
