;FLAVOR:Marlin
;TIME:2923
;Filament used: 2.60557m
;Layer height: 0.32
;MINX:16.859
;MINY:49.052
;MINZ:0.32
;MAXX:218.137
;MAXY:141.109
;MAXZ:1.92
;Generated with Cura_SteamEngine 4.6.0
M82 ;absolute extrusion mode
; Ender 3 Custom Start G-code JG 2020-05-30 13:46
G92 E0 ; Reset Extruder
M140 S60 ; Set Heat Bed temperature
M190 S60 ; Wait for Heat Bed temperature
G28 ; Home all axes
G29 ;
G1 Z2.0 F3000 ; Move Z Axis up little to prevent scratching of Heat Bed
M104 S200 ; Set Extruder temperature
G1 X0.1 Y20 Z0.3 F5000.0 ; Move to start position
M109 S200 ; Wait for Extruder temperature
G1 X0.1 Y200.0 Z0.3 F1500.0 E15 ; Draw the first line
G1 X0.4 Y200.0 Z0.3 F5000.0 ; Move to side a little
G1 X0.4 Y20 Z0.3 F1500.0 E30 ; Draw the second line
G92 E0 ; Reset Extruder
G1 Z2.0 F3000 ; Move Z Axis up little to prevent scratching of Heat Bed
G1 X5 Y20 Z0.3 F5000.0 ; Move over to prevent blob squish
G92 E0
G92 E0
G1 F2700 E-5
;LAYER_COUNT:6
;LAYER:0
M107
G0 F6000 X138.357 Y49.863 Z0.32
;TYPE:SKIRT
G1 F2700 E0
G1 F1200 X139.275 Y49.918 E0.04894
G1 X140.102 Y50.007 E0.0932
G1 X142.561 Y50.287 E0.22491
G1 X145.079 Y50.502 E0.35939
G1 X147.585 Y50.645 E0.49297
G1 X150.149 Y50.718 E0.62947
G1 X152.684 Y50.718 E0.76438
G1 X155.219 Y50.647 E0.89933
G1 X157.746 Y50.505 E1.03402
G1 X160.297 Y50.289 E1.17026
G1 X162.196 Y50.067 E1.27201
G1 X163.058 Y49.976 E1.31813
G1 X163.953 Y49.922 E1.36585
G1 X164.863 Y49.911 E1.41428
G1 X165.189 Y49.916 E1.43163
G1 X165.815 Y49.945 E1.46498
G1 X165.828 Y49.946 E1.46567
G1 X166.908 Y50.087 E1.52363
G1 X168.225 Y50.332 E1.59492
G1 X170.731 Y50.761 E1.73022
G1 X173.28 Y51.123 E1.86723
G1 X175.805 Y51.41 E2.00247
G1 X178.376 Y51.629 E2.13978
G1 X178.85 Y51.663 E2.16507
G1 X179.986 Y51.808 E2.22602
G1 X181.308 Y52.053 E2.29757
G1 X183.827 Y52.485 E2.43357
G1 X186.376 Y52.847 E2.57058
G1 X188.911 Y53.135 E2.70635
G1 X191.406 Y53.347 E2.83961
G1 X191.919 Y53.383 E2.86697
G1 X193.068 Y53.53 E2.92862
G1 X194.375 Y53.773 E2.99936
G1 X196.943 Y54.212 E3.13801
G1 X199.482 Y54.573 E3.27448
G1 X202.009 Y54.86 E3.40982
G1 X204.57 Y55.078 E3.5466
G1 X205.013 Y55.11 E3.57024
G1 X205.91 Y55.214 E3.61829
G1 X206.741 Y55.384 E3.66343
G1 X207.527 Y55.583 E3.70658
G1 X207.825 Y55.666 E3.72304
G1 X208.683 Y55.947 E3.77109
G1 X209.513 Y56.302 E3.81913
G1 X210.008 Y56.557 E3.84876
G1 X210.591 Y56.878 E3.88418
G1 X211.143 Y57.202 E3.91824
G1 X211.894 Y57.703 E3.96628
G1 X212.598 Y58.269 E4.01435
G1 X212.947 Y58.591 E4.03962
G1 X213.557 Y59.186 E4.08497
G1 X213.748 Y59.381 E4.09949
G1 X214.351 Y60.053 E4.14754
G1 X214.892 Y60.776 E4.1956
G1 X215.209 Y61.273 E4.22697
G1 X215.677 Y62.061 E4.27574
G1 X215.797 Y62.275 E4.2888
G1 X216.203 Y63.082 E4.33687
G1 X216.537 Y63.921 E4.38493
G1 X216.71 Y64.469 E4.41551
G1 X216.869 Y65.027 E4.44638
G1 X217.017 Y65.596 E4.47767
G1 X217.199 Y66.48 E4.5257
G1 X217.303 Y67.377 E4.57376
G1 X217.326 Y67.908 E4.60204
G1 X217.336 Y68.454 E4.6311
G1 X217.337 Y68.798 E4.64941
G1 X217.332 Y69.123 E4.6667
G1 X217.308 Y69.676 E4.69616
G1 X217.259 Y70.231 E4.72581
G1 X217.208 Y70.673 E4.74949
G1 X214.304 Y92.729 E5.93336
G1 X214.196 Y93.459 E5.97263
G1 X214.049 Y94.222 E6.01398
G1 X213.991 Y94.471 E6.02758
G1 X213.876 Y94.919 E6.0522
G1 X213.723 Y95.463 E6.08227
G1 X213.44 Y96.32 E6.1303
G1 X213.083 Y97.15 E6.17838
G1 X212.834 Y97.63 E6.20716
G1 X212.521 Y98.197 E6.24162
G1 X212.215 Y98.72 E6.27387
G1 X211.715 Y99.473 E6.32197
G1 X211.152 Y100.179 E6.37002
G1 X210.813 Y100.548 E6.39669
G1 X210.172 Y101.211 E6.44576
G1 X208.29 Y103.147 E6.58945
G1 X206.574 Y105.015 E6.72443
G1 X204.93 Y106.911 E6.85798
G1 X203.301 Y108.898 E6.99471
G1 X201.758 Y110.894 E7.12897
G1 X200.258 Y112.953 E7.26454
G1 X198.828 Y115.037 E7.39904
G1 X197.436 Y117.191 E7.53552
G1 X196.131 Y119.345 E7.66954
G1 X194.87 Y121.564 E7.80536
G1 X193.681 Y123.802 E7.94023
G1 X192.55 Y126.082 E8.07567
G1 X191.494 Y128.377 E8.21011
G1 X190.49 Y130.728 E8.34615
G1 X190.186 Y131.495 E8.39005
G1 X189.79 Y132.462 E8.44566
G1 X189.283 Y133.522 E8.50819
G1 X189.02 Y133.999 E8.53718
G1 X188.774 Y134.422 E8.56322
G1 X188.276 Y135.175 E8.61126
G1 X187.713 Y135.881 E8.65932
G1 X187.363 Y136.261 E8.68681
G1 X186.767 Y136.871 E8.73219
G1 X186.097 Y137.477 E8.78027
G1 X185.376 Y138.022 E8.82837
G1 X184.842 Y138.365 E8.86214
G1 X184.083 Y138.812 E8.90902
G1 X183.278 Y139.22 E8.95704
G1 X182.44 Y139.556 E9.00509
G1 X181.854 Y139.741 E9.03779
G1 X181.286 Y139.902 E9.06921
G1 X180.733 Y140.043 E9.09958
G1 X179.844 Y140.207 E9.14769
G1 X178.597 Y140.303 E9.21424
G1 X177.922 Y140.309 E9.25017
G1 X177.686 Y140.306 E9.26273
G1 X176.969 Y140.272 E9.30093
G1 X176.957 Y140.271 E9.30157
G1 X176.222 Y140.183 E9.34096
G1 X175.55 Y140.076 E9.37717
G1 X173.98 Y139.808 E9.46193
G1 X171.461 Y139.449 E9.59734
G1 X168.941 Y139.163 E9.7323
G1 X168.406 Y139.116 E9.76088
G1 X167.301 Y139.007 E9.81997
G1 X166.721 Y138.933 E9.85109
G1 X166.062 Y138.828 E9.8866
G1 X164.521 Y138.563 E9.96981
G1 X162.032 Y138.207 E10.10361
G1 X159.501 Y137.918 E10.23918
G1 X158.908 Y137.867 E10.27085
G1 X157.777 Y137.755 E10.33133
G1 X157.187 Y137.68 E10.36298
G1 X156.526 Y137.574 E10.39861
G1 X154.891 Y137.295 E10.48687
G1 X152.412 Y136.942 E10.62013
G1 X149.854 Y136.652 E10.75713
G1 X149.345 Y136.608 E10.78431
G1 X148.28 Y136.502 E10.84127
G1 X147.386 Y136.373 E10.88934
G1 X146.831 Y136.251 E10.91958
G1 X146.36 Y136.134 E10.9454
G1 X145.916 Y136.014 E10.96988
G1 X145.641 Y135.932 E10.98515
G1 X144.403 Y135.545 E11.05418
G1 X141.886 Y134.796 E11.19393
G1 X139.415 Y134.136 E11.33003
G1 X136.96 Y133.554 E11.4643
G1 X134.51 Y133.046 E11.59745
G1 X131.955 Y132.59 E11.73557
G1 X129.455 Y132.219 E11.87007
G1 X126.927 Y131.915 E12.00557
G1 X124.426 Y131.686 E12.13922
G1 X121.865 Y131.525 E12.27577
G1 X119.334 Y131.437 E12.41055
G1 X116.8 Y131.421 E12.5454
G1 X114.232 Y131.477 E12.68209
G1 X111.738 Y131.603 E12.81498
G1 X109.165 Y131.805 E12.95233
G1 X106.658 Y132.074 E13.08651
G1 X104.137 Y132.416 E13.22189
G1 X101.654 Y132.826 E13.35582
G1 X99.116 Y133.317 E13.49338
G1 X96.672 Y133.864 E13.62666
G1 X94.216 Y134.486 E13.76149
G1 X91.737 Y135.19 E13.89863
G1 X89.376 Y135.923 E14.03019
G1 X88.722 Y136.111 E14.0664
G1 X88.157 Y136.258 E14.09747
G1 X87.271 Y136.432 E14.14552
G1 X86.803 Y136.492 E14.17063
G1 X85.875 Y136.589 E14.22028
G1 X84.711 Y136.695 E14.28248
G1 X82.195 Y136.996 E14.41733
G1 X79.668 Y137.371 E14.55328
G1 X79.42 Y137.415 E14.56668
G1 X79.304 Y137.43 E14.57291
G1 X79.304 Y137.432 E14.57301
G1 X77.885 Y137.667 E14.64955
G1 X77.344 Y137.742 E14.67862
G1 X76.848 Y137.795 E14.70517
G1 X74.868 Y137.981 E14.811
G1 X72.343 Y138.291 E14.94638
G1 X69.814 Y138.675 E15.0825
G1 X69.284 Y138.768 E15.11114
G1 X68.102 Y138.958 E15.17485
G1 X67.781 Y138.998 E15.19206
G1 X67.044 Y139.075 E15.2315
G1 X65.549 Y139.211 E15.31138
G1 X63.039 Y139.512 E15.44591
G1 X60.525 Y139.887 E15.58118
G1 X59.557 Y140.057 E15.63348
G1 X58.83 Y140.174 E15.67267
G1 X57.933 Y140.278 E15.72072
G1 X57.359 Y140.303 E15.7513
G1 X56.441 Y140.306 E15.80015
G1 X55.54 Y140.254 E15.84818
G1 X54.646 Y140.122 E15.89627
G1 X54.135 Y140.01 E15.92411
G1 X53.75 Y139.915 E15.94521
G1 X53.236 Y139.776 E15.97355
G1 X52.379 Y139.492 E16.02159
G1 X51.55 Y139.133 E16.06967
G1 X51.095 Y138.898 E16.09692
G1 X50.564 Y138.606 E16.12917
G1 X50.119 Y138.346 E16.15659
G1 X50.085 Y138.325 E16.15872
G1 X49.338 Y137.817 E16.20679
G1 X48.359 Y136.984 E16.2752
G1 X47.75 Y136.388 E16.32055
G1 X47.144 Y135.718 E16.36862
G1 X46.599 Y134.998 E16.41668
G1 X46.249 Y134.453 E16.45115
G1 X45.991 Y134.022 E16.47788
G1 X45.535 Y133.171 E16.52926
G1 X45.383 Y132.852 E16.54806
G1 X45.127 Y132.267 E16.58204
G1 X44.292 Y130.189 E16.70122
G1 X43.25 Y127.796 E16.84011
G1 X42.186 Y125.527 E16.97348
G1 X41.047 Y123.268 E17.10811
G1 X39.823 Y121.004 E17.24507
G1 X38.569 Y118.832 E17.37854
G1 X37.224 Y116.647 E17.51508
G1 X35.854 Y114.558 E17.64802
G1 X34.38 Y112.441 E17.7853
G1 X32.877 Y110.409 E17.9198
G1 X31.33 Y108.436 E18.05322
G1 X29.666 Y106.435 E18.19172
G1 X28.019 Y104.561 E18.32449
G1 X26.262 Y102.675 E18.46166
G1 X24.262 Y100.632 E18.6138
G1 X23.66 Y99.96 E18.66181
G1 X23.119 Y99.236 E18.70991
G1 X22.809 Y98.753 E18.74045
G1 X22.381 Y98.032 E18.78507
G1 X22.241 Y97.784 E18.80023
G1 X21.832 Y96.979 E18.84828
G1 X21.496 Y96.141 E18.89633
G1 X21.314 Y95.568 E18.92832
G1 X21.134 Y94.937 E18.96324
G1 X20.997 Y94.412 E18.99211
G1 X20.817 Y93.543 E19.03934
G1 X20.712 Y92.856 E19.07632
G1 X20.707 Y92.821 E19.07821
G1 X17.824 Y70.904 E20.25459
G1 X17.73 Y70.101 E20.29762
G1 X17.728 Y70.083 E20.29858
G1 X17.671 Y69.261 E20.34243
G1 X17.659 Y68.722 E20.37112
G1 X17.668 Y67.99 E20.41008
G1 X17.721 Y67.089 E20.45811
G1 X17.853 Y66.195 E20.5062
G1 X17.972 Y65.66 E20.53537
G1 X18.175 Y64.862 E20.57919
G1 X18.257 Y64.567 E20.59548
G1 X18.537 Y63.709 E20.64351
G1 X18.961 Y62.737 E20.69994
G1 X18.967 Y62.725 E20.70066
G1 X19.126 Y62.419 E20.71901
G1 X19.29 Y62.117 E20.73729
G1 X19.497 Y61.755 E20.75949
G1 X19.752 Y61.328 E20.78595
G1 X20.249 Y60.574 E20.83401
G1 X20.81 Y59.867 E20.88204
G1 X21.173 Y59.471 E20.91063
G1 X21.768 Y58.86 E20.95601
G1 X21.966 Y58.666 E20.97077
G1 X22.639 Y58.063 E21.01885
G1 X23.362 Y57.522 E21.06691
G1 X23.857 Y57.206 E21.09816
G1 X24.558 Y56.789 E21.14156
G1 X24.809 Y56.647 E21.15691
G1 X25.613 Y56.238 E21.20492
G1 X26.451 Y55.901 E21.25298
G1 X27.042 Y55.714 E21.28597
G1 X27.714 Y55.523 E21.32315
G1 X28.273 Y55.379 E21.35387
G1 X29.022 Y55.225 E21.39456
G1 X29.034 Y55.223 E21.39521
G1 X29.95 Y55.112 E21.44431
G1 X30.868 Y55.043 E21.4933
G1 X33.458 Y54.813 E21.63167
G1 X35.993 Y54.514 E21.76751
G1 X38.478 Y54.15 E21.90116
G1 X41.136 Y53.681 E22.0448
G1 X41.825 Y53.549 E22.08213
G1 X42.367 Y53.461 E22.11135
G1 X43.031 Y53.388 E22.1469
G1 X44.113 Y53.305 E22.20465
G1 X46.722 Y53.068 E22.34406
G1 X49.231 Y52.769 E22.47853
G1 X51.757 Y52.394 E22.61442
G1 X54.327 Y51.939 E22.75332
G1 X54.947 Y51.82 E22.78691
G1 X55.742 Y51.7 E22.8297
G1 X55.76 Y51.698 E22.83066
G1 X56.103 Y51.666 E22.84899
G1 X57.255 Y51.577 E22.91048
G1 X59.795 Y51.347 E23.0462
G1 X62.359 Y51.04 E23.18362
G1 X64.842 Y50.673 E23.3172
G1 X67.461 Y50.208 E23.45875
G1 X68.016 Y50.102 E23.48882
G1 X68.91 Y49.972 E23.53689
G1 X69.75 Y49.922 E23.58167
G1 X70.3 Y49.912 E23.61095
G1 X70.641 Y49.911 E23.62909
G1 X70.967 Y49.916 E23.64645
G1 X71.714 Y49.955 E23.68625
G1 X72.01 Y49.985 E23.70208
G1 X74.664 Y50.287 E23.84423
G1 X77.188 Y50.502 E23.97904
G1 X79.749 Y50.647 E24.11554
G1 X82.283 Y50.719 E24.25045
G1 X84.816 Y50.719 E24.38524
G1 X87.35 Y50.647 E24.52015
G1 X89.89 Y50.503 E24.65553
G1 X92.438 Y50.287 E24.79161
G1 X94.219 Y50.085 E24.887
G1 X94.264 Y50.082 E24.8894
G1 X95.619 Y49.928 E24.96197
G1 X96.457 Y49.868 E25.00668
G1 X97.128 Y49.852 E25.0424
G1 X137.659 Y49.853 E27.19931
G1 X138.357 Y49.863 E27.23645
G0 F6000 X138.363 Y49.463
G1 F1200 X139.317 Y49.52 E27.28731
G1 X140.198 Y49.616 E27.33447
G1 X142.569 Y49.886 E27.46147
G1 X145.102 Y50.102 E27.59675
G1 X147.617 Y50.245 E27.73081
G1 X150.161 Y50.318 E27.86624
G1 X152.673 Y50.318 E27.99992
G1 X155.22 Y50.247 E28.13552
G1 X157.725 Y50.106 E28.26904
G1 X160.219 Y49.894 E28.40224
G1 X162.154 Y49.67 E28.5059
G1 X163.016 Y49.579 E28.55202
G1 X163.946 Y49.522 E28.60161
G1 X164.87 Y49.511 E28.65078
G1 X165.196 Y49.516 E28.66813
G1 X165.846 Y49.546 E28.70276
G1 X165.859 Y49.547 E28.70345
G1 X166.981 Y49.694 E28.76367
G1 X168.23 Y49.926 E28.83128
G1 X170.817 Y50.369 E28.97095
G1 X173.344 Y50.729 E29.10679
G1 X175.813 Y51.009 E29.23902
G1 X178.436 Y51.232 E29.37911
G1 X178.879 Y51.264 E29.40275
G1 X180.059 Y51.415 E29.46605
G1 X181.312 Y51.648 E29.53388
G1 X183.913 Y52.093 E29.6743
G1 X186.44 Y52.453 E29.81014
G1 X188.919 Y52.734 E29.94291
G1 X191.469 Y52.95 E30.07909
G1 X191.947 Y52.984 E30.10459
G1 X193.141 Y53.137 E30.16865
G1 X194.438 Y53.378 E30.23886
G1 X197.001 Y53.817 E30.37724
G1 X199.547 Y54.179 E30.51409
G1 X202.016 Y54.459 E30.64632
G1 X204.635 Y54.682 E30.7862
G1 X205.041 Y54.711 E30.80786
G1 X205.956 Y54.816 E30.85687
G1 X206.838 Y54.996 E30.90478
G1 X207.634 Y55.198 E30.94848
G1 X207.932 Y55.281 E30.96494
G1 X208.807 Y55.566 E31.01391
G1 X209.655 Y55.926 E31.06294
G1 X210.201 Y56.206 E31.09559
G1 X210.784 Y56.527 E31.13101
G1 X211.35 Y56.86 E31.16596
G1 X212.116 Y57.37 E31.21493
G1 X212.835 Y57.945 E31.26392
G1 X213.225 Y58.303 E31.29209
G1 X213.843 Y58.906 E31.33804
G1 X214.034 Y59.101 E31.35257
G1 X214.649 Y59.786 E31.40156
G1 X215.202 Y60.522 E31.45055
G1 X215.552 Y61.067 E31.48502
G1 X216.026 Y61.866 E31.53446
G1 X216.146 Y62.08 E31.54751
G1 X216.561 Y62.901 E31.59647
G1 X216.903 Y63.756 E31.64547
G1 X217.094 Y64.359 E31.67913
G1 X217.336 Y65.225 E31.72698
G1 X217.405 Y65.498 E31.74197
G1 X217.591 Y66.399 E31.79093
G1 X217.699 Y67.313 E31.83991
G1 X217.726 Y67.901 E31.87123
G1 X217.736 Y68.447 E31.90029
G1 X217.737 Y68.804 E31.91929
G1 X217.732 Y69.129 E31.93659
G1 X217.707 Y69.704 E31.96721
G1 X217.657 Y70.27 E31.99745
G1 X217.604 Y70.725 E32.02183
G1 X214.7 Y92.787 E33.20601
G1 X214.594 Y93.507 E33.24474
G1 X214.592 Y93.52 E33.24544
G1 X214.439 Y94.313 E33.28842
G1 X214.381 Y94.562 E33.30203
G1 X214.261 Y95.027 E33.32758
G1 X214.108 Y95.571 E33.35765
G1 X213.821 Y96.446 E33.40666
G1 X213.458 Y97.292 E33.45565
G1 X213.184 Y97.824 E33.4875
G1 X212.871 Y98.391 E33.52196
G1 X212.557 Y98.926 E33.55497
G1 X212.049 Y99.694 E33.60398
G1 X211.477 Y100.415 E33.65295
G1 X211.101 Y100.826 E33.6826
G1 X208.588 Y103.414 E33.87456
G1 X206.889 Y105.263 E34.00819
G1 X205.208 Y107.202 E34.14476
G1 X203.624 Y109.133 E34.27767
G1 X202.081 Y111.129 E34.41193
G1 X200.584 Y113.186 E34.54731
G1 X199.161 Y115.258 E34.68108
G1 X197.781 Y117.395 E34.81645
G1 X196.469 Y119.56 E34.95117
G1 X195.213 Y121.769 E35.0864
G1 X194.034 Y123.988 E35.22012
G1 X192.929 Y126.217 E35.35251
G1 X191.861 Y128.536 E35.48838
G1 X190.859 Y130.883 E35.62418
G1 X190.556 Y131.647 E35.66792
G1 X190.16 Y132.614 E35.72353
G1 X189.634 Y133.715 E35.78846
G1 X189.371 Y134.192 E35.81745
G1 X189.117 Y134.628 E35.8443
G1 X188.61 Y135.396 E35.89327
G1 X188.038 Y136.117 E35.94225
G1 X187.651 Y136.539 E35.97272
G1 X187.048 Y137.156 E36.01863
G1 X186.366 Y137.774 E36.06761
G1 X185.633 Y138.331 E36.1166
G1 X185.048 Y138.708 E36.15364
G1 X184.28 Y139.16 E36.20106
G1 X183.459 Y139.577 E36.25006
G1 X182.605 Y139.922 E36.29908
G1 X181.963 Y140.126 E36.33493
G1 X181.395 Y140.287 E36.36635
G1 X180.823 Y140.433 E36.39776
G1 X179.917 Y140.6 E36.44679
G1 X178.603 Y140.703 E36.51693
G1 X177.917 Y140.709 E36.55344
G1 X177.681 Y140.706 E36.566
G1 X176.936 Y140.67 E36.60569
G1 X176.924 Y140.669 E36.60633
G1 X176.16 Y140.578 E36.64727
G1 X175.483 Y140.47 E36.68376
G1 X173.928 Y140.204 E36.76771
G1 X171.396 Y139.843 E36.90382
G1 X168.898 Y139.56 E37.0376
G1 X168.366 Y139.514 E37.06602
G1 X167.261 Y139.405 E37.12511
G1 X166.659 Y139.328 E37.1574
G1 X165.994 Y139.222 E37.19324
G1 X164.467 Y138.959 E37.2757
G1 X162.001 Y138.607 E37.40826
G1 X159.455 Y138.316 E37.54463
G1 X158.868 Y138.265 E37.57598
G1 X157.737 Y138.153 E37.63647
G1 X157.125 Y138.075 E37.6693
G1 X156.459 Y137.968 E37.70519
G1 X154.879 Y137.698 E37.79049
G1 X152.307 Y137.332 E37.92875
G1 X149.847 Y137.053 E38.0605
G1 X149.305 Y137.006 E38.08945
G1 X148.24 Y136.9 E38.1464
G1 X147.329 Y136.769 E38.19538
G1 X146.735 Y136.639 E38.22774
G1 X145.807 Y136.399 E38.27875
G1 X145.522 Y136.314 E38.29458
G1 X144.253 Y135.917 E38.36534
G1 X141.774 Y135.18 E38.50297
G1 X139.333 Y134.528 E38.63742
G1 X136.884 Y133.948 E38.77135
G1 X134.436 Y133.439 E38.90441
G1 X131.891 Y132.986 E39.04198
G1 X129.385 Y132.613 E39.1768
G1 X126.91 Y132.316 E39.30946
G1 X124.366 Y132.083 E39.44541
G1 X121.862 Y131.925 E39.57893
G1 X119.318 Y131.837 E39.71439
G1 X116.771 Y131.821 E39.84993
G1 X114.296 Y131.875 E39.98168
G1 X111.718 Y132.005 E40.11904
G1 X109.238 Y132.2 E40.25142
G1 X106.687 Y132.473 E40.38795
G1 X104.219 Y132.808 E40.5205
G1 X101.689 Y133.225 E40.65695
G1 X99.241 Y133.7 E40.78965
G1 X96.76 Y134.254 E40.92493
G1 X94.276 Y134.884 E41.06131
G1 X91.85 Y135.573 E41.19552
G1 X89.486 Y136.307 E41.32724
G1 X88.832 Y136.495 E41.36346
