; G-Code generated by Simplify3D(R) Version 4.1.2
; Jun 6, 2020 at 5:27:53 PM
; Settings Summary
;   processName,Process1
;   applyToModels,230x230x1
;   profileName,Creality Ender 3 Pro (modified)
;   profileVersion,2019-04-06 08:00:00
;   baseProfile,
;   printMaterial,PLA
;   printQuality,Medium
;   printExtruders,
;   extruderName,Primary Extruder
;   extruderToolheadNumber,0
;   extruderDiameter,0.4
;   extruderAutoWidth,0
;   extruderWidth,0.4
;   extrusionMultiplier,0.9
;   extruderUseRetract,1
;   extruderRetractionDistance,4
;   extruderExtraRestartDistance,0
;   extruderRetractionZLift,0
;   extruderRetractionSpeed,2400
;   extruderUseCoasting,0
;   extruderCoastingDistance,0.2
;   extruderUseWipe,0
;   extruderWipeDistance,5
;   primaryExtruder,0
;   layerHeight,0.2
;   topSolidLayers,3
;   bottomSolidLayers,3
;   perimeterOutlines,2
;   printPerimetersInsideOut,0
;   startPointOption,2
;   startPointOriginX,0
;   startPointOriginY,0
;   sequentialIslands,0
;   spiralVaseMode,0
;   firstLayerHeightPercentage,100
;   firstLayerWidthPercentage,100
;   firstLayerUnderspeed,0.75
;   useRaft,0
;   raftExtruder,0
;   raftTopLayers,3
;   raftBaseLayers,2
;   raftOffset,3
;   raftSeparationDistance,0.14
;   raftTopInfill,100
;   aboveRaftSpeedMultiplier,0.3
;   useSkirt,1
;   skirtExtruder,0
;   skirtLayers,1
;   skirtOutlines,2
;   skirtOffset,4
;   usePrimePillar,0
;   primePillarExtruder,999
;   primePillarWidth,12
;   primePillarLocation,7
;   primePillarSpeedMultiplier,1
;   useOozeShield,0
;   oozeShieldExtruder,999
;   oozeShieldOffset,2
;   oozeShieldOutlines,1
;   oozeShieldSidewallShape,1
;   oozeShieldSidewallAngle,30
;   oozeShieldSpeedMultiplier,1
;   infillExtruder,0
;   internalInfillPattern,Rectilinear
;   externalInfillPattern,Rectilinear
;   infillPercentage,20
;   outlineOverlapPercentage,15
;   infillExtrusionWidthPercentage,100
;   minInfillLength,5
;   infillLayerInterval,1
;   internalInfillAngles,45,-45
;   overlapInternalInfillAngles,0
;   externalInfillAngles,45,-45
;   generateSupport,1
;   supportExtruder,0
;   supportInfillPercentage,30
;   supportExtraInflation,0
;   supportBaseLayers,0
;   denseSupportExtruder,0
;   denseSupportLayers,0
;   denseSupportInfillPercentage,70
;   supportLayerInterval,1
;   supportHorizontalPartOffset,0.3
;   supportUpperSeparationLayers,1
;   supportLowerSeparationLayers,1
;   supportType,0
;   supportGridSpacing,4
;   maxOverhangAngle,45
;   supportAngles,0
;   temperatureName,Primary Extruder,Heated Bed
;   temperatureNumber,0,0
;   temperatureSetpointCount,1,1
;   temperatureSetpointLayers,1,1
;   temperatureSetpointTemperatures,200,60
;   temperatureStabilizeAtStartup,1,1
;   temperatureHeatedBed,0,1
;   fanLayers,1,2
;   fanSpeeds,0,100
;   blipFanToFullPower,0
;   adjustSpeedForCooling,1
;   minSpeedLayerTime,15
;   minCoolingSpeedSlowdown,20
;   increaseFanForCooling,0
;   minFanLayerTime,45
;   maxCoolingFanSpeed,100
;   increaseFanForBridging,0
;   bridgingFanSpeed,100
;   use5D,1
;   relativeEdistances,0
;   allowEaxisZeroing,1
;   independentExtruderAxes,0
;   includeM10123,0
;   stickySupport,1
;   applyToolheadOffsets,0
;   gcodeXoffset,0
;   gcodeYoffset,0
;   gcodeZoffset,0
;   overrideMachineDefinition,1
;   machineTypeOverride,0
;   strokeXoverride,220
;   strokeYoverride,220
;   strokeZoverride,250
;   originOffsetXoverride,-5
;   originOffsetYoverride,-5
;   originOffsetZoverride,0
;   homeXdirOverride,-1
;   homeYdirOverride,-1
;   homeZdirOverride,-1
;   flipXoverride,1
;   flipYoverride,-1
;   flipZoverride,1
;   toolheadOffsets,0,0|0,0|0,0|0,0|0,0|0,0
;   overrideFirmwareConfiguration,1
;   firmwareTypeOverride,RepRap (Marlin/Repetier/Sprinter)
;   GPXconfigOverride,r2
;   baudRateOverride,115200
;   overridePrinterModels,1
;   printerModelsOverride
;   startingGcode,M140 S[bed0_temperature];,M190 S[bed0_temperature];,G28 ; home all axes,G29 ;,G1 Z2.0 F3000 ; Move Z Axis up little to prevent scratching of Heat Bed,M104 S[extruder0_temperature] ; Set Extruder temperature,G1 X0.1 Y20 Z0.3 F5000.0 ; Move to start position,M109 S[extruder0_temperature] ; Wait for Extruder temperature,G1 X5 Y10 Z0.2 F3000 ; get ready to prime,G92 E0 ; reset extrusion distance,G1 X160 E15 F600 ; prime nozzle,G1 X180 F5000 ; quick wipe
;   layerChangeGcode,
;   retractionGcode,
;   toolChangeGcode,
;   endingGcode,G28 X0 ; home X axis,M106 S0 ; turn off cooling fan,M104 S0 ; turn off extruder,M140 S0 ; turn off bed,M84 ; disable motors
;   exportFileFormat,gcode
;   celebration,0
;   celebrationSong,Random Song
;   postProcessing,
;   defaultSpeed,2400
;   outlineUnderspeed,0.5
;   solidInfillUnderspeed,0.8
;   supportUnderspeed,0.8
;   rapidXYspeed,4800
;   rapidZspeed,1000
;   minBridgingArea,50
;   bridgingExtraInflation,0
;   bridgingExtrusionMultiplier,1
;   bridgingSpeedMultiplier,1
;   useFixedBridgingAngle,0
;   fixedBridgingAngle,0
;   applyBridgingToPerimeters,0
;   filamentDiameters,1.75|1.75|1.75|1.75|1.75|1.75
;   filamentPricesPerKg,46|46|46|46|46|46
;   filamentDensities,1.25|1.25|1.25|1.25|1.25|1.25
;   useMinPrintHeight,0
;   minPrintHeight,0
;   useMaxPrintHeight,1
;   maxPrintHeight,0.2
;   useDiaphragm,0
;   diaphragmLayerInterval,20
;   robustSlicing,1
;   mergeAllIntoSolid,0
;   onlyRetractWhenCrossingOutline,1
;   retractBetweenLayers,1
;   useRetractionMinTravel,0
;   retractionMinTravel,3
;   retractWhileWiping,0
;   onlyWipeOutlines,1
;   avoidCrossingOutline,0
;   maxMovementDetourFactor,3
;   toolChangeRetractionDistance,12
;   toolChangeExtraRestartDistance,-0.5
;   toolChangeRetractionSpeed,600
;   externalThinWallType,0
;   internalThinWallType,2
;   thinWallAllowedOverlapPercentage,10
;   singleExtrusionMinLength,1
;   singleExtrusionMinPrintingWidthPercentage,50
;   singleExtrusionMaxPrintingWidthPercentage,200
;   singleExtrusionEndpointExtension,0.2
;   horizontalSizeCompensation,0
G90
M82
M106 S0
M140 S60;
M190 S60;
G28 ; home all axes
G29 ;
G1 Z2.0 F3000 ; Move Z Axis up little to prevent scratching of Heat Bed
M104 S200 ; Set Extruder temperature
G1 X0.1 Y20 Z0.3 F5000.0 ; Move to start position
M109 S200 ; Wait for Extruder temperature
G1 X5 Y10 Z0.2 F3000 ; get ready to prime
G92 E0 ; reset extrusion distance
G1 X160 E15 F600 ; prime nozzle
G1 X180 F5000 ; quick wipe
; process Process1
; layer 1, Z = 0.200
T0
G92 E0.0000
G1 E-4.0000 F2400
; feature skirt
; tool H0.200 W0.400
G1 Z0.200 F1000
G1 X10.396 Y13.091 F4800
G1 E0.0000 F2400
G92 E0.0000
G1 X13.091 Y10.396 E0.1141 F1800
G1 X216.909 Y10.396 E6.2152
G1 X219.604 Y13.091 E6.3293
G1 X219.604 Y216.909 E12.4304
G1 X216.909 Y219.604 E12.5445
G1 X13.091 Y219.604 E18.6456
G1 X10.396 Y216.909 E18.7597
G1 X10.396 Y13.091 E24.8608
G92 E0.0000
G1 E-4.0000 F2400
G1 X10.796 Y13.256 F4800
G1 E0.0000 F2400
G92 E0.0000
G1 X13.256 Y10.796 E0.1042 F1800
G1 X216.744 Y10.796 E6.1954
G1 X219.204 Y13.256 E6.2995
G1 X219.204 Y216.744 E12.3907
G1 X216.744 Y219.204 E12.4949
G1 X13.256 Y219.204 E18.5861
G1 X10.796 Y216.744 E18.6903
G1 X10.796 Y13.256 E24.7815
G92 E0.0000
G1 E-4.0000 F2400
; feature outer perimeter
G1 X15.196 Y15.196 F4800
G1 E0.0000 F2400
G92 E0.0000
G1 X214.804 Y15.196 E5.9751 F900
G1 X214.804 Y214.804 E11.9502
G1 X15.196 Y214.804 E17.9253
G1 X15.196 Y15.196 E23.9004
; feature inner perimeter
G1 X15.596 Y15.596 F4800
G92 E0.0000
G1 X214.404 Y15.596 E5.9511 F1350
G1 X214.404 Y214.404 E11.9023
G1 X15.596 Y214.404 E17.8534
G1 X15.596 Y15.596 E23.8046
; feature solid layer
G1 X213.926 Y15.936 F4800
G92 E0.0000
G1 X214.064 Y16.074 E0.0058 F1440
G1 X214.064 Y16.640 E0.0228
G1 X213.360 Y15.936 E0.0526
G1 X212.795 Y15.936 E0.0695
G1 X214.064 Y17.205 E0.1232
G1 X214.064 Y17.771 E0.1402
G1 X212.229 Y15.936 E0.2179
G1 X211.663 Y15.936 E0.2348
G1 X214.064 Y18.337 E0.3364
G1 X214.064 Y18.903 E0.3534
G1 X211.097 Y15.936 E0.4790
G1 X210.532 Y15.936 E0.4959
G1 X214.064 Y19.468 E0.6454
G1 X214.064 Y20.034 E0.6623
G1 X209.966 Y15.936 E0.8358
G1 X209.400 Y15.936 E0.8528
G1 X214.064 Y20.600 E1.0502
G1 X214.064 Y21.165 E1.0671
G1 X208.835 Y15.936 E1.2885
G1 X208.269 Y15.936 E1.3054
G1 X214.064 Y21.731 E1.5507
G1 X214.064 Y22.297 E1.5677
G1 X207.703 Y15.936 E1.8369
G1 X207.138 Y15.936 E1.8539
G1 X214.064 Y22.862 E2.1471
G1 X214.064 Y23.428 E2.1640
G1 X206.572 Y15.936 E2.4812
G1 X206.006 Y15.936 E2.4981
G1 X214.064 Y23.994 E2.8392
G1 X214.064 Y24.559 E2.8562
G1 X205.441 Y15.936 E3.2212
G1 X204.875 Y15.936 E3.2381
G1 X214.064 Y25.125 E3.6271
G1 X214.064 Y25.691 E3.6441
G1 X204.309 Y15.936 E4.0570
G1 X203.744 Y15.936 E4.0740
G1 X214.064 Y26.256 E4.5109
G1 X214.064 Y26.822 E4.5278
G1 X203.178 Y15.936 E4.9886
G1 X202.612 Y15.936 E5.0056
G1 X214.064 Y27.388 E5.4904
G1 X214.064 Y27.953 E5.5073
G1 X202.047 Y15.936 E6.0160
G1 X201.481 Y15.936 E6.0330
G1 X214.064 Y28.519 E6.5657
G1 X214.064 Y29.085 E6.5826
G1 X200.915 Y15.936 E7.1392
G1 X200.349 Y15.936 E7.1562
G1 X214.064 Y29.651 E7.7367
G1 X214.064 Y30.216 E7.7537
G1 X199.784 Y15.936 E8.3582
G1 X199.218 Y15.936 E8.3751
G1 X214.064 Y30.782 E9.0036
G1 X214.064 Y31.348 E9.0205
G1 X198.652 Y15.936 E9.6730
G1 X198.087 Y15.936 E9.6899
G1 X214.064 Y31.913 E10.3663
G1 X214.064 Y32.479 E10.3832
G1 X197.521 Y15.936 E11.0835
G1 X196.955 Y15.936 E11.1004
G1 X214.064 Y33.045 E11.8247
G1 X214.064 Y33.610 E11.8416
G1 X196.390 Y15.936 E12.5899
G1 X195.824 Y15.936 E12.6068
G1 X214.064 Y34.176 E13.3789
G1 X214.064 Y34.742 E13.3959
G1 X195.258 Y15.936 E14.1920
G1 X194.693 Y15.936 E14.2089
G1 X214.064 Y35.307 E15.0290
G1 X214.064 Y35.873 E15.0459
G1 X194.127 Y15.936 E15.8899
G1 X193.561 Y15.936 E15.9068
G1 X214.064 Y36.439 E16.7748
G1 X214.064 Y37.004 E16.7917
G1 X192.996 Y15.936 E17.6836
G1 X192.430 Y15.936 E17.7006
G1 X214.064 Y37.570 E18.6164
G1 X214.064 Y38.136 E18.6333
G1 X191.864 Y15.936 E19.5731
G1 X191.298 Y15.936 E19.5901
G1 X214.064 Y38.701 E20.5538
G1 X214.064 Y39.267 E20.5707
G1 X190.733 Y15.936 E21.5584
G1 X190.167 Y15.936 E21.5753
G1 X214.064 Y39.833 E22.5870
G1 X214.064 Y40.399 E22.6039
G1 X189.601 Y15.936 E23.6395
G1 X189.036 Y15.936 E23.6564
G1 X214.064 Y40.964 E24.7159
G1 X214.064 Y41.530 E24.7329
G1 X188.470 Y15.936 E25.8164
G1 X187.904 Y15.936 E25.8333
G1 X214.064 Y42.096 E26.9407
G1 X214.064 Y42.661 E26.9576
G1 X187.339 Y15.936 E28.0890
G1 X186.773 Y15.936 E28.1059
G1 X214.064 Y43.227 E29.2613
G1 X214.064 Y43.793 E29.2782
G1 X186.207 Y15.936 E30.4575
G1 X185.642 Y15.936 E30.4744
G1 X214.064 Y44.358 E31.6776
G1 X214.064 Y44.924 E31.6945
G1 X185.076 Y15.936 E32.9217
G1 X184.510 Y15.936 E32.9386
G1 X214.064 Y45.490 E34.1897
G1 X214.064 Y46.055 E34.2067
G1 X183.945 Y15.936 E35.4817
G1 X183.379 Y15.936 E35.4987
G1 X214.064 Y46.621 E36.7977
G1 X214.064 Y47.187 E36.8146
G1 X182.813 Y15.936 E38.1375
G1 X182.248 Y15.936 E38.1545
G1 X214.064 Y47.752 E39.5014
G1 X214.064 Y48.318 E39.5183
G1 X181.682 Y15.936 E40.8891
G1 X181.116 Y15.936 E40.9061
G1 X214.064 Y48.884 E42.3009
G1 X214.064 Y49.450 E42.3178
G1 X180.550 Y15.936 E43.7365
G1 X179.985 Y15.936 E43.7535
G1 X214.064 Y50.015 E45.1961
G1 X214.064 Y50.581 E45.2131
G1 X179.419 Y15.936 E46.6797
G1 X178.853 Y15.936 E46.6966
G1 X214.064 Y51.147 E48.1872
G1 X214.064 Y51.712 E48.2042
G1 X178.288 Y15.936 E49.7187
G1 X177.722 Y15.936 E49.7356
G1 X214.064 Y52.278 E51.2741
G1 X214.064 Y52.844 E51.2910
G1 X177.156 Y15.936 E52.8534
G1 X176.591 Y15.936 E52.8704
G1 X214.064 Y53.409 E54.4567
G1 X214.064 Y53.975 E54.4737
G1 X176.025 Y15.936 E56.0840
G1 X175.459 Y15.936 E56.1009
G1 X214.064 Y54.541 E57.7352
G1 X214.064 Y55.106 E57.7521
G1 X174.894 Y15.936 E59.4103
G1 X174.328 Y15.936 E59.4273
G1 X214.064 Y55.672 E61.1094
G1 X214.064 Y56.238 E61.1263
G1 X173.762 Y15.936 E62.8325
G1 X173.197 Y15.936 E62.8494
G1 X214.064 Y56.803 E64.5794
G1 X214.064 Y57.369 E64.5964
G1 X172.631 Y15.936 E66.3504
G1 X172.065 Y15.936 E66.3673
G1 X214.064 Y57.935 E68.1452
G1 X214.064 Y58.500 E68.1622
G1 X171.499 Y15.936 E69.9641
G1 X170.934 Y15.936 E69.9810
G1 X214.064 Y59.066 E71.8068
G1 X214.064 Y59.632 E71.8238
G1 X170.368 Y15.936 E73.6736
G1 X169.802 Y15.936 E73.6905
G1 X214.064 Y60.198 E75.5642
G1 X214.064 Y60.763 E75.5812
G1 X169.237 Y15.936 E77.4789
G1 X168.671 Y15.936 E77.4958
G1 X214.064 Y61.329 E79.4174
G1 X214.064 Y61.895 E79.4343
G1 X168.105 Y15.936 E81.3799
G1 X167.540 Y15.936 E81.3969
G1 X214.064 Y62.460 E83.3664
G1 X214.064 Y63.026 E83.3833
G1 X166.974 Y15.936 E85.3768
G1 X166.408 Y15.936 E85.3937
G1 X214.064 Y63.592 E87.4111
G1 X214.064 Y64.157 E87.4281
G1 X165.843 Y15.936 E89.4694
G1 X165.277 Y15.936 E89.4864
G1 X214.064 Y64.723 E91.5517
G1 X214.064 Y65.289 E91.5686
G1 X164.711 Y15.936 E93.6579
G1 X164.146 Y15.936 E93.6748
G1 X214.064 Y65.854 E95.7880
G1 X214.064 Y66.420 E95.8050
G1 X163.580 Y15.936 E97.9421
G1 X163.014 Y15.936 E97.9590
G1 X214.064 Y66.986 E100.1201
G1 X214.064 Y67.551 E100.1371
G1 X162.449 Y15.936 E102.3221
G1 X161.883 Y15.936 E102.3391
G1 X214.064 Y68.117 E104.5481
G1 X214.064 Y68.683 E104.5650
G1 X161.317 Y15.936 E106.7979
G1 X160.751 Y15.936 E106.8149
G1 X214.064 Y69.249 E109.0718
G1 X214.064 Y69.814 E109.0887
G1 X160.186 Y15.936 E111.3695
G1 X159.620 Y15.936 E111.3865
G1 X214.064 Y70.380 E113.6913
G1 X214.064 Y70.946 E113.7082
G1 X159.054 Y15.936 E116.0369
G1 X158.489 Y15.936 E116.0539
G1 X214.064 Y71.511 E118.4065
G1 X214.064 Y72.077 E118.4235
G1 X157.923 Y15.936 E120.8001
G1 X157.357 Y15.936 E120.8170
G1 X214.064 Y72.643 E123.2176
G1 X214.064 Y73.208 E123.2345
G1 X156.792 Y15.936 E125.6591
G1 X156.226 Y15.936 E125.6760
G1 X214.064 Y73.774 E128.1245
G1 X214.064 Y74.340 E128.1414
G1 X155.660 Y15.936 E130.6138
G1 X155.095 Y15.936 E130.6307
G1 X214.064 Y74.905 E133.1271
G1 X214.064 Y75.471 E133.1440
G1 X154.529 Y15.936 E135.6644
G1 X153.963 Y15.936 E135.6813
G1 X214.064 Y76.037 E138.2255
G1 X214.064 Y76.602 E138.2425
G1 X153.398 Y15.936 E140.8107
G1 X152.832 Y15.936 E140.8276
G1 X214.064 Y77.168 E143.4198
G1 X214.064 Y77.734 E143.4367
G1 X152.266 Y15.936 E146.0528
G1 X151.701 Y15.936 E146.0697
G1 X214.064 Y78.299 E148.7098
G1 X214.064 Y78.865 E148.7267
G1 X151.135 Y15.936 E151.3907
G1 X150.569 Y15.936 E151.4077
G1 X214.064 Y79.431 E154.0956
G1 X214.064 Y79.997 E154.1125
G1 X150.003 Y15.936 E156.8244
G1 X149.438 Y15.936 E156.8414
G1 X214.064 Y80.562 E159.5772
G1 X214.064 Y81.128 E159.5941
G1 X148.872 Y15.936 E162.3539
G1 X148.306 Y15.936 E162.3708
G1 X214.064 Y81.694 E165.1546
G1 X214.064 Y82.259 E165.1715
G1 X147.741 Y15.936 E167.9792
G1 X147.175 Y15.936 E167.9961
G1 X214.064 Y82.825 E170.8277
G1 X214.064 Y83.391 E170.8447
G1 X146.609 Y15.936 E173.7003
G1 X146.044 Y15.936 E173.7172
G1 X214.064 Y83.956 E176.5967
G1 X214.064 Y84.522 E176.6136
G1 X145.478 Y15.936 E179.5171
G1 X144.912 Y15.936 E179.5340
G1 X214.064 Y85.088 E182.4615
G1 X214.064 Y85.653 E182.4784
G1 X144.347 Y15.936 E185.4298
G1 X143.781 Y15.936 E185.4467
G1 X214.064 Y86.219 E188.4220
G1 X214.064 Y86.785 E188.4389
G1 X143.215 Y15.936 E191.4382
G1 X142.650 Y15.936 E191.4551
G1 X214.064 Y87.350 E194.4783
G1 X214.064 Y87.916 E194.4953
G1 X142.084 Y15.936 E197.5424
G1 X141.518 Y15.936 E197.5594
G1 X214.064 Y88.482 E200.6305
G1 X214.064 Y89.047 E200.6474
G1 X140.952 Y15.936 E203.7424
G1 X140.387 Y15.936 E203.7594
G1 X214.064 Y89.613 E206.8784
G1 X214.064 Y90.179 E206.8953
G1 X139.821 Y15.936 E210.0382
G1 X139.255 Y15.936 E210.0552
G1 X214.064 Y90.745 E213.2221
G1 X214.064 Y91.310 E213.2390
G1 X138.690 Y15.936 E216.4298
G1 X138.124 Y15.936 E216.4468
G1 X214.064 Y91.876 E219.6615
G1 X214.064 Y92.442 E219.6785
G1 X137.558 Y15.936 E222.9172
G1 X136.993 Y15.936 E222.9341
G1 X214.064 Y93.007 E226.1968
G1 X214.064 Y93.573 E226.2138
G1 X136.427 Y15.936 E229.5004
G1 X135.861 Y15.936 E229.5173
G1 X214.064 Y94.139 E232.8279
G1 X214.064 Y94.704 E232.8448
G1 X135.296 Y15.936 E236.1793
G1 X134.730 Y15.936 E236.1963
G1 X214.064 Y95.270 E239.5547
G1 X214.064 Y95.836 E239.5717
G1 X134.164 Y15.936 E242.9541
G1 X133.599 Y15.936 E242.9710
G1 X214.064 Y96.401 E246.3774
G1 X214.064 Y96.967 E246.3943
G1 X133.033 Y15.936 E249.8246
G1 X132.467 Y15.936 E249.8416
G1 X214.064 Y97.533 E253.2958
G1 X214.064 Y98.098 E253.3127
G1 X131.902 Y15.936 E256.7910
