; G-Code generated by Simplify3D(R) Version 4.1.2
; Apr 4, 2020 at 2:46:37 PM
; Settings Summary
;   processName,All but Knob
;   applyToModels,Ender-3_Extruder_PTFE_Cable_Clip_1.8mm_Leo_N,Ender_3_Cable_Clip_Mirrored,Extruder_Insert_Leo_N,CableClip1,CableClip1(2),filament_guide_-_updated
;   profileName,Creality Ender 3 Pro
;   profileVersion,2019-04-06 08:00:00
;   baseProfile,
;   printMaterial,PLA
;   printQuality,Medium
;   printExtruders,
;   extruderName,Primary Extruder
;   extruderToolheadNumber,0
;   extruderDiameter,0.4
;   extruderAutoWidth,0
;   extruderWidth,0.4
;   extrusionMultiplier,0.9
;   extruderUseRetract,1
;   extruderRetractionDistance,4
;   extruderExtraRestartDistance,0
;   extruderRetractionZLift,0
;   extruderRetractionSpeed,2400
;   extruderUseCoasting,0
;   extruderCoastingDistance,0.2
;   extruderUseWipe,0
;   extruderWipeDistance,5
;   primaryExtruder,0
;   layerHeight,0.2
;   topSolidLayers,3
;   bottomSolidLayers,3
;   perimeterOutlines,2
;   printPerimetersInsideOut,1
;   startPointOption,2
;   startPointOriginX,0
;   startPointOriginY,0
;   sequentialIslands,0
;   spiralVaseMode,0
;   firstLayerHeightPercentage,120
;   firstLayerWidthPercentage,150
;   firstLayerUnderspeed,0.5
;   useRaft,0
;   raftExtruder,0
;   raftTopLayers,3
;   raftBaseLayers,2
;   raftOffset,3
;   raftSeparationDistance,0.14
;   raftTopInfill,100
;   aboveRaftSpeedMultiplier,0.3
;   useSkirt,1
;   skirtExtruder,0
;   skirtLayers,1
;   skirtOutlines,2
;   skirtOffset,4
;   usePrimePillar,0
;   primePillarExtruder,999
;   primePillarWidth,12
;   primePillarLocation,7
;   primePillarSpeedMultiplier,1
;   useOozeShield,0
;   oozeShieldExtruder,999
;   oozeShieldOffset,2
;   oozeShieldOutlines,1
;   oozeShieldSidewallShape,1
;   oozeShieldSidewallAngle,30
;   oozeShieldSpeedMultiplier,1
;   infillExtruder,0
;   internalInfillPattern,Rectilinear
;   externalInfillPattern,Rectilinear
;   infillPercentage,20
;   outlineOverlapPercentage,15
;   infillExtrusionWidthPercentage,100
;   minInfillLength,5
;   infillLayerInterval,1
;   internalInfillAngles,45,-45
;   overlapInternalInfillAngles,0
;   externalInfillAngles,45,-45
;   generateSupport,0
;   supportExtruder,0
;   supportInfillPercentage,30
;   supportExtraInflation,0
;   supportBaseLayers,0
;   denseSupportExtruder,0
;   denseSupportLayers,0
;   denseSupportInfillPercentage,70
;   supportLayerInterval,1
;   supportHorizontalPartOffset,0.3
;   supportUpperSeparationLayers,1
;   supportLowerSeparationLayers,1
;   supportType,0
;   supportGridSpacing,4
;   maxOverhangAngle,45
;   supportAngles,0
;   temperatureName,Primary Extruder,Heated Bed
;   temperatureNumber,0,0
;   temperatureSetpointCount,1,1
;   temperatureSetpointLayers,1,1
;   temperatureSetpointTemperatures,210,60
;   temperatureStabilizeAtStartup,1,1
;   temperatureHeatedBed,0,1
;   fanLayers,1,2
;   fanSpeeds,0,100
;   blipFanToFullPower,0
;   adjustSpeedForCooling,1
;   minSpeedLayerTime,15
;   minCoolingSpeedSlowdown,20
;   increaseFanForCooling,0
;   minFanLayerTime,45
;   maxCoolingFanSpeed,100
;   increaseFanForBridging,0
;   bridgingFanSpeed,100
;   use5D,1
;   relativeEdistances,0
;   allowEaxisZeroing,1
;   independentExtruderAxes,0
;   includeM10123,0
;   stickySupport,1
;   applyToolheadOffsets,0
;   gcodeXoffset,0
;   gcodeYoffset,0
;   gcodeZoffset,0
;   overrideMachineDefinition,1
;   machineTypeOverride,0
;   strokeXoverride,220
;   strokeYoverride,220
;   strokeZoverride,250
;   originOffsetXoverride,-5
;   originOffsetYoverride,-5
;   originOffsetZoverride,0
;   homeXdirOverride,-1
;   homeYdirOverride,-1
;   homeZdirOverride,-1
;   flipXoverride,1
;   flipYoverride,-1
;   flipZoverride,1
;   toolheadOffsets,0,0|0,0|0,0|0,0|0,0|0,0
;   overrideFirmwareConfiguration,1
;   firmwareTypeOverride,RepRap (Marlin/Repetier/Sprinter)
;   GPXconfigOverride,r2
;   baudRateOverride,115200
;   overridePrinterModels,1
;   printerModelsOverride
;   startingGcode,G28 ; home all axes,G1 X5 Y10 Z0.2 F3000 ; get ready to prime,G92 E0 ; reset extrusion distance,G1 X160 E15 F600 ; prime nozzle,G1 X180 F5000 ; quick wipe
;   layerChangeGcode,
;   retractionGcode,
;   toolChangeGcode,
;   endingGcode,G28 X0 ; home X axis,M106 S0 ; turn off cooling fan,M104 S0 ; turn off extruder,M140 S0 ; turn off bed,M84 ; disable motors
;   exportFileFormat,gcode
;   celebration,0
;   celebrationSong,Random Song
;   postProcessing,
;   defaultSpeed,2400
;   outlineUnderspeed,0.5
;   solidInfillUnderspeed,0.8
;   supportUnderspeed,0.8
;   rapidXYspeed,4800
;   rapidZspeed,1000
;   minBridgingArea,50
;   bridgingExtraInflation,0
;   bridgingExtrusionMultiplier,1
;   bridgingSpeedMultiplier,1
;   useFixedBridgingAngle,0
;   fixedBridgingAngle,0
;   applyBridgingToPerimeters,0
;   filamentDiameters,1.75|1.75|1.75|1.75|1.75|1.75
;   filamentPricesPerKg,46|46|46|46|46|46
;   filamentDensities,1.25|1.25|1.25|1.25|1.25|1.25
;   useMinPrintHeight,0
;   minPrintHeight,0
;   useMaxPrintHeight,0
;   maxPrintHeight,0
;   useDiaphragm,0
;   diaphragmLayerInterval,20
;   robustSlicing,1
;   mergeAllIntoSolid,0
;   onlyRetractWhenCrossingOutline,1
;   retractBetweenLayers,1
;   useRetractionMinTravel,0
;   retractionMinTravel,3
;   retractWhileWiping,0
;   onlyWipeOutlines,1
;   avoidCrossingOutline,0
;   maxMovementDetourFactor,3
;   toolChangeRetractionDistance,12
;   toolChangeExtraRestartDistance,-0.5
;   toolChangeRetractionSpeed,600
;   externalThinWallType,0
;   internalThinWallType,2
;   thinWallAllowedOverlapPercentage,10
;   singleExtrusionMinLength,1
;   singleExtrusionMinPrintingWidthPercentage,50
;   singleExtrusionMaxPrintingWidthPercentage,200
;   singleExtrusionEndpointExtension,0.2
;   horizontalSizeCompensation,0
G90
M82
M106 S0
M140 S60
M190 S60
M104 S210 T0
M109 S210 T0
G28 ; home all axes
G1 X5 Y10 Z0.2 F3000 ; get ready to prime
G92 E0 ; reset extrusion distance
G1 X160 E15 F600 ; prime nozzle
G1 X180 F5000 ; quick wipe
; process All but Knob
; layer 1, Z = 0.240
T0
G92 E0.0000
G1 E-4.0000 F2400
; feature skirt
; tool H0.240 W0.600
G1 Z0.240 F1000
G1 X68.921 Y71.629 F4800
G1 E0.0000 F2400
G92 E0.0000
G1 X107.980 Y71.629 E2.1046 F1200
G1 X110.850 Y74.500 E2.3233
G1 X110.850 Y117.161 E4.6219
G1 X110.900 Y117.135 E4.6250
G1 X111.535 Y116.895 E4.6615
G1 X112.057 Y116.760 E4.6905
G1 X112.894 Y116.640 E4.7361
G1 X113.433 Y116.623 E4.7652
G1 X114.109 Y116.676 E4.8017
G1 X114.624 Y116.772 E4.8299
G1 X115.489 Y117.031 E4.8786
G1 X116.123 Y117.324 E4.9162
G1 X116.955 Y117.863 E4.9696
G1 X117.481 Y118.322 E5.0072
G1 X118.127 Y119.073 E5.0607
G1 X118.256 Y119.274 E5.0735
G1 X120.900 Y116.629 E5.2750
G1 X136.199 Y116.629 E6.0993
G1 X139.070 Y119.500 E6.3181
G1 X139.070 Y133.559 E7.0756
G1 X136.199 Y136.429 E7.2943
G1 X120.900 Y136.429 E8.1187
G1 X119.250 Y134.779 E8.2444
G1 X119.250 Y137.659 E8.3996
G1 X119.244 Y137.831 E8.4089
G1 X119.186 Y138.646 E8.4529
G1 X119.155 Y138.902 E8.4668
G1 X119.058 Y139.450 E8.4968
G1 X119.000 Y139.698 E8.5105
G1 X118.755 Y140.554 E8.5585
G1 X118.639 Y140.874 E8.5768
G1 X118.274 Y141.695 E8.6252
G1 X118.157 Y141.924 E8.6391
G1 X117.879 Y142.407 E8.6691
G1 X117.739 Y142.623 E8.6830
G1 X117.070 Y143.545 E8.7444
G1 X116.488 Y144.117 E8.7883
G1 X115.556 Y144.770 E8.8497
G1 X114.564 Y145.181 E8.9075
G1 X113.485 Y145.371 E8.9665
G1 X112.628 Y145.371 E9.0127
G1 X111.655 Y145.199 E9.0659
G1 X110.849 Y144.906 E9.1121
G1 X110.050 Y144.444 E9.1619
G1 X109.250 Y144.906 E9.2116
G1 X108.444 Y145.199 E9.2578
G1 X107.472 Y145.371 E9.3111
G1 X106.615 Y145.371 E9.3572
G1 X105.642 Y145.199 E9.4105
G1 X104.950 Y144.947 E9.4501
G1 X104.950 Y145.562 E9.4833
G1 X102.079 Y148.432 E9.7020
G1 X88.270 Y148.432 E10.4460
G1 X85.400 Y145.562 E10.6647
G1 X85.400 Y139.674 E10.9820
G1 X85.390 Y139.492 E10.9918
G1 X85.386 Y139.473 E10.9928
G1 X85.327 Y139.345 E11.0004
G1 X85.241 Y139.249 E11.0074
G1 X85.234 Y139.244 E11.0078
G1 X85.089 Y139.196 E11.0161
G1 X84.937 Y139.209 E11.0243
G1 X84.916 Y139.217 E11.0255
G1 X84.893 Y139.229 E11.0269
G1 X84.767 Y139.341 E11.0360
G1 X84.754 Y139.361 E11.0373
G1 X84.745 Y139.378 E11.0383
G1 X84.706 Y139.566 E11.0487
G1 X84.700 Y139.674 E11.0545
G1 X84.700 Y145.559 E11.3716
G1 X83.436 Y146.823 E11.4679
G1 X83.573 Y147.268 E11.4930
G1 X83.639 Y147.535 E11.5078
G1 X83.737 Y148.054 E11.5362
G1 X83.764 Y148.235 E11.5461
G1 X83.824 Y148.760 E11.5746
G1 X83.839 Y149.034 E11.5894
G1 X83.839 Y149.953 E11.6389
G1 X83.812 Y150.319 E11.6587
G1 X83.675 Y151.227 E11.7082
G1 X83.619 Y151.496 E11.7230
G1 X83.470 Y152.051 E11.7539
G1 X83.384 Y152.312 E11.7687
G1 X83.048 Y153.167 E11.8182
G1 X82.889 Y153.497 E11.8380
G1 X82.407 Y154.333 E11.8899
G1 X82.200 Y154.636 E11.9097
G1 X81.628 Y155.354 E11.9592
G1 X81.444 Y155.559 E11.9740
G1 X81.038 Y155.965 E12.0050
G1 X80.834 Y156.148 E12.0198
G1 X80.151 Y156.692 E12.0668
G1 X79.927 Y156.852 E12.0816
G1 X79.441 Y157.157 E12.1126
G1 X79.200 Y157.290 E12.1274
G1 X78.414 Y157.669 E12.1744
G1 X78.160 Y157.774 E12.1892
G1 X77.661 Y157.948 E12.2177
G1 X77.486 Y158.002 E12.2275
G1 X76.976 Y158.139 E12.2560
G1 X76.707 Y158.195 E12.2708
G1 X75.798 Y158.332 E12.3203
G1 X75.433 Y158.360 E12.3401
G1 X74.468 Y158.360 E12.3920
G1 X74.102 Y158.332 E12.4118
G1 X73.194 Y158.195 E12.4613
G1 X72.925 Y158.139 E12.4761
G1 X72.370 Y157.991 E12.5070
G1 X72.109 Y157.905 E12.5219
G1 X71.296 Y157.586 E12.5689
G1 X71.047 Y157.471 E12.5837
G1 X70.539 Y157.203 E12.6146
G1 X70.304 Y157.061 E12.6295
G1 X69.545 Y156.543 E12.6790
G1 X69.258 Y156.315 E12.6987
G1 X68.551 Y155.659 E12.7507
G1 X68.302 Y155.390 E12.7704
G1 X67.700 Y154.636 E12.8224
G1 X67.493 Y154.333 E12.8422
G1 X67.034 Y153.537 E12.8917
G1 X66.910 Y153.292 E12.9065
G1 X66.681 Y152.765 E12.9374
G1 X66.585 Y152.508 E12.9522
G1 X66.328 Y151.674 E12.9993
G1 X66.261 Y151.407 E13.0141
G1 X66.155 Y150.843 E13.0450
G1 X66.119 Y150.570 E13.0598
G1 X66.050 Y149.654 E13.1093
G1 X66.050 Y149.287 E13.1291
G1 X66.119 Y148.371 E13.1786
G1 X66.155 Y148.099 E13.1934
G1 X66.261 Y147.535 E13.2243
G1 X66.328 Y147.268 E13.2391
G1 X66.585 Y146.434 E13.2862
G1 X66.677 Y146.186 E13.3004
G1 X66.050 Y145.559 E13.3482
G1 X66.050 Y132.878 E14.0314
G1 X67.428 Y130.562 E14.1766
G1 X92.050 Y117.197 E15.6862
G1 X92.050 Y99.429 E16.6435
G1 X76.921 Y99.429 E17.4587
G1 X76.450 Y98.959 E17.4946
G1 X75.980 Y99.429 E17.5304
G1 X68.921 Y99.429 E17.9108
G1 X66.050 Y96.559 E18.1295
G1 X66.050 Y74.500 E19.3181
G1 X68.921 Y71.629 E19.5368
G92 E0.0000
G1 E-4.0000 F2400
G1 X69.169 Y72.229 F4800
G1 E0.0000 F2400
G92 E0.0000
G1 X107.731 Y72.229 E2.0778 F1200
G1 X110.250 Y74.748 E2.2697
G1 X110.250 Y118.206 E4.6113
G1 X110.733 Y117.892 E4.6423
G1 X111.143 Y117.685 E4.6670
G1 X111.716 Y117.468 E4.7001
G1 X112.174 Y117.350 E4.7256
G1 X112.947 Y117.239 E4.7676
G1 X113.420 Y117.224 E4.7931
G1 X114.031 Y117.271 E4.8261
G1 X114.482 Y117.356 E4.8509
G1 X115.276 Y117.593 E4.8955
G1 X115.832 Y117.850 E4.9285
G1 X116.592 Y118.343 E4.9773
G1 X117.054 Y118.746 E5.0104
G1 X117.645 Y119.433 E5.0592
G1 X117.975 Y119.949 E5.0922
G1 X118.350 Y120.773 E5.1410
G1 X118.521 Y121.361 E5.1740
G1 X118.628 Y122.106 E5.2145
G1 X118.630 Y122.130 E5.2158
G1 X118.630 Y119.748 E5.3441
G1 X121.149 Y117.229 E5.5361
G1 X135.951 Y117.229 E6.3337
G1 X138.470 Y119.748 E6.5256
G1 X138.470 Y133.310 E7.2563
G1 X135.951 Y135.829 E7.4483
G1 X121.149 Y135.829 E8.2458
G1 X118.650 Y133.330 E8.4363
G1 X118.650 Y137.648 E8.6689
G1 X118.644 Y137.799 E8.6771
G1 X118.589 Y138.589 E8.7197
G1 X118.561 Y138.813 E8.7319
G1 X118.470 Y139.330 E8.7602
G1 X118.419 Y139.548 E8.7722
G1 X118.184 Y140.369 E8.8182
G1 X118.082 Y140.649 E8.8343
G1 X117.732 Y141.437 E8.8808
G1 X117.630 Y141.638 E8.8929
G1 X117.367 Y142.094 E8.9213
G1 X117.244 Y142.283 E8.9334
G1 X116.614 Y143.152 E8.9913
G1 X116.103 Y143.654 E9.0298
G1 X115.265 Y144.241 E9.0849
G1 X114.395 Y144.601 E9.1357
G1 X113.433 Y144.771 E9.1884
G1 X112.680 Y144.771 E9.2289
G1 X111.811 Y144.618 E9.2764
G1 X111.104 Y144.360 E9.3170
G1 X110.339 Y143.919 E9.3646
G1 X110.050 Y143.676 E9.3849
G1 X109.760 Y143.919 E9.4053
G1 X108.996 Y144.360 E9.4529
G1 X108.289 Y144.618 E9.4934
G1 X107.419 Y144.771 E9.5410
G1 X106.667 Y144.771 E9.5815
G1 X105.798 Y144.618 E9.6291
G1 X105.090 Y144.360 E9.6696
G1 X104.350 Y143.932 E9.7157
G1 X104.350 Y145.313 E9.7901
G1 X101.831 Y147.832 E9.9821
G1 X88.519 Y147.832 E10.6993
G1 X86.000 Y145.313 E10.8913
G1 X86.000 Y139.657 E11.1961
G1 X85.986 Y139.422 E11.2087
G1 X85.967 Y139.312 E11.2147
G1 X85.956 Y139.276 E11.2167
G1 X85.834 Y139.012 E11.2324
G1 X85.654 Y138.810 E11.2470
G1 X85.610 Y138.773 E11.2501
G1 X85.521 Y138.715 E11.2558
G1 X85.477 Y138.693 E11.2585
G1 X85.212 Y138.605 E11.2735
G1 X85.156 Y138.595 E11.2766
G1 X85.109 Y138.592 E11.2791
G1 X84.829 Y138.617 E11.2943
G1 X84.781 Y138.628 E11.2970
G1 X84.678 Y138.665 E11.3028
G1 X84.579 Y138.715 E11.3088
G1 X84.536 Y138.743 E11.3116
G1 X84.328 Y138.928 E11.3266
G1 X84.292 Y138.971 E11.3296
G1 X84.233 Y139.061 E11.3354
G1 X84.183 Y139.160 E11.3413
G1 X84.171 Y139.196 E11.3434
G1 X84.110 Y139.488 E11.3595
G1 X84.100 Y139.656 E11.3686
G1 X84.100 Y145.311 E11.6732
G1 X82.756 Y146.655 E11.7757
G1 X82.994 Y147.429 E11.8193
G1 X83.053 Y147.663 E11.8323
G1 X83.146 Y148.154 E11.8592
G1 X83.169 Y148.313 E11.8679
G1 X83.225 Y148.810 E11.8949
G1 X83.239 Y149.051 E11.9079
G1 X83.239 Y149.931 E11.9552
G1 X83.215 Y150.251 E11.9726
G1 X83.084 Y151.121 E12.0200
G1 X83.035 Y151.357 E12.0330
G1 X82.895 Y151.879 E12.0621
G1 X82.819 Y152.108 E12.0751
G1 X82.498 Y152.927 E12.1225
G1 X82.358 Y153.217 E12.1398
G1 X81.899 Y154.013 E12.1894
G1 X81.717 Y154.279 E12.2067
G1 X81.169 Y154.967 E12.2541
G1 X81.008 Y155.147 E12.2671
G1 X80.626 Y155.529 E12.2962
G1 X80.446 Y155.690 E12.3092
G1 X79.790 Y156.213 E12.3544
G1 X79.593 Y156.353 E12.3674
G1 X79.136 Y156.640 E12.3965
G1 X78.925 Y156.757 E12.4095
G1 X78.169 Y157.121 E12.4547
G1 X77.946 Y157.213 E12.4677
G1 X77.474 Y157.378 E12.4947
G1 X77.320 Y157.426 E12.5034
G1 X76.837 Y157.555 E12.5303
G1 X76.601 Y157.604 E12.5433
G1 X75.731 Y157.736 E12.5907
G1 X75.410 Y157.760 E12.6080
G1 X74.490 Y157.760 E12.6576
G1 X74.169 Y157.736 E12.6749
G1 X73.300 Y157.604 E12.7223
G1 X73.064 Y157.555 E12.7353
G1 X72.542 Y157.415 E12.7644
G1 X72.312 Y157.340 E12.7774
G1 X71.531 Y157.033 E12.8227
G1 X71.312 Y156.933 E12.8356
G1 X70.834 Y156.680 E12.8648
G1 X70.628 Y156.556 E12.8778
G1 X69.901 Y156.060 E12.9251
G1 X69.649 Y155.860 E12.9425
G1 X68.975 Y155.234 E12.9920
G1 X68.757 Y154.998 E13.0094
G1 X68.183 Y154.279 E13.0589
G1 X68.002 Y154.013 E13.0763
G1 X67.562 Y153.252 E13.1237
G1 X67.453 Y153.036 E13.1367
G1 X67.237 Y152.541 E13.1658
G1 X67.153 Y152.315 E13.1788
G1 X66.906 Y151.513 E13.2240
G1 X66.848 Y151.279 E13.2370
G1 X66.747 Y150.748 E13.2661
G1 X66.716 Y150.509 E13.2791
G1 X66.650 Y149.632 E13.3265
G1 X66.650 Y149.310 E13.3438
G1 X66.716 Y148.433 E13.3912
G1 X66.747 Y148.194 E13.4042
G1 X66.848 Y147.663 E13.4333
G1 X66.906 Y147.428 E13.4463
G1 X67.153 Y146.627 E13.4915
G1 X67.237 Y146.401 E13.5045
G1 X67.390 Y146.050 E13.5251
G1 X66.650 Y145.311 E13.5815
G1 X66.650 Y133.043 E14.2425
G1 X67.860 Y131.011 E14.3699
G1 X92.650 Y117.554 E15.8898
G1 X92.650 Y98.829 E16.8987
G1 X77.169 Y98.829 E17.7328
G1 X76.450 Y98.110 E17.7876
G1 X75.731 Y98.829 E17.8424
G1 X69.169 Y98.829 E18.1960
G1 X66.650 Y96.310 E18.3879
G1 X66.650 Y74.748 E19.5497
G1 X69.169 Y72.229 E19.7416
G92 E0.0000
G1 E-4.0000 F2400
G1 X140.030 Y119.500 F4800
G1 E0.0000 F2400
G92 E0.0000
G1 X142.900 Y116.629 E0.2187 F1200
G1 X158.199 Y116.629 E1.0431
G1 X161.070 Y119.500 E1.2618
G1 X161.070 Y133.559 E2.0193
G1 X158.199 Y136.429 E2.2380
G1 X142.900 Y136.429 E3.0624
G1 X140.030 Y133.559 E3.2811
G1 X140.030 Y119.500 E4.0386
G92 E0.0000
G1 E-4.0000 F2400
G1 X140.630 Y119.748 F4800
G1 E0.0000 F2400
G92 E0.0000
G1 X143.149 Y117.229 E0.1919 F1200
G1 X157.951 Y117.229 E0.9895
G1 X160.470 Y119.748 E1.1814
G1 X160.470 Y133.310 E1.9122
G1 X157.951 Y135.829 E2.1041
G1 X143.149 Y135.829 E2.9017
G1 X140.630 Y133.310 E3.0936
G1 X140.630 Y119.748 E3.8244
G92 E0.0000
G1 E-4.0000 F2400
; feature inner perimeter
G1 X105.050 Y115.629 F4800
