; G-Code generated by Simplify3D(R) Version 4.1.2
; Apr 14, 2020 at 10:40:37 PM
; Settings Summary
;   processName,Process1
;   applyToModels,pan-holder
;   profileName,Creality Ender 3 Pro (modified)
;   profileVersion,2020-04-11 07:39:05
;   baseProfile,
;   printMaterial,PLA
;   printQuality,Medium
;   printExtruders,
;   extruderName,Primary Extruder
;   extruderToolheadNumber,0
;   extruderDiameter,0.4
;   extruderAutoWidth,0
;   extruderWidth,0.4
;   extrusionMultiplier,0.9
;   extruderUseRetract,1
;   extruderRetractionDistance,6
;   extruderExtraRestartDistance,0
;   extruderRetractionZLift,0
;   extruderRetractionSpeed,1500
;   extruderUseCoasting,0
;   extruderCoastingDistance,0.2
;   extruderUseWipe,0
;   extruderWipeDistance,5
;   primaryExtruder,0
;   layerHeight,0.2
;   topSolidLayers,3
;   bottomSolidLayers,3
;   perimeterOutlines,2
;   printPerimetersInsideOut,1
;   startPointOption,2
;   startPointOriginX,0
;   startPointOriginY,0
;   sequentialIslands,0
;   spiralVaseMode,0
;   firstLayerHeightPercentage,120
;   firstLayerWidthPercentage,150
;   firstLayerUnderspeed,0.5
;   useRaft,0
;   raftExtruder,0
;   raftTopLayers,3
;   raftBaseLayers,2
;   raftOffset,3
;   raftSeparationDistance,0.14
;   raftTopInfill,100
;   aboveRaftSpeedMultiplier,0.3
;   useSkirt,1
;   skirtExtruder,0
;   skirtLayers,1
;   skirtOutlines,2
;   skirtOffset,4
;   usePrimePillar,0
;   primePillarExtruder,999
;   primePillarWidth,12
;   primePillarLocation,7
;   primePillarSpeedMultiplier,1
;   useOozeShield,0
;   oozeShieldExtruder,999
;   oozeShieldOffset,2
;   oozeShieldOutlines,1
;   oozeShieldSidewallShape,1
;   oozeShieldSidewallAngle,30
;   oozeShieldSpeedMultiplier,1
;   infillExtruder,0
;   internalInfillPattern,Rectilinear
;   externalInfillPattern,Rectilinear
;   infillPercentage,20
;   outlineOverlapPercentage,15
;   infillExtrusionWidthPercentage,100
;   minInfillLength,5
;   infillLayerInterval,1
;   internalInfillAngles,45,-45
;   overlapInternalInfillAngles,0
;   externalInfillAngles,45,-45
;   generateSupport,0
;   supportExtruder,0
;   supportInfillPercentage,30
;   supportExtraInflation,0
;   supportBaseLayers,0
;   denseSupportExtruder,0
;   denseSupportLayers,0
;   denseSupportInfillPercentage,70
;   supportLayerInterval,1
;   supportHorizontalPartOffset,0.3
;   supportUpperSeparationLayers,1
;   supportLowerSeparationLayers,1
;   supportType,0
;   supportGridSpacing,4
;   maxOverhangAngle,45
;   supportAngles,0
;   temperatureName,Primary Extruder,Heated Bed
;   temperatureNumber,0,0
;   temperatureSetpointCount,1,1
;   temperatureSetpointLayers,1,1
;   temperatureSetpointTemperatures,200,60
;   temperatureStabilizeAtStartup,1,1
;   temperatureHeatedBed,0,1
;   fanLayers,1,2
;   fanSpeeds,0,100
;   blipFanToFullPower,0
;   adjustSpeedForCooling,1
;   minSpeedLayerTime,15
;   minCoolingSpeedSlowdown,20
;   increaseFanForCooling,0
;   minFanLayerTime,45
;   maxCoolingFanSpeed,100
;   increaseFanForBridging,0
;   bridgingFanSpeed,100
;   use5D,1
;   relativeEdistances,0
;   allowEaxisZeroing,1
;   independentExtruderAxes,0
;   includeM10123,0
;   stickySupport,1
;   applyToolheadOffsets,0
;   gcodeXoffset,0
;   gcodeYoffset,0
;   gcodeZoffset,0
;   overrideMachineDefinition,1
;   machineTypeOverride,0
;   strokeXoverride,220
;   strokeYoverride,220
;   strokeZoverride,250
;   originOffsetXoverride,-5
;   originOffsetYoverride,-5
;   originOffsetZoverride,0
;   homeXdirOverride,-1
;   homeYdirOverride,-1
;   homeZdirOverride,-1
;   flipXoverride,1
;   flipYoverride,-1
;   flipZoverride,1
;   toolheadOffsets,0,0|0,0|0,0|0,0|0,0|0,0
;   overrideFirmwareConfiguration,1
;   firmwareTypeOverride,RepRap (Marlin/Repetier/Sprinter)
;   GPXconfigOverride,r2
;   baudRateOverride,115200
;   overridePrinterModels,1
;   printerModelsOverride
;   startingGcode,G28 ; home all axes,G1 X5 Y10 Z0.2 F3000 ; get ready to prime,G92 E0 ; reset extrusion distance,G1 X160 E15 F600 ; prime nozzle,G1 X180 F5000 ; quick wipe
;   layerChangeGcode,
;   retractionGcode,
;   toolChangeGcode,
;   endingGcode,G28 X0 ; home X axis,M106 S0 ; turn off cooling fan,M104 S0 ; turn off extruder,M140 S0 ; turn off bed,M84 ; disable motors
;   exportFileFormat,gcode
;   celebration,0
;   celebrationSong,Random Song
;   postProcessing,
;   defaultSpeed,3000
;   outlineUnderspeed,0.5
;   solidInfillUnderspeed,0.8
;   supportUnderspeed,0.8
;   rapidXYspeed,4800
;   rapidZspeed,1000
;   minBridgingArea,50
;   bridgingExtraInflation,0
;   bridgingExtrusionMultiplier,1
;   bridgingSpeedMultiplier,1
;   useFixedBridgingAngle,0
;   fixedBridgingAngle,0
;   applyBridgingToPerimeters,0
;   filamentDiameters,1.75|1.75|1.75|1.75|1.75|1.75
;   filamentPricesPerKg,46|46|46|46|46|46
;   filamentDensities,1.25|1.25|1.25|1.25|1.25|1.25
;   useMinPrintHeight,0
;   minPrintHeight,0
;   useMaxPrintHeight,0
;   maxPrintHeight,0
;   useDiaphragm,0
;   diaphragmLayerInterval,20
;   robustSlicing,1
;   mergeAllIntoSolid,0
;   onlyRetractWhenCrossingOutline,1
;   retractBetweenLayers,1
;   useRetractionMinTravel,0
;   retractionMinTravel,3
;   retractWhileWiping,0
;   onlyWipeOutlines,1
;   avoidCrossingOutline,0
;   maxMovementDetourFactor,3
;   toolChangeRetractionDistance,12
;   toolChangeExtraRestartDistance,-0.5
;   toolChangeRetractionSpeed,600
;   externalThinWallType,0
;   internalThinWallType,2
;   thinWallAllowedOverlapPercentage,10
;   singleExtrusionMinLength,1
;   singleExtrusionMinPrintingWidthPercentage,50
;   singleExtrusionMaxPrintingWidthPercentage,200
;   singleExtrusionEndpointExtension,0.2
;   horizontalSizeCompensation,0
G90
M82
M106 S0
M140 S60
M190 S60
M104 S200 T0
M109 S200 T0
G28 ; home all axes
G1 X5 Y10 Z0.2 F3000 ; get ready to prime
G92 E0 ; reset extrusion distance
G1 X160 E15 F600 ; prime nozzle
G1 X180 F5000 ; quick wipe
; process Process1
; layer 1, Z = 0.240
T0
G92 E0.0000
G1 E-6.0000 F1500
; feature skirt
; tool H0.240 W0.600
G1 Z0.240 F1000
G1 X92.828 Y92.766 F4800
G1 E0.0000 F1500
G92 E0.0000
G1 X93.587 Y92.033 E0.0569 F1500
G1 X93.684 Y91.945 E0.0639
G1 X95.213 Y90.620 E0.1729
G1 X95.314 Y90.537 E0.1800
G1 X96.165 Y89.876 E0.2380
G1 X96.271 Y89.798 E0.2451
G1 X97.950 Y88.632 E0.3553
G1 X98.097 Y88.537 E0.3647
G1 X99.875 Y87.483 E0.4761
G1 X100.028 Y87.399 E0.4855
G1 X101.857 Y86.484 E0.5957
G1 X101.976 Y86.428 E0.6027
G1 X102.963 Y85.998 E0.6608
G1 X103.085 Y85.949 E0.6678
G1 X105.001 Y85.234 E0.7780
G1 X105.167 Y85.179 E0.7874
G1 X107.129 Y84.603 E0.8976
G1 X107.256 Y84.570 E0.9047
G1 X108.304 Y84.322 E0.9627
G1 X108.432 Y84.295 E0.9698
G1 X110.423 Y83.936 E1.0788
G1 X110.553 Y83.916 E1.0859
G1 X111.622 Y83.782 E1.1439
G1 X111.752 Y83.769 E1.1510
G1 X113.770 Y83.625 E1.2600
G1 X113.901 Y83.619 E1.2670
G1 X114.978 Y83.600 E1.3251
G1 X115.109 Y83.601 E1.3322
G1 X117.153 Y83.674 E1.4423
G1 X117.327 Y83.686 E1.4518
G1 X119.382 Y83.907 E1.5631
G1 X119.555 Y83.932 E1.5725
G1 X121.568 Y84.295 E1.6827
G1 X121.696 Y84.322 E1.6898
G1 X122.744 Y84.570 E1.7478
G1 X122.871 Y84.603 E1.7549
G1 X124.812 Y85.173 E1.8639
G1 X124.937 Y85.213 E1.8710
G1 X125.953 Y85.572 E1.9290
G1 X126.075 Y85.619 E1.9361
G1 X127.964 Y86.401 E2.0462
G1 X128.124 Y86.474 E2.0557
G1 X129.972 Y87.399 E2.1670
G1 X130.125 Y87.483 E2.1765
G1 X131.884 Y88.526 E2.2866
G1 X131.995 Y88.596 E2.2937
G1 X132.872 Y89.182 E2.3506
G1 X132.944 Y89.232 E2.3553
G1 X133.800 Y89.850 E2.4121
G1 X133.904 Y89.929 E2.4192
G1 X135.479 Y91.198 E2.5282
G1 X135.579 Y91.283 E2.5353
G1 X136.381 Y92.003 E2.5933
G1 X136.476 Y92.094 E2.6004
G1 X137.906 Y93.524 E2.7094
G1 X137.997 Y93.619 E2.7165
G1 X138.717 Y94.421 E2.7745
G1 X138.802 Y94.521 E2.7816
G1 X140.071 Y96.096 E2.8906
G1 X140.150 Y96.200 E2.8976
G1 X140.780 Y97.074 E2.9557
G1 X140.854 Y97.182 E2.9627
G1 X141.948 Y98.884 E3.0717
G1 X142.016 Y98.996 E3.0788
G1 X142.549 Y99.932 E3.1368
G1 X142.611 Y100.048 E3.1439
G1 X143.526 Y101.876 E3.2541
G1 X143.599 Y102.036 E3.2635
G1 X144.381 Y103.925 E3.3737
G1 X144.428 Y104.047 E3.3808
G1 X144.787 Y105.063 E3.4388
G1 X144.827 Y105.188 E3.4459
G1 X145.397 Y107.129 E3.5549
G1 X145.430 Y107.256 E3.5619
G1 X145.678 Y108.304 E3.6200
G1 X145.705 Y108.432 E3.6270
G1 X146.064 Y110.423 E3.7360
G1 X146.084 Y110.553 E3.7431
G1 X146.218 Y111.622 E3.8012
G1 X146.231 Y111.752 E3.8082
G1 X146.377 Y113.792 E3.9184
G1 X146.383 Y113.967 E3.9278
G1 X146.383 Y116.033 E4.0392
G1 X146.377 Y116.208 E4.0486
G1 X146.231 Y118.248 E4.1588
G1 X146.218 Y118.378 E4.1659
G1 X146.084 Y119.447 E4.2239
G1 X146.064 Y119.577 E4.2310
G1 X145.705 Y121.568 E4.3400
G1 X145.678 Y121.696 E4.3470
G1 X145.430 Y122.744 E4.4051
G1 X145.397 Y122.871 E4.4121
G1 X144.821 Y124.833 E4.5223
G1 X144.766 Y124.999 E4.5317
G1 X144.051 Y126.915 E4.6419
G1 X144.002 Y127.037 E4.6490
G1 X143.572 Y128.024 E4.7070
G1 X143.516 Y128.143 E4.7141
G1 X142.611 Y129.952 E4.8231
G1 X142.549 Y130.068 E4.8302
G1 X142.016 Y131.004 E4.8882
G1 X141.948 Y131.116 E4.8953
G1 X140.854 Y132.818 E5.0043
G1 X140.780 Y132.926 E5.0113
G1 X140.150 Y133.800 E5.0694
G1 X140.071 Y133.904 E5.0764
G1 X138.802 Y135.479 E5.1854
G1 X138.717 Y135.579 E5.1925
G1 X137.997 Y136.381 E5.2506
G1 X137.906 Y136.476 E5.2576
G1 X136.476 Y137.906 E5.3666
G1 X136.381 Y137.997 E5.3737
G1 X135.579 Y138.717 E5.4317
G1 X135.479 Y138.802 E5.4388
G1 X133.887 Y140.085 E5.5490
G1 X133.747 Y140.189 E5.5584
G1 X132.068 Y141.356 E5.6686
G1 X131.958 Y141.427 E5.6756
G1 X131.042 Y141.994 E5.7337
G1 X130.928 Y142.060 E5.7408
G1 X129.133 Y143.040 E5.8509
G1 X128.977 Y143.118 E5.8604
G1 X127.097 Y143.976 E5.9717
G1 X126.935 Y144.043 E5.9811
G1 X124.999 Y144.766 E6.0925
G1 X124.833 Y144.821 E6.1019
G1 X122.871 Y145.397 E6.2121
G1 X122.744 Y145.430 E6.2192
G1 X121.696 Y145.678 E6.2772
G1 X121.568 Y145.705 E6.2843
G1 X119.577 Y146.064 E6.3933
G1 X119.447 Y146.084 E6.4003
G1 X118.400 Y146.215 E6.4572
G1 X118.313 Y146.225 E6.4619
G1 X117.262 Y146.319 E6.5188
G1 X117.131 Y146.327 E6.5259
G1 X115.088 Y146.400 E6.6360
G1 X114.913 Y146.400 E6.6455
G1 X112.869 Y146.327 E6.7556
G1 X112.738 Y146.319 E6.7627
G1 X111.687 Y146.225 E6.8196
G1 X111.600 Y146.215 E6.8243
G1 X110.553 Y146.084 E6.8811
G1 X110.423 Y146.064 E6.8882
G1 X108.432 Y145.705 E6.9972
G1 X108.304 Y145.678 E7.0043
G1 X107.256 Y145.430 E7.0623
G1 X107.129 Y145.397 E7.0694
G1 X105.167 Y144.821 E7.1796
G1 X105.001 Y144.766 E7.1890
G1 X103.085 Y144.051 E7.2992
G1 X102.963 Y144.002 E7.3062
G1 X101.976 Y143.572 E7.3643
G1 X101.857 Y143.516 E7.3713
G1 X100.048 Y142.611 E7.4803
G1 X99.932 Y142.549 E7.4874
G1 X98.996 Y142.016 E7.5454
G1 X98.884 Y141.948 E7.5525
G1 X97.182 Y140.854 E7.6615
G1 X97.074 Y140.780 E7.6686
G1 X96.200 Y140.150 E7.7266
G1 X96.096 Y140.071 E7.7337
G1 X94.503 Y138.788 E7.8439
G1 X94.371 Y138.673 E7.8533
G1 X92.875 Y137.280 E7.9635
G1 X92.781 Y137.188 E7.9705
G1 X92.033 Y136.413 E8.0286
G1 X91.945 Y136.316 E8.0356
G1 X90.606 Y134.771 E8.1458
G1 X90.496 Y134.634 E8.1552
G1 X89.257 Y132.980 E8.2666
G1 X89.157 Y132.836 E8.2760
G1 X88.052 Y131.116 E8.3862
G1 X87.984 Y131.004 E8.3933
G1 X87.451 Y130.068 E8.4513
G1 X87.389 Y129.952 E8.4584
G1 X86.484 Y128.143 E8.5674
G1 X86.428 Y128.024 E8.5745
G1 X85.998 Y127.037 E8.6325
G1 X85.949 Y126.915 E8.6396
G1 X85.234 Y124.999 E8.7497
G1 X85.179 Y124.833 E8.7592
G1 X84.603 Y122.871 E8.8693
G1 X84.570 Y122.744 E8.8764
G1 X84.322 Y121.696 E8.9344
G1 X84.295 Y121.568 E8.9415
G1 X83.936 Y119.577 E9.0505
G1 X83.916 Y119.447 E9.0576
G1 X83.782 Y118.378 E9.1156
G1 X83.769 Y118.248 E9.1227
G1 X83.625 Y116.230 E9.2317
G1 X83.619 Y116.099 E9.2388
G1 X83.600 Y115.044 E9.2956
G1 X83.600 Y114.956 E9.3003
G1 X83.619 Y113.901 E9.3572
G1 X83.625 Y113.770 E9.3643
G1 X83.769 Y111.752 E9.4733
G1 X83.782 Y111.622 E9.4803
G1 X83.916 Y110.553 E9.5384
G1 X83.936 Y110.423 E9.5454
G1 X84.295 Y108.432 E9.6544
G1 X84.322 Y108.304 E9.6615
G1 X84.570 Y107.256 E9.7196
G1 X84.603 Y107.129 E9.7266
G1 X85.179 Y105.167 E9.8368
G1 X85.234 Y105.001 E9.8462
G1 X85.949 Y103.085 E9.9564
G1 X85.998 Y102.963 E9.9635
G1 X86.428 Y101.976 E10.0215
G1 X86.484 Y101.857 E10.0286
G1 X87.399 Y100.028 E10.1388
G1 X87.483 Y99.875 E10.1482
G1 X88.526 Y98.116 E10.2584
G1 X88.596 Y98.005 E10.2654
G1 X89.195 Y97.110 E10.3235
G1 X89.270 Y97.003 E10.3305
G1 X90.496 Y95.366 E10.4407
G1 X90.606 Y95.229 E10.4501
G1 X91.945 Y93.684 E10.5603
G1 X92.033 Y93.587 E10.5674
G1 X92.766 Y92.828 E10.6242
G1 X92.828 Y92.766 E10.6290
G92 E0.0000
G1 E-6.0000 F1500
G1 X93.248 Y93.194 F4800
G1 E0.0000 F1500
G92 E0.0000
G1 X93.998 Y92.470 E0.0561 F1500
G1 X94.083 Y92.393 E0.0623
G1 X95.600 Y91.079 E0.1705
G1 X95.689 Y91.006 E0.1767
G1 X96.527 Y90.355 E0.2339
G1 X96.619 Y90.286 E0.2401
G1 X98.284 Y89.131 E0.3492
G1 X98.413 Y89.048 E0.3575
G1 X100.172 Y88.004 E0.4677
G1 X100.307 Y87.931 E0.4760
G1 X102.118 Y87.024 E0.5851
G1 X102.223 Y86.975 E0.5913
G1 X103.195 Y86.552 E0.6485
G1 X103.302 Y86.508 E0.6547
G1 X105.201 Y85.800 E0.7639
G1 X105.346 Y85.752 E0.7722
G1 X107.290 Y85.181 E0.8813
G1 X107.401 Y85.152 E0.8875
G1 X108.434 Y84.908 E0.9447
G1 X108.547 Y84.884 E0.9509
G1 X110.522 Y84.528 E1.0590
G1 X110.636 Y84.510 E1.0652
G1 X111.689 Y84.378 E1.1224
G1 X111.803 Y84.367 E1.1286
G1 X113.805 Y84.224 E1.2367
G1 X113.920 Y84.219 E1.2430
G1 X114.981 Y84.200 E1.3001
G1 X115.096 Y84.201 E1.3063
G1 X117.121 Y84.273 E1.4155
G1 X117.274 Y84.284 E1.4238
G1 X119.307 Y84.503 E1.5340
G1 X119.459 Y84.524 E1.5422
G1 X121.453 Y84.884 E1.6514
G1 X121.566 Y84.908 E1.6576
G1 X122.599 Y85.152 E1.7148
G1 X122.710 Y85.181 E1.7210
G1 X124.635 Y85.746 E1.8291
G1 X124.745 Y85.782 E1.8353
G1 X125.746 Y86.135 E1.8925
G1 X125.853 Y86.176 E1.8987
G1 X127.725 Y86.951 E2.0079
G1 X127.865 Y87.015 E2.0161
G1 X129.693 Y87.931 E2.1263
G1 X129.828 Y88.004 E2.1346
G1 X131.571 Y89.038 E2.2438
G1 X131.668 Y89.099 E2.2500
G1 X132.534 Y89.678 E2.3061
G1 X132.597 Y89.722 E2.3103
G1 X133.443 Y90.332 E2.3664
G1 X133.534 Y90.401 E2.3726
G1 X135.097 Y91.661 E2.4807
G1 X135.184 Y91.735 E2.4869
G1 X135.974 Y92.444 E2.5441
G1 X136.057 Y92.524 E2.5503
G1 X137.476 Y93.943 E2.6585
G1 X137.556 Y94.026 E2.6647
G1 X138.265 Y94.816 E2.7218
G1 X138.339 Y94.903 E2.7280
G1 X139.599 Y96.466 E2.8362
G1 X139.668 Y96.557 E2.8424
G1 X140.289 Y97.418 E2.8995
G1 X140.354 Y97.513 E2.9057
G1 X141.439 Y99.202 E3.0139
G1 X141.499 Y99.300 E3.0201
G1 X142.024 Y100.222 E3.0773
G1 X142.078 Y100.324 E3.0835
G1 X142.985 Y102.135 E3.1926
G1 X143.049 Y102.275 E3.2009
G1 X143.824 Y104.147 E3.3101
G1 X143.865 Y104.254 E3.3163
G1 X144.218 Y105.255 E3.3734
G1 X144.253 Y105.365 E3.3796
G1 X144.819 Y107.290 E3.4878
G1 X144.848 Y107.402 E3.4940
G1 X145.092 Y108.434 E3.5512
G1 X145.116 Y108.547 E3.5574
G1 X145.472 Y110.522 E3.6655
G1 X145.490 Y110.636 E3.6717
G1 X145.622 Y111.688 E3.7289
G1 X145.633 Y111.803 E3.7351
G1 X145.778 Y113.824 E3.8442
G1 X145.783 Y113.977 E3.8525
G1 X145.783 Y116.023 E3.9627
G1 X145.778 Y116.176 E3.9710
G1 X145.633 Y118.197 E4.0802
G1 X145.622 Y118.311 E4.0864
G1 X145.490 Y119.364 E4.1435
G1 X145.472 Y119.478 E4.1497
G1 X145.116 Y121.453 E4.2579
G1 X145.092 Y121.566 E4.2641
G1 X144.848 Y122.598 E4.3212
G1 X144.819 Y122.710 E4.3274
G1 X144.248 Y124.654 E4.4366
G1 X144.200 Y124.799 E4.4449
G1 X143.492 Y126.698 E4.5540
G1 X143.448 Y126.805 E4.5603
G1 X143.025 Y127.777 E4.6174
G1 X142.976 Y127.882 E4.6236
G1 X142.078 Y129.676 E4.7318
G1 X142.024 Y129.778 E4.7380
G1 X141.499 Y130.700 E4.7951
G1 X141.439 Y130.798 E4.8013
G1 X140.354 Y132.487 E4.9095
G1 X140.289 Y132.582 E4.9157
G1 X139.668 Y133.443 E4.9729
G1 X139.599 Y133.534 E4.9791
G1 X138.339 Y135.097 E5.0872
G1 X138.265 Y135.184 E5.0934
G1 X137.556 Y135.974 E5.1506
G1 X137.476 Y136.057 E5.1568
G1 X136.057 Y137.476 E5.2649
G1 X135.974 Y137.556 E5.2711
G1 X135.184 Y138.265 E5.3283
G1 X135.097 Y138.339 E5.3345
G1 X133.519 Y139.611 E5.4437
G1 X133.396 Y139.703 E5.4519
G1 X131.732 Y140.858 E5.5611
G1 X131.636 Y140.921 E5.5673
G1 X130.733 Y141.479 E5.6245
G1 X130.633 Y141.537 E5.6307
G1 X128.855 Y142.508 E5.7398
G1 X128.718 Y142.577 E5.7481
G1 X126.858 Y143.426 E5.8583
G1 X126.716 Y143.485 E5.8666
G1 X124.799 Y144.200 E5.9768
G1 X124.654 Y144.248 E5.9851
G1 X122.710 Y144.819 E6.0942
