; G-Code generated by Simplify3D(R) Version 4.1.2
; Jun 7, 2020 at 12:11:16 PM
; Settings Summary
;   processName,Process1
;   applyToModels,test-pattern-01
;   profileName,Creality Ender 3 Pro (modified)
;   profileVersion,2019-04-06 08:00:00
;   baseProfile,
;   printMaterial,PLA
;   printQuality,Medium
;   printExtruders,
;   extruderName,Primary Extruder
;   extruderToolheadNumber,0
;   extruderDiameter,0.4
;   extruderAutoWidth,0
;   extruderWidth,0.4
;   extrusionMultiplier,0.9
;   extruderUseRetract,1
;   extruderRetractionDistance,4
;   extruderExtraRestartDistance,0
;   extruderRetractionZLift,0
;   extruderRetractionSpeed,2400
;   extruderUseCoasting,0
;   extruderCoastingDistance,0.2
;   extruderUseWipe,0
;   extruderWipeDistance,5
;   primaryExtruder,0
;   layerHeight,0.2
;   topSolidLayers,3
;   bottomSolidLayers,3
;   perimeterOutlines,2
;   printPerimetersInsideOut,0
;   startPointOption,2
;   startPointOriginX,0
;   startPointOriginY,0
;   sequentialIslands,0
;   spiralVaseMode,0
;   firstLayerHeightPercentage,100
;   firstLayerWidthPercentage,100
;   firstLayerUnderspeed,0.75
;   useRaft,0
;   raftExtruder,0
;   raftTopLayers,3
;   raftBaseLayers,2
;   raftOffset,3
;   raftSeparationDistance,0.14
;   raftTopInfill,100
;   aboveRaftSpeedMultiplier,0.3
;   useSkirt,0
;   skirtExtruder,0
;   skirtLayers,1
;   skirtOutlines,2
;   skirtOffset,4
;   usePrimePillar,0
;   primePillarExtruder,999
;   primePillarWidth,12
;   primePillarLocation,7
;   primePillarSpeedMultiplier,1
;   useOozeShield,0
;   oozeShieldExtruder,999
;   oozeShieldOffset,2
;   oozeShieldOutlines,1
;   oozeShieldSidewallShape,1
;   oozeShieldSidewallAngle,30
;   oozeShieldSpeedMultiplier,1
;   infillExtruder,0
;   internalInfillPattern,Rectilinear
;   externalInfillPattern,Rectilinear
;   infillPercentage,100
;   outlineOverlapPercentage,15
;   infillExtrusionWidthPercentage,100
;   minInfillLength,5
;   infillLayerInterval,1
;   internalInfillAngles,45,-45
;   overlapInternalInfillAngles,0
;   externalInfillAngles,45,-45
;   generateSupport,0
;   supportExtruder,0
;   supportInfillPercentage,30
;   supportExtraInflation,0
;   supportBaseLayers,0
;   denseSupportExtruder,0
;   denseSupportLayers,0
;   denseSupportInfillPercentage,70
;   supportLayerInterval,1
;   supportHorizontalPartOffset,0.3
;   supportUpperSeparationLayers,1
;   supportLowerSeparationLayers,1
;   supportType,0
;   supportGridSpacing,4
;   maxOverhangAngle,45
;   supportAngles,0
;   temperatureName,Primary Extruder,Heated Bed
;   temperatureNumber,0,0
;   temperatureSetpointCount,1,1
;   temperatureSetpointLayers,1,1
;   temperatureSetpointTemperatures,200,60
;   temperatureStabilizeAtStartup,1,1
;   temperatureHeatedBed,0,1
;   fanLayers,1,2
;   fanSpeeds,0,100
;   blipFanToFullPower,0
;   adjustSpeedForCooling,1
;   minSpeedLayerTime,15
;   minCoolingSpeedSlowdown,20
;   increaseFanForCooling,0
;   minFanLayerTime,45
;   maxCoolingFanSpeed,100
;   increaseFanForBridging,0
;   bridgingFanSpeed,100
;   use5D,1
;   relativeEdistances,0
;   allowEaxisZeroing,1
;   independentExtruderAxes,0
;   includeM10123,0
;   stickySupport,1
;   applyToolheadOffsets,0
;   gcodeXoffset,0
;   gcodeYoffset,0
;   gcodeZoffset,0
;   overrideMachineDefinition,1
;   machineTypeOverride,0
;   strokeXoverride,220
;   strokeYoverride,220
;   strokeZoverride,250
;   originOffsetXoverride,-5
;   originOffsetYoverride,-5
;   originOffsetZoverride,0
;   homeXdirOverride,-1
;   homeYdirOverride,-1
;   homeZdirOverride,-1
;   flipXoverride,1
;   flipYoverride,-1
;   flipZoverride,1
;   toolheadOffsets,0,0|0,0|0,0|0,0|0,0|0,0
;   overrideFirmwareConfiguration,1
;   firmwareTypeOverride,RepRap (Marlin/Repetier/Sprinter)
;   GPXconfigOverride,r2
;   baudRateOverride,115200
;   overridePrinterModels,1
;   printerModelsOverride
;   startingGcode,M140 S[bed0_temperature];,M190 S[bed0_temperature];,G28 ; home all axes,G29 ;,G1 Z2.0 F3000 ; Move Z Axis up little to prevent scratching of Heat Bed,M104 S[extruder0_temperature] ; Set Extruder temperature,G1 X0.1 Y20 Z0.3 F5000.0 ; Move to start position,M109 S[extruder0_temperature] ; Wait for Extruder temperature,G1 X5 Y10 Z0.2 F3000 ; get ready to prime,G92 E0 ; reset extrusion distance,G1 X160 E15 F600 ; prime nozzle,G1 X180 F5000 ; quick wipe
;   layerChangeGcode,
;   retractionGcode,
;   toolChangeGcode,
;   endingGcode,G28 X0 ; home X axis,M106 S0 ; turn off cooling fan,M104 S0 ; turn off extruder,M140 S0 ; turn off bed,M84 ; disable motors
;   exportFileFormat,gcode
;   celebration,0
;   celebrationSong,Random Song
;   postProcessing,
;   defaultSpeed,2400
;   outlineUnderspeed,0.5
;   solidInfillUnderspeed,0.8
;   supportUnderspeed,0.8
;   rapidXYspeed,4800
;   rapidZspeed,1000
;   minBridgingArea,50
;   bridgingExtraInflation,0
;   bridgingExtrusionMultiplier,1
;   bridgingSpeedMultiplier,1
;   useFixedBridgingAngle,0
;   fixedBridgingAngle,0
;   applyBridgingToPerimeters,0
;   filamentDiameters,1.75|1.75|1.75|1.75|1.75|1.75
;   filamentPricesPerKg,46|46|46|46|46|46
;   filamentDensities,1.25|1.25|1.25|1.25|1.25|1.25
;   useMinPrintHeight,0
;   minPrintHeight,0
;   useMaxPrintHeight,1
;   maxPrintHeight,0.2
;   useDiaphragm,0
;   diaphragmLayerInterval,20
;   robustSlicing,1
;   mergeAllIntoSolid,0
;   onlyRetractWhenCrossingOutline,1
;   retractBetweenLayers,1
;   useRetractionMinTravel,0
;   retractionMinTravel,3
;   retractWhileWiping,0
;   onlyWipeOutlines,1
;   avoidCrossingOutline,0
;   maxMovementDetourFactor,3
;   toolChangeRetractionDistance,12
;   toolChangeExtraRestartDistance,-0.5
;   toolChangeRetractionSpeed,600
;   externalThinWallType,0
;   internalThinWallType,1
;   thinWallAllowedOverlapPercentage,10
;   singleExtrusionMinLength,1
;   singleExtrusionMinPrintingWidthPercentage,50
;   singleExtrusionMaxPrintingWidthPercentage,200
;   singleExtrusionEndpointExtension,0.2
;   horizontalSizeCompensation,0
G90
M82
M106 S0
M140 S60;
M190 S60;
G28 ; home all axes
G29 ;
G1 Z2.0 F3000 ; Move Z Axis up little to prevent scratching of Heat Bed
M104 S200 ; Set Extruder temperature
G1 X0.1 Y20 Z0.3 F5000.0 ; Move to start position
M109 S200 ; Wait for Extruder temperature
G1 X5 Y10 Z0.2 F3000 ; get ready to prime
G92 E0 ; reset extrusion distance
G1 X160 E15 F600 ; prime nozzle
G1 X180 F5000 ; quick wipe
; process Process1
; layer 1, Z = 0.200
T0
G92 E0.0000
G1 E-4.0000 F2400
; feature outer perimeter
; tool H0.200 W0.400
G1 Z0.200 F1000
G1 X7.300 Y7.300 F4800
G1 E0.0000 F2400
G92 E0.0000
G1 X12.700 Y7.300 E0.1616 F900
G1 X12.700 Y9.800 E0.2365
G1 X217.300 Y9.800 E6.3610
G1 X217.300 Y7.300 E6.4358
G1 X222.700 Y7.300 E6.5975
G1 X222.700 Y12.700 E6.7591
G1 X220.200 Y12.700 E6.8340
G1 X220.200 Y217.300 E12.9585
G1 X222.700 Y217.300 E13.0333
G1 X222.700 Y222.700 E13.1950
G1 X217.300 Y222.700 E13.3566
G1 X217.300 Y220.200 E13.4314
G1 X12.700 Y220.200 E19.5560
G1 X12.700 Y222.700 E19.6308
G1 X7.300 Y222.700 E19.7924
G1 X7.300 Y217.300 E19.9541
G1 X9.800 Y217.300 E20.0289
G1 X9.800 Y12.700 E26.1534
G1 X7.300 Y12.700 E26.2283
G1 X7.300 Y7.300 E26.3899
G1 X7.700 Y7.700 F4800
G92 E0.0000
G1 X7.700 Y12.300 E0.1377 F900
G1 X9.800 Y12.300 E0.2006
G1 X9.800 Y9.800 E0.2754
G1 X12.300 Y9.800 E0.3502
G1 X12.300 Y7.700 E0.4131
G1 X7.700 Y7.700 E0.5508
G92 E0.0000
G1 E-4.0000 F2400
G1 X10.200 Y10.483 F4800
G1 E0.0000 F2400
G92 E0.0000
G1 X10.200 Y12.300 E0.0544 F900
G1 X12.017 Y12.300 E0.1088
G1 X10.200 Y10.483 E0.1857
G1 X10.483 Y10.200 F4800
G92 E0.0000
G1 X12.300 Y12.017 E0.0769 F900
G1 X12.300 Y10.200 E0.1313
G1 X10.483 Y10.200 E0.1857
G1 X12.700 Y10.200 F4800
G92 E0.0000
G1 X12.700 Y12.417 E0.0664 F900
G1 X15.083 Y14.800 E0.1672
G1 X114.800 Y14.800 E3.1522
G1 X114.800 Y10.200 E3.2899
G1 X12.700 Y10.200 E6.3462
G1 X12.417 Y12.700 F4800
G92 E0.0000
G1 X10.200 Y12.700 E0.0664 F900
G1 X10.200 Y114.800 E3.1226
G1 X14.800 Y114.800 E3.2603
G1 X14.800 Y15.083 E6.2453
G1 X12.417 Y12.700 E6.3462
G1 X15.200 Y15.483 F4800
G92 E0.0000
G1 X15.200 Y104.800 E2.6736 F900
G1 X19.800 Y104.800 E2.8113
G1 X19.800 Y20.083 E5.3473
G1 X15.200 Y15.483 E5.5420
G1 X15.483 Y15.200 F4800
G92 E0.0000
G1 X20.083 Y19.800 E0.1947 F900
G1 X104.800 Y19.800 E2.7307
G1 X104.800 Y15.200 E2.8684
G1 X15.483 Y15.200 E5.5420
G1 X20.483 Y20.200 F4800
G92 E0.0000
G1 X79.641 Y79.358 E2.5044 F900
G1 X81.547 Y77.571 E2.5826
G1 X83.385 Y76.006 E2.6548
G1 X85.296 Y74.531 E2.7271
G1 X87.276 Y73.150 E2.7994
G1 X89.320 Y71.865 E2.8716
G1 X91.424 Y70.681 E2.9439
G1 X93.582 Y69.598 E3.0162
G1 X95.789 Y68.621 E3.0884
G1 X98.041 Y67.751 E3.1607
G1 X100.332 Y66.991 E3.2330
G1 X102.657 Y66.341 E3.3052
G1 X105.011 Y65.804 E3.3775
G1 X107.388 Y65.381 E3.4498
G1 X109.782 Y65.072 E3.5220
G1 X112.189 Y64.879 E3.5943
G1 X114.800 Y64.795 E3.6725
G1 X114.800 Y25.200 E4.8578
G1 X104.800 Y25.200 E5.1571
G1 X104.800 Y20.200 E5.3068
G1 X20.483 Y20.200 E7.8307
G1 X20.200 Y20.483 F4800
G92 E0.0000
G1 X20.200 Y104.800 E2.5240 F900
G1 X25.200 Y104.800 E2.6736
G1 X25.200 Y114.800 E2.9730
G1 X64.795 Y114.800 E4.1582
G1 X64.879 Y112.189 E4.2364
G1 X65.072 Y109.782 E4.3087
G1 X65.381 Y107.388 E4.3810
G1 X65.804 Y105.011 E4.4532
G1 X66.341 Y102.657 E4.5255
G1 X66.991 Y100.332 E4.5978
G1 X67.751 Y98.041 E4.6700
G1 X68.621 Y95.789 E4.7423
G1 X69.598 Y93.582 E4.8146
G1 X70.681 Y91.424 E4.8868
G1 X71.865 Y89.320 E4.9591
G1 X73.150 Y87.276 E5.0313
G1 X74.531 Y85.296 E5.1036
G1 X76.006 Y83.385 E5.1759
G1 X77.571 Y81.547 E5.2481
G1 X79.358 Y79.641 E5.3264
G1 X20.200 Y20.483 E7.8307
G1 X79.641 Y79.924 F4800
G92 E0.0000
G1 X77.866 Y81.818 E0.0777 F900
G1 X76.314 Y83.641 E0.1494
G1 X74.851 Y85.536 E0.2210
G1 X73.482 Y87.500 E0.2927
G1 X72.208 Y89.527 E0.3644
G1 X71.033 Y91.613 E0.4360
G1 X69.960 Y93.753 E0.5077
G1 X68.991 Y95.942 E0.5794
G1 X68.128 Y98.176 E0.6510
G1 X67.374 Y100.448 E0.7227
G1 X66.729 Y102.754 E0.7944
G1 X66.196 Y105.088 E0.8660
G1 X65.776 Y107.445 E0.9377
G1 X65.470 Y109.819 E1.0094
G1 X65.278 Y112.205 E1.0810
G1 X65.195 Y114.800 E1.1587
G1 X99.792 Y114.800 E2.1944
G1 X99.888 Y113.370 E2.2373
G1 X100.071 Y112.145 E2.2743
G1 X100.353 Y110.939 E2.3114
G1 X100.732 Y109.760 E2.3485
G1 X101.206 Y108.616 E2.3856
G1 X101.771 Y107.514 E2.4226
G1 X102.424 Y106.462 E2.4597
G1 X103.161 Y105.467 E2.4968
G1 X104.105 Y104.388 E2.5397
G1 X79.641 Y79.924 E3.5753
G1 X79.924 Y79.641 F4800
G92 E0.0000
G1 X104.388 Y104.105 E1.0356 F900
G1 X105.467 Y103.161 E1.0786
G1 X106.462 Y102.424 E1.1156
G1 X107.514 Y101.771 E1.1527
G1 X108.616 Y101.206 E1.1898
G1 X109.760 Y100.732 E1.2268
G1 X110.939 Y100.353 E1.2639
G1 X112.145 Y100.071 E1.3010
G1 X113.370 Y99.888 E1.3380
G1 X114.800 Y99.792 E1.3809
G1 X114.800 Y65.195 E2.4166
G1 X112.205 Y65.278 E2.4943
G1 X109.819 Y65.470 E2.5660
G1 X107.445 Y65.776 E2.6376
G1 X105.088 Y66.196 E2.7093
G1 X102.754 Y66.729 E2.7810
G1 X100.448 Y67.374 E2.8526
G1 X98.176 Y68.128 E2.9243
G1 X95.942 Y68.991 E2.9959
G1 X93.753 Y69.960 E3.0676
G1 X91.613 Y71.033 E3.1393
G1 X89.527 Y72.208 E3.2109
G1 X87.500 Y73.482 E3.2826
G1 X85.536 Y74.851 E3.3543
G1 X83.641 Y76.314 E3.4259
G1 X81.818 Y77.866 E3.4976
G1 X79.924 Y79.641 E3.5753
G1 X104.669 Y104.387 F4800
G92 E0.0000
G1 X111.457 Y111.174 E0.2873 F900
G1 X112.134 Y110.662 E0.3127
G1 X112.708 Y110.333 E0.3326
G1 X113.320 Y110.079 E0.3524
G1 X113.959 Y109.906 E0.3722
G1 X114.800 Y109.789 E0.3976
G1 X114.800 Y100.190 E0.6849
G1 X113.247 Y100.304 E0.7316
G1 X111.914 Y100.525 E0.7720
G1 X110.607 Y100.867 E0.8124
G1 X109.336 Y101.326 E0.8529
G1 X108.113 Y101.900 E0.8933
G1 X106.947 Y102.583 E0.9338
G1 X105.848 Y103.369 E0.9742
G1 X104.669 Y104.387 E1.0208
G1 X104.387 Y104.669 F4800
G92 E0.0000
G1 X103.369 Y105.848 E0.0466 F900
G1 X102.583 Y106.947 E0.0871
G1 X101.900 Y108.113 E0.1275
G1 X101.326 Y109.336 E0.1679
G1 X100.867 Y110.607 E0.2084
G1 X100.525 Y111.914 E0.2488
G1 X100.304 Y113.247 E0.2893
G1 X100.190 Y114.800 E0.3359
G1 X109.789 Y114.800 E0.6232
G1 X109.906 Y113.959 E0.6486
G1 X110.079 Y113.320 E0.6685
G1 X110.333 Y112.708 E0.6883
G1 X110.662 Y112.134 E0.7081
G1 X111.174 Y111.457 E0.7335
G1 X104.387 Y104.669 E1.0208
G1 X111.452 Y111.734 F4800
G92 E0.0000
G1 X110.896 Y112.509 E0.0285 F900
G1 X110.565 Y113.163 E0.0505
G1 X110.337 Y113.859 E0.0724
G1 X110.182 Y114.800 E0.1009
G1 X114.517 Y114.800 E0.2307
G1 X111.452 Y111.734 E0.3605
G1 X111.734 Y111.452 F4800
G92 E0.0000
G1 X114.800 Y114.517 E0.1298 F900
G1 X114.800 Y110.182 E0.2596
G1 X113.859 Y110.337 E0.2881
G1 X113.163 Y110.565 E0.3100
G1 X112.509 Y110.896 E0.3320
G1 X111.734 Y111.452 E0.3605
G92 E0.0000
G1 E-4.0000 F2400
G1 X115.200 Y110.182 F4800
G1 E0.0000 F2400
G92 E0.0000
G1 X115.200 Y114.517 E0.1298 F900
G1 X118.266 Y111.452 E0.2596
G1 X117.491 Y110.896 E0.2881
G1 X116.837 Y110.565 E0.3100
G1 X116.141 Y110.337 E0.3320
G1 X115.200 Y110.182 E0.3605
G1 X115.200 Y109.789 F4800
G92 E0.0000
G1 X116.041 Y109.906 E0.0254 F900
G1 X116.680 Y110.079 E0.0452
G1 X117.292 Y110.333 E0.0651
G1 X117.866 Y110.662 E0.0849
G1 X118.543 Y111.174 E0.1103
G1 X125.331 Y104.387 E0.3976
G1 X124.152 Y103.369 E0.4442
G1 X123.053 Y102.583 E0.4847
G1 X121.887 Y101.900 E0.5251
G1 X120.664 Y101.326 E0.5656
G1 X119.393 Y100.867 E0.6060
G1 X118.086 Y100.525 E0.6465
G1 X116.753 Y100.304 E0.6869
G1 X115.200 Y100.190 E0.7335
G1 X115.200 Y109.789 E1.0208
G1 X118.548 Y111.734 F4800
G92 E0.0000
G1 X115.483 Y114.800 E0.1298 F900
G1 X119.818 Y114.800 E0.2596
G1 X119.663 Y113.859 E0.2881
G1 X119.435 Y113.163 E0.3100
G1 X119.104 Y112.509 E0.3320
G1 X118.548 Y111.734 E0.3605
G1 X118.826 Y111.457 F4800
G92 E0.0000
G1 X119.338 Y112.134 E0.0254 F900
G1 X119.667 Y112.708 E0.0452
G1 X119.921 Y113.320 E0.0651
G1 X120.094 Y113.959 E0.0849
G1 X120.211 Y114.800 E0.1103
G1 X129.810 Y114.800 E0.3976
G1 X129.696 Y113.247 E0.4442
G1 X129.475 Y111.914 E0.4847
G1 X129.133 Y110.607 E0.5251
G1 X128.674 Y109.336 E0.5656
G1 X128.100 Y108.113 E0.6060
G1 X127.417 Y106.947 E0.6465
G1 X126.631 Y105.848 E0.6869
G1 X125.613 Y104.669 E0.7335
G1 X118.826 Y111.457 E1.0208
G1 X119.818 Y115.200 F4800
G92 E0.0000
G1 X115.483 Y115.200 E0.1298 F900
G1 X118.548 Y118.266 E0.2596
G1 X119.104 Y117.491 E0.2881
G1 X119.435 Y116.837 E0.3100
G1 X119.663 Y116.141 E0.3320
G1 X119.818 Y115.200 E0.3605
G1 X120.211 Y115.200 F4800
G92 E0.0000
G1 X120.094 Y116.041 E0.0254 F900
G1 X119.921 Y116.680 E0.0452
G1 X119.667 Y117.292 E0.0651
G1 X119.338 Y117.866 E0.0849
G1 X118.826 Y118.543 E0.1103
G1 X125.613 Y125.331 E0.3976
G1 X126.631 Y124.152 E0.4442
G1 X127.417 Y123.053 E0.4847
G1 X128.100 Y121.887 E0.5251
G1 X128.674 Y120.664 E0.5656
G1 X129.133 Y119.393 E0.6060
G1 X129.475 Y118.086 E0.6465
G1 X129.696 Y116.753 E0.6869
G1 X129.810 Y115.200 E0.7335
G1 X120.211 Y115.200 E1.0208
G1 X118.266 Y118.548 F4800
G92 E0.0000
G1 X115.200 Y115.483 E0.1298 F900
G1 X115.200 Y119.818 E0.2596
G1 X116.141 Y119.663 E0.2881
G1 X116.837 Y119.435 E0.3100
G1 X117.491 Y119.104 E0.3320
G1 X118.266 Y118.548 E0.3605
G1 X118.543 Y118.826 F4800
G92 E0.0000
G1 X117.866 Y119.338 E0.0254 F900
G1 X117.292 Y119.667 E0.0452
G1 X116.680 Y119.921 E0.0651
G1 X116.041 Y120.094 E0.0849
G1 X115.200 Y120.211 E0.1103
G1 X115.200 Y129.810 E0.3976
G1 X116.753 Y129.696 E0.4442
G1 X118.086 Y129.475 E0.4847
G1 X119.393 Y129.133 E0.5251
G1 X120.664 Y128.674 E0.5656
G1 X121.887 Y128.100 E0.6060
G1 X123.053 Y127.417 E0.6465
G1 X124.152 Y126.631 E0.6869
G1 X125.331 Y125.613 E0.7335
G1 X118.543 Y118.826 E1.0208
G1 X114.800 Y119.818 F4800
G92 E0.0000
G1 X114.800 Y115.483 E0.1298 F900
G1 X111.734 Y118.548 E0.2596
G1 X112.509 Y119.104 E0.2881
G1 X113.163 Y119.435 E0.3100
G1 X113.859 Y119.663 E0.3320
G1 X114.800 Y119.818 E0.3605
G1 X114.800 Y120.211 F4800
G92 E0.0000
G1 X113.959 Y120.094 E0.0254 F900
G1 X113.320 Y119.921 E0.0452
G1 X112.708 Y119.667 E0.0651
G1 X112.134 Y119.338 E0.0849
G1 X111.457 Y118.826 E0.1103
G1 X104.669 Y125.613 E0.3976
G1 X105.848 Y126.631 E0.4442
G1 X106.947 Y127.417 E0.4847
G1 X108.113 Y128.100 E0.5251
G1 X109.336 Y128.674 E0.5656
G1 X110.607 Y129.133 E0.6060
G1 X111.914 Y129.475 E0.6465
G1 X113.247 Y129.696 E0.6869
G1 X114.800 Y129.810 E0.7335
G1 X114.800 Y120.211 E1.0208
G1 X111.452 Y118.266 F4800
G92 E0.0000
