; G-Code generated by Simplify3D(R) Version 4.1.2
; May 26, 2020 at 6:13:35 PM
; Settings Summary
;   processName,Process1
;   applyToModels,xyzCalibration_cube
;   profileName,Creality Ender 3 Pro (BLTouch) (modified)
;   profileVersion,2019-04-06 08:00:00
;   baseProfile,Creality Ender 3 Pro (modified)
;   printMaterial,PLA
;   printQuality,High
;   printExtruders,
;   extruderName,Primary Extruder
;   extruderToolheadNumber,0
;   extruderDiameter,0.4
;   extruderAutoWidth,0
;   extruderWidth,0.4
;   extrusionMultiplier,0.9
;   extruderUseRetract,1
;   extruderRetractionDistance,6
;   extruderExtraRestartDistance,0
;   extruderRetractionZLift,0
;   extruderRetractionSpeed,2400
;   extruderUseCoasting,0
;   extruderCoastingDistance,0.2
;   extruderUseWipe,0
;   extruderWipeDistance,5
;   primaryExtruder,0
;   layerHeight,0.12
;   topSolidLayers,4
;   bottomSolidLayers,4
;   perimeterOutlines,2
;   printPerimetersInsideOut,0
;   startPointOption,2
;   startPointOriginX,0
;   startPointOriginY,0
;   sequentialIslands,0
;   spiralVaseMode,0
;   firstLayerHeightPercentage,120
;   firstLayerWidthPercentage,150
;   firstLayerUnderspeed,0.5
;   useRaft,0
;   raftExtruder,0
;   raftTopLayers,3
;   raftBaseLayers,2
;   raftOffset,3
;   raftSeparationDistance,0.14
;   raftTopInfill,100
;   aboveRaftSpeedMultiplier,0.3
;   useSkirt,1
;   skirtExtruder,0
;   skirtLayers,2
;   skirtOutlines,2
;   skirtOffset,4
;   usePrimePillar,0
;   primePillarExtruder,999
;   primePillarWidth,12
;   primePillarLocation,7
;   primePillarSpeedMultiplier,1
;   useOozeShield,0
;   oozeShieldExtruder,999
;   oozeShieldOffset,2
;   oozeShieldOutlines,1
;   oozeShieldSidewallShape,1
;   oozeShieldSidewallAngle,30
;   oozeShieldSpeedMultiplier,1
;   infillExtruder,0
;   internalInfillPattern,Rectilinear
;   externalInfillPattern,Rectilinear
;   infillPercentage,20
;   outlineOverlapPercentage,15
;   infillExtrusionWidthPercentage,100
;   minInfillLength,5
;   infillLayerInterval,1
;   internalInfillAngles,45,-45
;   overlapInternalInfillAngles,0
;   externalInfillAngles,45,-45
;   generateSupport,0
;   supportExtruder,0
;   supportInfillPercentage,40
;   supportExtraInflation,0
;   supportBaseLayers,0
;   denseSupportExtruder,0
;   denseSupportLayers,0
;   denseSupportInfillPercentage,70
;   supportLayerInterval,1
;   supportHorizontalPartOffset,0.3
;   supportUpperSeparationLayers,1
;   supportLowerSeparationLayers,1
;   supportType,0
;   supportGridSpacing,4
;   maxOverhangAngle,45
;   supportAngles,0
;   temperatureName,Primary Extruder,Heated Bed
;   temperatureNumber,0,0
;   temperatureSetpointCount,1,1
;   temperatureSetpointLayers,1,1
;   temperatureSetpointTemperatures,200,60
;   temperatureStabilizeAtStartup,1,1
;   temperatureHeatedBed,0,1
;   fanLayers,1,2
;   fanSpeeds,0,100
;   blipFanToFullPower,0
;   adjustSpeedForCooling,1
;   minSpeedLayerTime,15
;   minCoolingSpeedSlowdown,20
;   increaseFanForCooling,0
;   minFanLayerTime,45
;   maxCoolingFanSpeed,100
;   increaseFanForBridging,0
;   bridgingFanSpeed,100
;   use5D,1
;   relativeEdistances,0
;   allowEaxisZeroing,1
;   independentExtruderAxes,0
;   includeM10123,0
;   stickySupport,1
;   applyToolheadOffsets,0
;   gcodeXoffset,0
;   gcodeYoffset,0
;   gcodeZoffset,0
;   overrideMachineDefinition,1
;   machineTypeOverride,0
;   strokeXoverride,220
;   strokeYoverride,220
;   strokeZoverride,250
;   originOffsetXoverride,-5
;   originOffsetYoverride,-5
;   originOffsetZoverride,0
;   homeXdirOverride,-1
;   homeYdirOverride,-1
;   homeZdirOverride,-1
;   flipXoverride,1
;   flipYoverride,-1
;   flipZoverride,1
;   toolheadOffsets,0,0|0,0|0,0|0,0|0,0|0,0
;   overrideFirmwareConfiguration,1
;   firmwareTypeOverride,RepRap (Marlin/Repetier/Sprinter)
;   GPXconfigOverride,r2
;   baudRateOverride,115200
;   overridePrinterModels,1
;   printerModelsOverride
;   startingGcode,G28 ; home all axes,G29 ; Probe the Bed,G1 X5 Y10 Z0.2 F3000 ; get ready to prime,G92 E0 ; reset extrusion distance,G1 X160 E15 F600 ; prime nozzle,G1 X180 F5000 ; quick wipe
;   layerChangeGcode,
;   retractionGcode,
;   toolChangeGcode,
;   endingGcode,G28 X0 ; home X axis,M106 S0 ; turn off cooling fan,M104 S0 ; turn off extruder,M140 S0 ; turn off bed,M84 ; disable motors
;   exportFileFormat,gcode
;   celebration,0
;   celebrationSong,Random Song
;   postProcessing,
;   defaultSpeed,2400
;   outlineUnderspeed,0.5
;   solidInfillUnderspeed,0.8
;   supportUnderspeed,0.8
;   rapidXYspeed,4800
;   rapidZspeed,1000
;   minBridgingArea,50
;   bridgingExtraInflation,0
;   bridgingExtrusionMultiplier,1
;   bridgingSpeedMultiplier,1
;   useFixedBridgingAngle,0
;   fixedBridgingAngle,0
;   applyBridgingToPerimeters,0
;   filamentDiameters,1.75|1.75|1.75|1.75|1.75|1.75
;   filamentPricesPerKg,46|46|46|46|46|46
;   filamentDensities,1.25|1.25|1.25|1.25|1.25|1.25
;   useMinPrintHeight,0
;   minPrintHeight,0
;   useMaxPrintHeight,0
;   maxPrintHeight,0
;   useDiaphragm,0
;   diaphragmLayerInterval,20
;   robustSlicing,1
;   mergeAllIntoSolid,0
;   onlyRetractWhenCrossingOutline,1
;   retractBetweenLayers,0
;   useRetractionMinTravel,1
;   retractionMinTravel,3
;   retractWhileWiping,0
;   onlyWipeOutlines,1
;   avoidCrossingOutline,0
;   maxMovementDetourFactor,3
;   toolChangeRetractionDistance,12
;   toolChangeExtraRestartDistance,-0.5
;   toolChangeRetractionSpeed,600
;   externalThinWallType,0
;   internalThinWallType,2
;   thinWallAllowedOverlapPercentage,10
;   singleExtrusionMinLength,1
;   singleExtrusionMinPrintingWidthPercentage,50
;   singleExtrusionMaxPrintingWidthPercentage,200
;   singleExtrusionEndpointExtension,0.2
;   horizontalSizeCompensation,0
G90
M82
M106 S0
M140 S60
M190 S60
M104 S200 T0
M109 S200 T0
G28 ; home all axes
G29 ; Probe the Bed
G1 X5 Y10 Z0.2 F3000 ; get ready to prime
G92 E0 ; reset extrusion distance
G1 X160 E15 F600 ; prime nozzle
G1 X180 F5000 ; quick wipe
; process Process1
; layer 1, Z = 0.144
T0
G92 E0.0000
G1 E-6.0000 F2400
; feature skirt
; tool H0.144 W0.600
G1 Z0.144 F1000
G1 X100.100 Y102.970 F4800
G1 E0.0000 F2400
G92 E0.0000
G1 X102.970 Y100.100 E0.1312 F1200
G1 X127.030 Y100.100 E0.9090
G1 X129.900 Y102.970 E1.0403
G1 X129.900 Y127.030 E1.8181
G1 X127.030 Y129.900 E1.9493
G1 X102.970 Y129.900 E2.7271
G1 X100.100 Y127.030 E2.8584
G1 X100.100 Y102.970 E3.6362
G1 X100.700 Y103.219 F4800
G92 E0.0000
G1 X103.219 Y100.700 E0.1152 F1200
G1 X126.781 Y100.700 E0.8769
G1 X129.300 Y103.219 E0.9921
G1 X129.300 Y126.781 E1.7538
G1 X126.781 Y129.300 E1.8690
G1 X103.219 Y129.300 E2.6307
G1 X100.700 Y126.781 E2.7459
G1 X100.700 Y103.219 E3.5076
G92 E0.0000
G1 E-6.0000 F2400
; feature outer perimeter
G1 X105.300 Y105.300 F4800
G1 E0.0000 F2400
G92 E0.0000
G1 X124.700 Y105.300 E0.6272 F600
G1 X124.700 Y124.700 E1.2544
G1 X105.300 Y124.700 E1.8815
G1 X105.300 Y105.300 E2.5087
; feature inner perimeter
G1 X105.900 Y105.900 F4800
G92 E0.0000
G1 X124.100 Y105.900 E0.5884 F900
G1 X124.100 Y124.100 E1.1768
G1 X105.900 Y124.100 E1.7652
G1 X105.900 Y105.900 E2.3535
; feature solid layer
G1 X123.381 Y106.410 F4800
G92 E0.0000
G1 X123.590 Y106.619 E0.0096 F960
G1 X123.590 Y107.468 E0.0370
G1 X122.532 Y106.410 E0.0854
G1 X121.684 Y106.410 E0.1128
G1 X123.590 Y108.316 E0.2000
G1 X123.590 Y109.165 E0.2274
G1 X120.835 Y106.410 E0.3534
G1 X119.986 Y106.410 E0.3808
G1 X123.590 Y110.014 E0.5455
G1 X123.590 Y110.862 E0.5730
G1 X119.138 Y106.410 E0.7765
G1 X118.289 Y106.410 E0.8040
G1 X123.590 Y111.711 E1.0463
G1 X123.590 Y112.559 E1.0737
G1 X117.441 Y106.410 E1.3549
G1 X116.592 Y106.410 E1.3823
G1 X123.590 Y113.408 E1.7022
G1 X123.590 Y114.256 E1.7297
G1 X115.744 Y106.410 E2.0884
G1 X114.895 Y106.410 E2.1158
G1 X123.590 Y115.105 E2.5133
G1 X123.590 Y115.953 E2.5408
G1 X114.047 Y106.410 E2.9771
G1 X113.198 Y106.410 E3.0045
G1 X123.590 Y116.802 E3.4796
G1 X123.590 Y117.650 E3.5071
G1 X112.350 Y106.410 E4.0210
G1 X111.501 Y106.410 E4.0484
G1 X123.590 Y118.499 E4.6011
G1 X123.590 Y119.347 E4.6285
G1 X110.653 Y106.410 E5.2200
G1 X109.804 Y106.410 E5.2475
G1 X123.590 Y120.196 E5.8778
G1 X123.590 Y121.044 E5.9052
G1 X108.956 Y106.410 E6.5743
G1 X108.107 Y106.410 E6.6017
G1 X123.590 Y121.893 E7.3096
G1 X123.590 Y122.741 E7.3370
G1 X107.259 Y106.410 E8.0837
G1 X106.410 Y106.410 E8.1111
G1 X123.590 Y123.590 E8.8966
G1 X122.741 Y123.590 E8.9240
G1 X106.410 Y107.259 E9.6707
G1 X106.410 Y108.107 E9.6981
G1 X121.893 Y123.590 E10.4060
G1 X121.044 Y123.590 E10.4334
G1 X106.410 Y108.956 E11.1025
G1 X106.410 Y109.804 E11.1299
G1 X120.196 Y123.590 E11.7602
G1 X119.347 Y123.590 E11.7877
G1 X106.410 Y110.653 E12.3792
G1 X106.410 Y111.501 E12.4066
G1 X118.499 Y123.590 E12.9593
G1 X117.650 Y123.590 E12.9867
G1 X106.410 Y112.350 E13.5006
G1 X106.410 Y113.198 E13.5281
G1 X116.802 Y123.590 E14.0032
G1 X115.953 Y123.590 E14.0306
G1 X106.410 Y114.047 E14.4669
G1 X106.410 Y114.895 E14.4944
G1 X115.105 Y123.590 E14.8919
G1 X114.256 Y123.590 E14.9193
G1 X106.410 Y115.744 E15.2780
G1 X106.410 Y116.592 E15.3055
G1 X113.408 Y123.590 E15.6254
G1 X112.559 Y123.590 E15.6528
G1 X106.410 Y117.441 E15.9340
G1 X106.410 Y118.289 E15.9614
G1 X111.711 Y123.590 E16.2038
G1 X110.862 Y123.590 E16.2312
G1 X106.410 Y119.138 E16.4347
G1 X106.410 Y119.986 E16.4622
G1 X110.014 Y123.590 E16.6269
G1 X109.165 Y123.590 E16.6544
G1 X106.410 Y120.835 E16.7803
G1 X106.410 Y121.683 E16.8077
G1 X108.317 Y123.590 E16.8949
G1 X107.468 Y123.590 E16.9223
G1 X106.410 Y122.532 E16.9707
G1 X106.410 Y123.381 E16.9981
G1 X106.619 Y123.590 E17.0077
G92 E0.0000
G1 E-6.0000 F2400
; layer 2, Z = 0.264
M106 S255
; feature skirt
; tool H0.120 W0.400
G1 Z0.264 F1000
G1 X103.095 Y129.600 F4800
G1 E0.0000 F2400
G92 E0.0000
G1 X100.400 Y126.905 E0.0684 F2400
G1 X100.400 Y103.095 E0.4961
G1 X103.095 Y100.400 E0.5645
G1 X126.905 Y100.400 E0.9922
G1 X129.600 Y103.095 E1.0606
G1 X129.600 Y126.905 E1.4883
G1 X126.905 Y129.600 E1.5567
G1 X103.095 Y129.600 E1.9844
G1 X103.260 Y129.200 F4800
G92 E0.0000
G1 X100.800 Y126.740 E0.0625 F2400
G1 X100.800 Y103.260 E0.4842
G1 X103.260 Y100.800 E0.5467
G1 X126.740 Y100.800 E0.9684
G1 X129.200 Y103.260 E1.0309
G1 X129.200 Y126.740 E1.4526
G1 X126.740 Y129.200 E1.5151
G1 X103.260 Y129.200 E1.9368
G92 E0.0000
G1 E-6.0000 F2400
; feature outer perimeter
G1 X105.200 Y124.800 F4800
G1 E0.0000 F2400
G92 E0.0000
G1 X105.200 Y105.200 E0.3520 F1200
G1 X124.800 Y105.200 E0.7041
G1 X124.800 Y124.800 E1.0561
G1 X105.200 Y124.800 E1.4081
; feature inner perimeter
G1 X105.600 Y124.400 F4800
G92 E0.0000
G1 X105.600 Y105.600 E0.3377 F1800
G1 X124.400 Y105.600 E0.6753
G1 X124.400 Y124.400 E1.0130
G1 X105.600 Y124.400 E1.3506
; feature solid layer
G1 X105.940 Y105.958 F4800
G92 E0.0000
G1 X105.958 Y105.940 E0.0005 F1920
G1 X106.524 Y105.940 E0.0106
G1 X105.940 Y106.524 E0.0254
G1 X105.940 Y107.089 E0.0356
G1 X107.089 Y105.940 E0.0648
G1 X107.655 Y105.940 E0.0750
G1 X105.940 Y107.655 E0.1185
G1 X105.940 Y108.221 E0.1287
G1 X108.221 Y105.940 E0.1866
G1 X108.787 Y105.940 E0.1968
G1 X105.940 Y108.787 E0.2691
G1 X105.940 Y109.352 E0.2792
G1 X109.352 Y105.940 E0.3659
G1 X109.918 Y105.940 E0.3761
G1 X105.940 Y109.918 E0.4771
G1 X105.940 Y110.484 E0.4873
G1 X110.484 Y105.940 E0.6027
G1 X111.049 Y105.940 E0.6128
G1 X105.940 Y111.049 E0.7426
G1 X105.940 Y111.615 E0.7528
G1 X111.615 Y105.940 E0.8969
G1 X112.181 Y105.940 E0.9071
G1 X105.940 Y112.181 E1.0656
G1 X105.940 Y112.746 E1.0757
G1 X112.746 Y105.940 E1.2486
G1 X113.312 Y105.940 E1.2588
G1 X105.940 Y113.312 E1.4460
G1 X105.940 Y113.878 E1.4562
G1 X113.878 Y105.940 E1.6578
G1 X114.443 Y105.940 E1.6680
G1 X105.940 Y114.443 E1.8840
G1 X105.940 Y115.009 E1.8941
G1 X115.009 Y105.940 E2.1245
G1 X115.575 Y105.940 E2.1346
G1 X105.940 Y115.575 E2.3794
G1 X105.940 Y116.140 E2.3895
G1 X116.140 Y105.940 E2.6486
G1 X116.706 Y105.940 E2.6588
G1 X105.940 Y116.706 E2.9322
G1 X105.940 Y117.272 E2.9424
G1 X117.272 Y105.940 E3.2302
G1 X117.837 Y105.940 E3.2404
G1 X105.940 Y117.837 E3.5426
G1 X105.940 Y118.403 E3.5527
G1 X118.403 Y105.940 E3.8693
G1 X118.969 Y105.940 E3.8795
G1 X105.940 Y118.969 E4.2104
G1 X105.940 Y119.535 E4.2205
G1 X119.535 Y105.940 E4.5658
G1 X120.100 Y105.940 E4.5760
G1 X105.940 Y120.100 E4.9357
G1 X105.940 Y120.666 E4.9458
G1 X120.666 Y105.940 E5.3199
G1 X121.232 Y105.940 E5.3300
G1 X105.940 Y121.232 E5.7184
G1 X105.940 Y121.797 E5.7286
G1 X121.797 Y105.940 E6.1314
G1 X122.363 Y105.940 E6.1415
G1 X105.940 Y122.363 E6.5587
G1 X105.940 Y122.929 E6.5688
G1 X122.929 Y105.940 E7.0003
G1 X123.494 Y105.940 E7.0105
G1 X105.940 Y123.494 E7.4564
G1 X105.940 Y124.060 E7.4665
G1 X124.060 Y105.940 E7.9268
G1 X124.060 Y106.506 E7.9370
G1 X106.506 Y124.060 E8.3828
G1 X107.071 Y124.060 E8.3930
G1 X124.060 Y107.071 E8.8245
G1 X124.060 Y107.637 E8.8347
G1 X107.637 Y124.060 E9.2518
G1 X108.203 Y124.060 E9.2620
G1 X124.060 Y108.203 E9.6647
G1 X124.060 Y108.768 E9.6749
G1 X108.768 Y124.060 E10.0633
G1 X109.334 Y124.060 E10.0735
G1 X124.060 Y109.334 E10.4475
G1 X124.060 Y109.900 E10.4577
G1 X109.900 Y124.060 E10.8173
G1 X110.466 Y124.060 E10.8275
G1 X124.060 Y110.466 E11.1728
G1 X124.060 Y111.031 E11.1829
G1 X111.031 Y124.060 E11.5139
G1 X111.597 Y124.060 E11.5240
G1 X124.060 Y111.597 E11.8406
G1 X124.060 Y112.163 E11.8508
G1 X112.163 Y124.060 E12.1529
G1 X112.728 Y124.060 E12.1631
G1 X124.060 Y112.728 E12.4509
G1 X124.060 Y113.294 E12.4611
G1 X113.294 Y124.060 E12.7345
G1 X113.860 Y124.060 E12.7447
G1 X124.060 Y113.860 E13.0038
G1 X124.060 Y114.425 E13.0140
G1 X114.425 Y124.060 E13.2587
G1 X114.991 Y124.060 E13.2688
G1 X124.060 Y114.991 E13.4992
G1 X124.060 Y115.557 E13.5094
G1 X115.557 Y124.060 E13.7253
G1 X116.122 Y124.060 E13.7355
G1 X124.060 Y116.122 E13.9371
G1 X124.060 Y116.688 E13.9473
G1 X116.688 Y124.060 E14.1345
G1 X117.254 Y124.060 E14.1447
G1 X124.060 Y117.254 E14.3176
G1 X124.060 Y117.819 E14.3277
G1 X117.819 Y124.060 E14.4862
G1 X118.385 Y124.060 E14.4964
G1 X124.060 Y118.385 E14.6405
G1 X124.060 Y118.951 E14.6507
G1 X118.951 Y124.060 E14.7805
G1 X119.516 Y124.060 E14.7906
G1 X124.060 Y119.516 E14.9060
G1 X124.060 Y120.082 E14.9162
G1 X120.082 Y124.060 E15.0172
G1 X120.648 Y124.060 E15.0274
G1 X124.060 Y120.648 E15.1141
G1 X124.060 Y121.214 E15.1242
G1 X121.214 Y124.060 E15.1965
G1 X121.779 Y124.060 E15.2067
G1 X124.060 Y121.779 E15.2646
G1 X124.060 Y122.345 E15.2748
G1 X122.345 Y124.060 E15.3183
G1 X122.911 Y124.060 E15.3285
G1 X124.060 Y122.911 E15.3577
G1 X124.060 Y123.476 E15.3678
G1 X123.476 Y124.060 E15.3827
G1 X124.042 Y124.060 E15.3928
G1 X124.060 Y124.042 E15.3933
; layer 3, Z = 0.384
; feature outer perimeter
G1 Z0.384 F1000
G1 X124.800 Y124.800 F4800
G92 E0.0000
G1 X105.200 Y124.800 E0.3520 F1200
G1 X105.200 Y105.200 E0.7041
G1 X124.800 Y105.200 E1.0561
G1 X124.800 Y124.800 E1.4081
; feature inner perimeter
G1 X124.400 Y124.400 F4800
G92 E0.0000
G1 X105.600 Y124.400 E0.3377 F1800
G1 X105.600 Y105.600 E0.6753
G1 X124.400 Y105.600 E1.0130
G1 X124.400 Y124.400 E1.3506
; feature solid layer
G1 X105.958 Y124.060 F4800
G92 E0.0000
G1 X105.940 Y124.042 E0.0005 F1920
G1 X105.940 Y123.476 E0.0106
G1 X106.524 Y124.060 E0.0254
G1 X107.089 Y124.060 E0.0356
G1 X105.940 Y122.911 E0.0648
G1 X105.940 Y122.345 E0.0750
G1 X107.655 Y124.060 E0.1185
G1 X108.221 Y124.060 E0.1287
G1 X105.940 Y121.779 E0.1866
G1 X105.940 Y121.213 E0.1968
G1 X108.787 Y124.060 E0.2691
G1 X109.352 Y124.060 E0.2792
G1 X105.940 Y120.648 E0.3659
G1 X105.940 Y120.082 E0.3761
G1 X109.918 Y124.060 E0.4771
G1 X110.484 Y124.060 E0.4873
G1 X105.940 Y119.516 E0.6027
G1 X105.940 Y118.951 E0.6128
G1 X111.049 Y124.060 E0.7426
G1 X111.615 Y124.060 E0.7528
G1 X105.940 Y118.385 E0.8969
G1 X105.940 Y117.819 E0.9071
G1 X112.181 Y124.060 E1.0656
G1 X112.746 Y124.060 E1.0757
G1 X105.940 Y117.254 E1.2486
G1 X105.940 Y116.688 E1.2588
G1 X113.312 Y124.060 E1.4460
G1 X113.878 Y124.060 E1.4562
G1 X105.940 Y116.122 E1.6578
G1 X105.940 Y115.557 E1.6680
G1 X114.443 Y124.060 E1.8840
G1 X115.009 Y124.060 E1.8941
G1 X105.940 Y114.991 E2.1245
G1 X105.940 Y114.425 E2.1346
G1 X115.575 Y124.060 E2.3793
G1 X116.140 Y124.060 E2.3895
G1 X105.940 Y113.860 E2.6486
