; G-Code generated by Simplify3D(R) Version 4.1.2
; Apr 27, 2020 at 4:55:24 PM
; Settings Summary
;   processName,Process1
;   applyToModels,Surgical_Mask_Strap_Remix_0
;   profileName,Creality Ender 3 Pro (Mask 2.1) (modified)
;   profileVersion,2020-04-09 09:08:56
;   baseProfile,Creality Ender 3 Pro (modified)
;   printMaterial,PLA
;   printQuality,MASK-2.1
;   printExtruders,
;   extruderName,Primary Extruder
;   extruderToolheadNumber,0
;   extruderDiameter,0.4
;   extruderAutoWidth,0
;   extruderWidth,0.5
;   extrusionMultiplier,0.9
;   extruderUseRetract,1
;   extruderRetractionDistance,6
;   extruderExtraRestartDistance,0
;   extruderRetractionZLift,0
;   extruderRetractionSpeed,1500
;   extruderUseCoasting,0
;   extruderCoastingDistance,0.2
;   extruderUseWipe,0
;   extruderWipeDistance,5
;   primaryExtruder,0
;   layerHeight,0.2
;   topSolidLayers,4
;   bottomSolidLayers,4
;   perimeterOutlines,3
;   printPerimetersInsideOut,0
;   startPointOption,2
;   startPointOriginX,0
;   startPointOriginY,0
;   sequentialIslands,0
;   spiralVaseMode,0
;   firstLayerHeightPercentage,100
;   firstLayerWidthPercentage,100
;   firstLayerUnderspeed,0.5
;   useRaft,0
;   raftExtruder,0
;   raftTopLayers,3
;   raftBaseLayers,2
;   raftOffset,3
;   raftSeparationDistance,0.14
;   raftTopInfill,100
;   aboveRaftSpeedMultiplier,0.3
;   useSkirt,0
;   skirtExtruder,0
;   skirtLayers,1
;   skirtOutlines,2
;   skirtOffset,4
;   usePrimePillar,0
;   primePillarExtruder,999
;   primePillarWidth,12
;   primePillarLocation,7
;   primePillarSpeedMultiplier,1
;   useOozeShield,0
;   oozeShieldExtruder,999
;   oozeShieldOffset,2
;   oozeShieldOutlines,1
;   oozeShieldSidewallShape,1
;   oozeShieldSidewallAngle,30
;   oozeShieldSpeedMultiplier,1
;   infillExtruder,0
;   internalInfillPattern,Rectilinear
;   externalInfillPattern,Rectilinear
;   infillPercentage,50
;   outlineOverlapPercentage,15
;   infillExtrusionWidthPercentage,100
;   minInfillLength,5
;   infillLayerInterval,1
;   internalInfillAngles,45,-45
;   overlapInternalInfillAngles,0
;   externalInfillAngles,45,-45
;   generateSupport,0
;   supportExtruder,0
;   supportInfillPercentage,25
;   supportExtraInflation,0
;   supportBaseLayers,0
;   denseSupportExtruder,0
;   denseSupportLayers,0
;   denseSupportInfillPercentage,70
;   supportLayerInterval,1
;   supportHorizontalPartOffset,0.3
;   supportUpperSeparationLayers,1
;   supportLowerSeparationLayers,1
;   supportType,0
;   supportGridSpacing,4
;   maxOverhangAngle,45
;   supportAngles,0
;   temperatureName,Primary Extruder,Heated Bed
;   temperatureNumber,0,0
;   temperatureSetpointCount,1,1
;   temperatureSetpointLayers,1,1
;   temperatureSetpointTemperatures,200,60
;   temperatureStabilizeAtStartup,1,1
;   temperatureHeatedBed,0,1
;   fanLayers,1,2
;   fanSpeeds,0,100
;   blipFanToFullPower,0
;   adjustSpeedForCooling,1
;   minSpeedLayerTime,15
;   minCoolingSpeedSlowdown,20
;   increaseFanForCooling,0
;   minFanLayerTime,45
;   maxCoolingFanSpeed,100
;   increaseFanForBridging,0
;   bridgingFanSpeed,100
;   use5D,1
;   relativeEdistances,0
;   allowEaxisZeroing,1
;   independentExtruderAxes,0
;   includeM10123,0
;   stickySupport,1
;   applyToolheadOffsets,0
;   gcodeXoffset,0
;   gcodeYoffset,0
;   gcodeZoffset,0
;   overrideMachineDefinition,1
;   machineTypeOverride,0
;   strokeXoverride,220
;   strokeYoverride,220
;   strokeZoverride,250
;   originOffsetXoverride,-5
;   originOffsetYoverride,-5
;   originOffsetZoverride,0
;   homeXdirOverride,-1
;   homeYdirOverride,-1
;   homeZdirOverride,-1
;   flipXoverride,1
;   flipYoverride,-1
;   flipZoverride,1
;   toolheadOffsets,0,0|0,0|0,0|0,0|0,0|0,0
;   overrideFirmwareConfiguration,1
;   firmwareTypeOverride,RepRap (Marlin/Repetier/Sprinter)
;   GPXconfigOverride,r2
;   baudRateOverride,115200
;   overridePrinterModels,1
;   printerModelsOverride
;   startingGcode,G28 ; home all axes,G1 X5 Y10 Z0.2 F3000 ; get ready to prime,G92 E0 ; reset extrusion distance,G1 X160 E15 F600 ; prime nozzle,G1 X180 F5000 ; quick wipe
;   layerChangeGcode,
;   retractionGcode,
;   toolChangeGcode,
;   endingGcode,G28 X0 ; home X axis,M106 S0 ; turn off cooling fan,M104 S0 ; turn off extruder,M140 S0 ; turn off bed,M84 ; disable motors
;   exportFileFormat,gcode
;   celebration,0
;   celebrationSong,Random Song
;   postProcessing,
;   defaultSpeed,3000
;   outlineUnderspeed,0.75
;   solidInfillUnderspeed,0.8
;   supportUnderspeed,0.8
;   rapidXYspeed,4800
;   rapidZspeed,1000
;   minBridgingArea,50
;   bridgingExtraInflation,0
;   bridgingExtrusionMultiplier,1
;   bridgingSpeedMultiplier,1
;   useFixedBridgingAngle,0
;   fixedBridgingAngle,0
;   applyBridgingToPerimeters,0
;   filamentDiameters,1.75|1.75|1.75|1.75|1.75|1.75
;   filamentPricesPerKg,25|46|46|46|46|46
;   filamentDensities,1.25|1.25|1.25|1.25|1.25|1.25
;   useMinPrintHeight,0
;   minPrintHeight,9
;   useMaxPrintHeight,0
;   maxPrintHeight,9
;   useDiaphragm,0
;   diaphragmLayerInterval,20
;   robustSlicing,1
;   mergeAllIntoSolid,0
;   onlyRetractWhenCrossingOutline,1
;   retractBetweenLayers,1
;   useRetractionMinTravel,1
;   retractionMinTravel,3
;   retractWhileWiping,0
;   onlyWipeOutlines,1
;   avoidCrossingOutline,0
;   maxMovementDetourFactor,3
;   toolChangeRetractionDistance,12
;   toolChangeExtraRestartDistance,-0.5
;   toolChangeRetractionSpeed,600
;   externalThinWallType,0
;   internalThinWallType,2
;   thinWallAllowedOverlapPercentage,10
;   singleExtrusionMinLength,1
;   singleExtrusionMinPrintingWidthPercentage,50
;   singleExtrusionMaxPrintingWidthPercentage,200
;   singleExtrusionEndpointExtension,0.2
;   horizontalSizeCompensation,0
G90
M82
M106 S0
M140 S60 ; set the bed temperature
G28 ; home all axes
M190 S60 ; wait for bed temperature
G29 ; Mesh Generation
M104 S200 T0 ; set the hot end temperature
M109 S200 T0 ; wait for hot end temperature
G1 X5 Y10 Z0.2 F3000 ; get ready to prime
G92 E0 ; reset extrusion distance
G1 X160 E15 F600 ; prime nozzle
G1 X180 F5000 ; quick wipe
; process Process1
; layer 1, Z = 0.200
T0
G92 E0.0000
G1 E-6.0000 F1500
; feature outer perimeter
; tool H0.200 W0.500
G1 Z0.200 F1000
G1 X34.806 Y104.771 F4800
G1 E0.0000 F1500
G92 E0.0000
G1 X35.427 Y104.411 E0.0269 F1125
G1 X36.158 Y104.227 E0.0551
G1 X36.838 Y104.227 E0.0805
G1 X37.532 Y104.410 E0.1074
G1 X38.152 Y104.771 E0.1342
G1 X38.660 Y105.277 E0.1610
G1 X39.019 Y105.899 E0.1879
G1 X39.204 Y106.592 E0.2148
G1 X39.204 Y107.308 E0.2416
G1 X39.019 Y108.003 E0.2684
G1 X38.660 Y108.623 E0.2953
G1 X38.153 Y109.131 E0.3221
G1 X37.532 Y109.488 E0.3489
G1 X36.593 Y109.738 E0.3853
G1 X36.805 Y111.331 E0.4454
G1 X46.225 Y110.094 E0.8009
G1 X45.652 Y105.759 E0.9645
G1 X45.652 Y105.026 E0.9920
G1 X45.839 Y104.331 E1.0189
G1 X46.196 Y103.711 E1.0457
G1 X46.705 Y103.203 E1.0726
G1 X47.325 Y102.844 E1.0994
G1 X48.019 Y102.659 E1.1262
G1 X48.737 Y102.659 E1.1531
G1 X49.427 Y102.844 E1.1799
G1 X50.048 Y103.203 E1.2067
G1 X50.556 Y103.711 E1.2336
G1 X50.915 Y104.332 E1.2604
G1 X51.102 Y105.026 E1.2873
G1 X51.102 Y105.742 E1.3141
G1 X50.915 Y106.434 E1.3409
G1 X50.556 Y107.057 E1.3678
G1 X50.049 Y107.563 E1.3946
G1 X49.427 Y107.922 E1.4215
G1 X48.494 Y108.172 E1.4577
G1 X48.703 Y109.769 E1.5179
G1 X58.123 Y108.532 E1.8734
G1 X57.550 Y104.193 E2.0372
G1 X57.550 Y103.460 E2.0646
G1 X57.735 Y102.765 E2.0915
G1 X58.094 Y102.145 E2.1184
G1 X58.602 Y101.637 E2.1452
G1 X59.222 Y101.278 E2.1721
G1 X59.917 Y101.093 E2.1989
G1 X60.633 Y101.093 E2.2257
G1 X61.326 Y101.278 E2.2526
G1 X61.948 Y101.637 E2.2795
G1 X62.454 Y102.144 E2.3063
G1 X62.813 Y102.765 E2.3331
G1 X62.998 Y103.460 E2.3600
G1 X62.998 Y104.176 E2.3868
G1 X62.813 Y104.869 E2.4136
G1 X62.454 Y105.490 E2.4405
G1 X61.948 Y105.997 E2.4673
G1 X61.325 Y106.356 E2.4942
G1 X60.389 Y106.609 E2.5304
G1 X60.601 Y108.207 E2.5908
G1 X70.018 Y106.970 E2.9462
G1 X69.448 Y102.625 E3.1102
G1 X69.448 Y101.892 E3.1376
G1 X69.635 Y101.199 E3.1644
G1 X69.992 Y100.578 E3.1913
G1 X70.500 Y100.071 E3.2181
G1 X71.120 Y99.712 E3.2449
G1 X71.813 Y99.527 E3.2718
G1 X72.531 Y99.527 E3.2986
G1 X73.224 Y99.712 E3.3254
G1 X73.845 Y100.071 E3.3523
G1 X74.354 Y100.579 E3.3792
G1 X74.711 Y101.199 E3.4060
G1 X74.898 Y101.892 E3.4328
G1 X74.898 Y102.608 E3.4596
G1 X74.711 Y103.303 E3.4865
G1 X74.354 Y103.923 E3.5133
G1 X73.845 Y104.431 E3.5402
G1 X73.224 Y104.790 E3.5671
G1 X72.288 Y105.040 E3.6033
G1 X72.499 Y106.645 E3.6639
G1 X92.472 Y104.022 E4.4177
G1 X93.784 Y100.853 E4.5460
G1 X94.220 Y100.285 E4.5728
G1 X94.790 Y99.847 E4.5997
G1 X95.451 Y99.573 E4.6265
G1 X96.180 Y99.479 E4.6540
G1 X133.820 Y99.479 E6.0624
G1 X134.549 Y99.573 E6.0899
G1 X135.210 Y99.847 E6.1167
G1 X135.780 Y100.285 E6.1436
G1 X136.216 Y100.853 E6.1703
G1 X137.528 Y104.022 E6.2987
G1 X157.501 Y106.645 E7.0525
G1 X157.712 Y105.040 E7.1130
G1 X156.776 Y104.790 E7.1493
G1 X156.153 Y104.431 E7.1762
G1 X155.646 Y103.924 E7.2030
G1 X155.289 Y103.303 E7.2298
G1 X155.104 Y102.608 E7.2567
G1 X155.104 Y101.892 E7.2835
G1 X155.289 Y101.199 E7.3104
G1 X155.646 Y100.578 E7.3372
G1 X156.153 Y100.071 E7.3640
G1 X156.776 Y99.712 E7.3909
G1 X157.469 Y99.527 E7.4177
G1 X158.187 Y99.527 E7.4446
G1 X158.880 Y99.712 E7.4714
G1 X159.500 Y100.071 E7.4983
G1 X160.008 Y100.578 E7.5251
G1 X160.365 Y101.199 E7.5519
G1 X160.552 Y101.892 E7.5788
G1 X160.552 Y102.625 E7.6062
G1 X159.982 Y106.970 E7.7702
G1 X169.399 Y108.207 E8.1256
G1 X169.611 Y106.609 E8.1859
G1 X168.675 Y106.356 E8.2222
G1 X168.052 Y105.997 E8.2491
G1 X167.546 Y105.490 E8.2759
G1 X167.187 Y104.869 E8.3027
G1 X167.002 Y104.176 E8.3296
G1 X167.002 Y103.460 E8.3564
G1 X167.187 Y102.765 E8.3833
G1 X167.546 Y102.144 E8.4101
G1 X168.052 Y101.637 E8.4369
G1 X168.674 Y101.278 E8.4638
G1 X169.367 Y101.093 E8.4906
G1 X170.083 Y101.093 E8.5174
G1 X170.778 Y101.278 E8.5443
G1 X171.398 Y101.637 E8.5711
G1 X171.906 Y102.145 E8.5980
G1 X172.265 Y102.765 E8.6248
G1 X172.450 Y103.460 E8.6517
G1 X172.450 Y104.193 E8.6791
G1 X171.877 Y108.532 E8.8429
G1 X181.297 Y109.769 E9.1984
G1 X181.506 Y108.172 E9.2587
G1 X180.571 Y107.922 E9.2950
G1 X179.951 Y107.563 E9.3217
G1 X179.442 Y107.057 E9.3486
G1 X179.085 Y106.435 E9.3754
G1 X178.898 Y105.742 E9.4023
G1 X178.898 Y105.026 E9.4291
G1 X179.085 Y104.331 E9.4560
G1 X179.442 Y103.711 E9.4828
G1 X179.951 Y103.203 E9.5097
G1 X180.571 Y102.844 E9.5365
G1 X181.263 Y102.659 E9.5633
G1 X181.983 Y102.659 E9.5902
G1 X182.675 Y102.844 E9.6171
G1 X183.294 Y103.203 E9.6438
G1 X183.802 Y103.711 E9.6707
G1 X184.161 Y104.332 E9.6975
G1 X184.348 Y105.026 E9.7244
G1 X184.348 Y105.759 E9.7519
G1 X183.778 Y110.094 E9.9155
G1 X193.197 Y111.331 E10.2710
G1 X193.406 Y109.738 E10.3311
G1 X192.468 Y109.488 E10.3675
G1 X191.847 Y109.131 E10.3942
G1 X191.340 Y108.623 E10.4211
G1 X190.981 Y108.003 E10.4479
G1 X190.796 Y107.308 E10.4748
G1 X190.796 Y106.592 E10.5016
G1 X190.981 Y105.899 E10.5284
G1 X191.340 Y105.277 E10.5553
G1 X191.848 Y104.771 E10.5822
G1 X192.468 Y104.410 E10.6090
G1 X193.162 Y104.227 E10.6359
G1 X193.879 Y104.227 E10.6627
G1 X194.572 Y104.410 E10.6895
G1 X195.194 Y104.771 E10.7164
G1 X195.700 Y105.276 E10.7432
G1 X196.059 Y105.899 E10.7701
G1 X196.244 Y106.592 E10.7969
G1 X196.244 Y107.325 E10.8243
G1 X193.504 Y128.140 E11.6099
G1 X193.315 Y128.851 E11.6374
G1 X192.956 Y129.471 E11.6642
G1 X192.448 Y129.979 E11.6911
G1 X191.828 Y130.338 E11.7179
G1 X191.134 Y130.521 E11.7448
G1 X190.417 Y130.521 E11.7716
G1 X189.724 Y130.338 E11.7984
G1 X189.102 Y129.979 E11.8253
G1 X188.596 Y129.472 E11.8521
G1 X188.237 Y128.851 E11.8790
G1 X188.052 Y128.156 E11.9058
G1 X188.052 Y127.438 E11.9327
G1 X188.237 Y126.747 E11.9595
G1 X188.596 Y126.124 E11.9864
G1 X189.102 Y125.619 E12.0131
G1 X189.724 Y125.258 E12.0401
G1 X190.417 Y125.075 E12.0668
G1 X191.385 Y125.075 E12.1031
G1 X191.643 Y123.140 E12.1761
G1 X182.223 Y121.905 E12.5316
G1 X181.606 Y126.574 E12.7079
G1 X181.417 Y127.283 E12.7353
G1 X181.058 Y127.905 E12.7622
G1 X180.551 Y128.411 E12.7890
G1 X179.930 Y128.770 E12.8158
G1 X179.237 Y128.955 E12.8427
G1 X178.521 Y128.955 E12.8695
G1 X177.826 Y128.770 E12.8964
G1 X177.205 Y128.411 E12.9232
G1 X176.698 Y127.905 E12.9500
G1 X176.339 Y127.283 E12.9769
G1 X176.154 Y126.590 E13.0037
G1 X176.154 Y125.874 E13.0305
G1 X176.339 Y125.179 E13.0574
G1 X176.698 Y124.559 E13.0842
G1 X177.206 Y124.051 E13.1111
G1 X177.826 Y123.692 E13.1379
G1 X178.521 Y123.507 E13.1648
G1 X179.489 Y123.507 E13.2011
G1 X179.745 Y121.578 E13.2739
G1 X170.323 Y120.343 E13.6294
G1 X169.710 Y125.008 E13.8055
G1 X169.519 Y125.716 E13.8330
G1 X169.162 Y126.337 E13.8598
G1 X168.653 Y126.845 E13.8867
G1 X168.033 Y127.204 E13.9135
G1 X167.339 Y127.391 E13.9404
G1 X166.621 Y127.391 E13.9672
G1 X165.929 Y127.204 E13.9941
G1 X165.308 Y126.845 E14.0209
G1 X164.800 Y126.338 E14.0478
G1 X164.443 Y125.716 E14.0746
G1 X164.256 Y125.024 E14.1014
G1 X164.256 Y124.308 E14.1282
G1 X164.443 Y123.613 E14.1551
G1 X164.800 Y122.992 E14.1819
G1 X165.308 Y122.485 E14.2088
G1 X165.928 Y122.126 E14.2356
G1 X166.621 Y121.941 E14.2624
G1 X167.591 Y121.941 E14.2987
G1 X167.844 Y120.016 E14.3714
G1 X158.425 Y118.779 E14.7269
G1 X157.810 Y123.442 E14.9029
G1 X157.623 Y124.151 E14.9303
G1 X157.264 Y124.771 E14.9571
G1 X156.756 Y125.279 E14.9840
G1 X156.136 Y125.638 E15.0108
G1 X155.441 Y125.823 E15.0377
G1 X154.723 Y125.823 E15.0646
G1 X154.032 Y125.638 E15.0913
G1 X153.410 Y125.279 E15.1182
G1 X152.904 Y124.772 E15.1450
G1 X152.545 Y124.150 E15.1719
G1 X152.358 Y123.458 E15.1987
G1 X152.358 Y122.740 E15.2256
G1 X152.545 Y122.048 E15.2524
G1 X152.904 Y121.426 E15.2793
G1 X153.410 Y120.919 E15.3061
G1 X154.032 Y120.560 E15.3330
G1 X154.723 Y120.375 E15.3597
G1 X155.693 Y120.375 E15.3960
G1 X155.947 Y118.454 E15.4685
G1 X139.930 Y116.351 E16.0730
G1 X139.920 Y116.803 E16.0899
G1 X139.882 Y117.110 E16.1015
G1 X139.805 Y117.371 E16.1117
G1 X139.690 Y117.591 E16.1209
G1 X139.536 Y117.779 E16.1301
G1 X139.339 Y117.941 E16.1396
G1 X139.232 Y118.004 E16.1442
G1 X138.957 Y118.124 E16.1555
G1 X138.812 Y118.168 E16.1611
G1 X138.462 Y118.239 E16.1745
G1 X138.065 Y118.275 E16.1894
G1 X91.935 Y118.275 E17.9155
G1 X91.538 Y118.239 E17.9304
G1 X91.187 Y118.168 E17.9438
G1 X91.043 Y118.124 E17.9495
G1 X90.766 Y118.004 E17.9607
G1 X90.662 Y117.942 E17.9653
G1 X90.464 Y117.780 E17.9748
G1 X90.312 Y117.591 E17.9839
G1 X90.195 Y117.370 E17.9933
G1 X90.118 Y117.110 E18.0034
G1 X90.080 Y116.804 E18.0150
G1 X90.075 Y116.350 E18.0319
G1 X74.053 Y118.454 E18.6366
G1 X74.307 Y120.375 E18.7091
G1 X75.275 Y120.375 E18.7453
G1 X75.968 Y120.560 E18.7721
G1 X76.591 Y120.919 E18.7990
G1 X77.098 Y121.427 E18.8259
G1 X77.457 Y122.047 E18.8527
G1 X77.642 Y122.740 E18.8796
G1 X77.642 Y123.458 E18.9064
G1 X77.457 Y124.151 E18.9332
G1 X77.098 Y124.771 E18.9601
G1 X76.591 Y125.279 E18.9869
G1 X75.968 Y125.638 E19.0138
G1 X75.275 Y125.823 E19.0407
G1 X74.559 Y125.823 E19.0675
G1 X73.866 Y125.638 E19.0943
G1 X73.244 Y125.279 E19.1212
G1 X72.738 Y124.771 E19.1480
G1 X72.377 Y124.151 E19.1749
G1 X72.190 Y123.442 E19.2023
G1 X71.575 Y118.779 E19.3783
G1 X62.156 Y120.016 E19.7338
G1 X62.409 Y121.941 E19.8064
G1 X63.379 Y121.941 E19.8427
G1 X64.072 Y122.126 E19.8696
G1 X64.692 Y122.485 E19.8964
G1 X65.200 Y122.992 E19.9232
G1 X65.557 Y123.613 E19.9501
G1 X65.744 Y124.308 E19.9770
G1 X65.744 Y125.024 E20.0038
G1 X65.557 Y125.716 E20.0306
G1 X65.200 Y126.338 E20.0574
G1 X64.692 Y126.845 E20.0843
G1 X64.071 Y127.204 E20.1111
G1 X63.379 Y127.391 E20.1379
G1 X62.661 Y127.391 E20.1648
G1 X61.967 Y127.204 E20.1917
G1 X61.347 Y126.845 E20.2185
G1 X60.838 Y126.337 E20.2454
G1 X60.481 Y125.717 E20.2722
G1 X60.290 Y125.008 E20.2997
G1 X59.677 Y120.343 E20.4757
G1 X50.258 Y121.578 E20.8312
G1 X50.511 Y123.507 E20.9040
G1 X51.479 Y123.507 E20.9403
G1 X52.174 Y123.692 E20.9671
G1 X52.794 Y124.051 E20.9940
G1 X53.302 Y124.559 E21.0208
G1 X53.661 Y125.179 E21.0477
G1 X53.846 Y125.874 E21.0746
G1 X53.846 Y126.590 E21.1014
G1 X53.661 Y127.283 E21.1282
G1 X53.302 Y127.905 E21.1551
G1 X52.795 Y128.411 E21.1819
G1 X52.174 Y128.770 E21.2087
G1 X51.479 Y128.955 E21.2356
G1 X50.763 Y128.955 E21.2624
