; G-Code generated by Simplify3D(R) Version 4.1.2
; Apr 11, 2020 at 7:40:31 AM
; Settings Summary
;   processName,Process1
;   applyToModels,Surgical_Mask_Strap_Remix_0,Surgical_Mask_Strap_Remix_0(2),Surgical_Mask_Strap_Remix_0(6),Surgical_Mask_Strap_Remix_0(7),Surgical_Mask_Strap_Remix_0(8),Surgical_Mask_Strap_Remix_0(9),Surgical_Mask_Strap_Remix_0(10),Surgical_Mask_Strap_Remix_0(2)(2)
;   profileName,Creality Ender 3 Pro (Mask 2.3) (modified)
;   profileVersion,2020-04-10 20:01:48
;   baseProfile,Creality Ender 3 Pro (modified)
;   printMaterial,PLA
;   printQuality,STRAP-2.3
;   printExtruders,
;   extruderName,Primary Extruder
;   extruderToolheadNumber,0
;   extruderDiameter,0.4
;   extruderAutoWidth,0
;   extruderWidth,0.6
;   extrusionMultiplier,0.9
;   extruderUseRetract,1
;   extruderRetractionDistance,6
;   extruderExtraRestartDistance,0
;   extruderRetractionZLift,0
;   extruderRetractionSpeed,1500
;   extruderUseCoasting,0
;   extruderCoastingDistance,0.2
;   extruderUseWipe,0
;   extruderWipeDistance,5
;   primaryExtruder,0
;   layerHeight,0.2
;   topSolidLayers,4
;   bottomSolidLayers,4
;   perimeterOutlines,2
;   printPerimetersInsideOut,0
;   startPointOption,2
;   startPointOriginX,0
;   startPointOriginY,0
;   sequentialIslands,0
;   spiralVaseMode,0
;   firstLayerHeightPercentage,120
;   firstLayerWidthPercentage,110
;   firstLayerUnderspeed,0.5
;   useRaft,0
;   raftExtruder,0
;   raftTopLayers,3
;   raftBaseLayers,2
;   raftOffset,3
;   raftSeparationDistance,0.14
;   raftTopInfill,100
;   aboveRaftSpeedMultiplier,0.3
;   useSkirt,0
;   skirtExtruder,0
;   skirtLayers,1
;   skirtOutlines,2
;   skirtOffset,4
;   usePrimePillar,0
;   primePillarExtruder,999
;   primePillarWidth,12
;   primePillarLocation,7
;   primePillarSpeedMultiplier,1
;   useOozeShield,0
;   oozeShieldExtruder,999
;   oozeShieldOffset,2
;   oozeShieldOutlines,1
;   oozeShieldSidewallShape,1
;   oozeShieldSidewallAngle,30
;   oozeShieldSpeedMultiplier,1
;   infillExtruder,0
;   internalInfillPattern,Rectilinear
;   externalInfillPattern,Rectilinear
;   infillPercentage,50
;   outlineOverlapPercentage,15
;   infillExtrusionWidthPercentage,100
;   minInfillLength,5
;   infillLayerInterval,1
;   internalInfillAngles,45,-45
;   overlapInternalInfillAngles,0
;   externalInfillAngles,45,-45
;   generateSupport,0
;   supportExtruder,0
;   supportInfillPercentage,25
;   supportExtraInflation,0
;   supportBaseLayers,0
;   denseSupportExtruder,0
;   denseSupportLayers,0
;   denseSupportInfillPercentage,70
;   supportLayerInterval,1
;   supportHorizontalPartOffset,0.3
;   supportUpperSeparationLayers,1
;   supportLowerSeparationLayers,1
;   supportType,0
;   supportGridSpacing,4
;   maxOverhangAngle,45
;   supportAngles,0
;   temperatureName,Primary Extruder,Heated Bed
;   temperatureNumber,0,0
;   temperatureSetpointCount,1,1
;   temperatureSetpointLayers,1,1
;   temperatureSetpointTemperatures,200,60
;   temperatureStabilizeAtStartup,1,1
;   temperatureHeatedBed,0,1
;   fanLayers,1,2
;   fanSpeeds,0,100
;   blipFanToFullPower,0
;   adjustSpeedForCooling,1
;   minSpeedLayerTime,15
;   minCoolingSpeedSlowdown,20
;   increaseFanForCooling,0
;   minFanLayerTime,45
;   maxCoolingFanSpeed,100
;   increaseFanForBridging,0
;   bridgingFanSpeed,100
;   use5D,1
;   relativeEdistances,0
;   allowEaxisZeroing,1
;   independentExtruderAxes,0
;   includeM10123,0
;   stickySupport,1
;   applyToolheadOffsets,0
;   gcodeXoffset,0
;   gcodeYoffset,0
;   gcodeZoffset,0
;   overrideMachineDefinition,1
;   machineTypeOverride,0
;   strokeXoverride,220
;   strokeYoverride,220
;   strokeZoverride,250
;   originOffsetXoverride,-5
;   originOffsetYoverride,-5
;   originOffsetZoverride,0
;   homeXdirOverride,-1
;   homeYdirOverride,-1
;   homeZdirOverride,-1
;   flipXoverride,1
;   flipYoverride,-1
;   flipZoverride,1
;   toolheadOffsets,0,0|0,0|0,0|0,0|0,0|0,0
;   overrideFirmwareConfiguration,1
;   firmwareTypeOverride,RepRap (Marlin/Repetier/Sprinter)
;   GPXconfigOverride,r2
;   baudRateOverride,115200
;   overridePrinterModels,1
;   printerModelsOverride
;   startingGcode,G28 ; home all axes,G1 X5 Y10 Z0.2 F3000 ; get ready to prime,G92 E0 ; reset extrusion distance,G1 X160 E15 F600 ; prime nozzle,G1 X180 F5000 ; quick wipe
;   layerChangeGcode,
;   retractionGcode,
;   toolChangeGcode,
;   endingGcode,G28 X0 ; home X axis,M106 S0 ; turn off cooling fan,M104 S0 ; turn off extruder,M140 S0 ; turn off bed,M84 ; disable motors
;   exportFileFormat,gcode
;   celebration,0
;   celebrationSong,Random Song
;   postProcessing,
;   defaultSpeed,3000
;   outlineUnderspeed,0.75
;   solidInfillUnderspeed,0.8
;   supportUnderspeed,0.8
;   rapidXYspeed,4800
;   rapidZspeed,1000
;   minBridgingArea,50
;   bridgingExtraInflation,0
;   bridgingExtrusionMultiplier,1
;   bridgingSpeedMultiplier,1
;   useFixedBridgingAngle,0
;   fixedBridgingAngle,0
;   applyBridgingToPerimeters,0
;   filamentDiameters,1.75|1.75|1.75|1.75|1.75|1.75
;   filamentPricesPerKg,25|46|46|46|46|46
;   filamentDensities,1.25|1.25|1.25|1.25|1.25|1.25
;   useMinPrintHeight,0
;   minPrintHeight,9
;   useMaxPrintHeight,0
;   maxPrintHeight,9
;   useDiaphragm,0
;   diaphragmLayerInterval,20
;   robustSlicing,1
;   mergeAllIntoSolid,0
;   onlyRetractWhenCrossingOutline,1
;   retractBetweenLayers,1
;   useRetractionMinTravel,0
;   retractionMinTravel,3
;   retractWhileWiping,0
;   onlyWipeOutlines,1
;   avoidCrossingOutline,0
;   maxMovementDetourFactor,3
;   toolChangeRetractionDistance,12
;   toolChangeExtraRestartDistance,-0.5
;   toolChangeRetractionSpeed,600
;   externalThinWallType,0
;   internalThinWallType,2
;   thinWallAllowedOverlapPercentage,10
;   singleExtrusionMinLength,1
;   singleExtrusionMinPrintingWidthPercentage,50
;   singleExtrusionMaxPrintingWidthPercentage,200
;   singleExtrusionEndpointExtension,0.2
;   horizontalSizeCompensation,0
G90
M82
M106 S0
M140 S60 ; set the bed temperature
G28 ; home all axes
M190 S60 ; wait for bed temperature
G29 ; Mesh Generation
M104 S200 T0 ; set the hot end temperature
M109 S200 T0 ; wait for hot end temperature
G1 X5 Y10 Z0.2 F3000 ; get ready to prime
G92 E0 ; reset extrusion distance
G1 X160 E15 F600 ; prime nozzle
G1 X180 F5000 ; quick wipe
; process Process1
; layer 1, Z = 0.240
T0
G92 E0.0000
G1 E-6.0000 F1500
; feature outer perimeter
; tool H0.240 W0.660
G1 Z0.240 F1000
G1 X35.563 Y26.072 F4800
G1 E0.0000 F1500
G92 E0.0000
G1 X35.896 Y25.459 E0.0414 F1125
G1 X36.374 Y24.956 E0.0825
G1 X36.969 Y24.590 E0.1239
G1 X37.636 Y24.395 E0.1651
G1 X38.332 Y24.377 E0.2063
G1 X39.010 Y24.537 E0.2476
G1 X39.621 Y24.872 E0.2889
G1 X40.126 Y25.350 E0.3302
G1 X40.490 Y25.945 E0.3715
G1 X40.687 Y26.612 E0.4127
G1 X40.705 Y27.308 E0.4540
G1 X40.543 Y27.986 E0.4953
G1 X40.210 Y28.597 E0.5366
G1 X39.730 Y29.102 E0.5778
G1 X39.137 Y29.464 E0.6190
G1 X38.148 Y29.755 E0.6801
G1 X38.424 Y31.491 E0.7843
G1 X47.967 Y29.987 E1.3569
G1 X47.271 Y25.593 E1.6205
G1 X47.253 Y24.877 E1.6630
G1 X47.417 Y24.198 E1.7044
G1 X47.748 Y23.587 E1.7456
G1 X48.229 Y23.082 E1.7870
G1 X48.821 Y22.718 E1.8281
G1 X49.490 Y22.521 E1.8695
G1 X50.187 Y22.503 E1.9108
G1 X50.861 Y22.665 E1.9519
G1 X51.473 Y22.998 E1.9932
G1 X51.978 Y23.478 E2.0345
G1 X52.342 Y24.072 E2.0757
G1 X52.541 Y24.741 E2.1171
G1 X52.559 Y25.435 E2.1583
G1 X52.395 Y26.112 E2.1995
G1 X52.062 Y26.725 E2.2409
G1 X51.582 Y27.229 E2.2821
G1 X50.988 Y27.593 E2.3234
G1 X50.004 Y27.884 E2.3842
G1 X50.277 Y29.623 E2.4886
G1 X59.821 Y28.119 E3.0612
G1 X59.125 Y23.722 E3.3251
G1 X59.106 Y23.005 E3.3676
G1 X59.268 Y22.326 E3.4089
G1 X59.601 Y21.715 E3.4502
G1 X60.081 Y21.210 E3.4915
G1 X60.674 Y20.846 E3.5327
G1 X61.344 Y20.649 E3.5741
G1 X62.039 Y20.631 E3.6153
G1 X62.715 Y20.793 E3.6565
G1 X63.328 Y21.126 E3.6979
G1 X63.832 Y21.606 E3.7391
G1 X64.196 Y22.199 E3.7803
G1 X64.393 Y22.869 E3.8217
G1 X64.410 Y23.564 E3.8629
G1 X64.248 Y24.240 E3.9041
G1 X63.915 Y24.852 E3.9454
G1 X63.437 Y25.357 E3.9866
G1 X62.842 Y25.721 E4.0280
G1 X61.856 Y26.014 E4.0890
G1 X62.132 Y27.755 E4.1934
G1 X71.672 Y26.251 E4.7659
G1 X70.978 Y21.848 E5.0301
G1 X70.960 Y21.131 E5.0726
G1 X71.124 Y20.455 E5.1138
G1 X71.455 Y19.843 E5.1551
G1 X71.935 Y19.338 E5.1963
G1 X72.528 Y18.974 E5.2376
G1 X73.195 Y18.777 E5.2788
G1 X73.892 Y18.759 E5.3202
G1 X74.569 Y18.922 E5.3614
G1 X75.181 Y19.255 E5.4027
G1 X75.687 Y19.734 E5.4440
G1 X76.050 Y20.328 E5.4852
G1 X76.248 Y20.995 E5.5265
G1 X76.266 Y21.690 E5.5677
G1 X76.102 Y22.368 E5.6091
G1 X75.771 Y22.980 E5.6503
G1 X75.290 Y23.485 E5.6916
G1 X74.696 Y23.849 E5.7329
G1 X73.709 Y24.140 E5.7939
G1 X73.985 Y25.888 E5.8987
G1 X94.009 Y22.731 E7.1002
G1 X95.252 Y19.496 E7.3056
G1 X95.661 Y18.934 E7.3468
G1 X96.203 Y18.495 E7.3881
G1 X96.837 Y18.212 E7.4293
G1 X97.548 Y18.102 E7.4719
G1 X135.165 Y17.133 E9.7022
G1 X135.881 Y17.206 E9.7448
G1 X136.528 Y17.456 E9.7860
G1 X137.092 Y17.867 E9.8273
G1 X137.530 Y18.407 E9.8685
G1 X138.938 Y21.574 E10.0739
G1 X159.097 Y23.695 E11.2754
G1 X159.283 Y21.935 E11.3802
G1 X158.283 Y21.696 E11.4412
G1 X157.669 Y21.363 E11.4826
G1 X157.164 Y20.883 E11.5238
G1 X156.802 Y20.290 E11.5650
G1 X156.605 Y19.620 E11.6064
G1 X156.588 Y18.925 E11.6476
G1 X156.750 Y18.249 E11.6889
G1 X157.081 Y17.637 E11.7301
G1 X157.560 Y17.132 E11.7713
G1 X158.156 Y16.768 E11.8127
G1 X158.823 Y16.572 E11.8539
G1 X159.520 Y16.554 E11.8952
G1 X160.196 Y16.716 E11.9365
G1 X160.808 Y17.049 E11.9777
G1 X161.313 Y17.528 E12.0190
G1 X161.675 Y18.122 E12.0602
G1 X161.874 Y18.790 E12.1015
G1 X161.892 Y19.506 E12.1440
G1 X161.426 Y23.939 E12.4082
G1 X171.031 Y24.950 E12.9806
G1 X171.217 Y23.197 E13.0851
G1 X170.217 Y22.955 E13.1461
G1 X169.604 Y22.622 E13.1875
G1 X169.101 Y22.142 E13.2287
G1 X168.737 Y21.549 E13.2700
G1 X168.540 Y20.881 E13.3112
G1 X168.522 Y20.186 E13.3524
G1 X168.684 Y19.508 E13.3937
G1 X169.017 Y18.896 E13.4350
G1 X169.495 Y18.391 E13.4762
G1 X170.090 Y18.028 E13.5176
G1 X170.757 Y17.831 E13.5588
G1 X171.453 Y17.813 E13.6000
G1 X172.131 Y17.975 E13.6414
G1 X172.742 Y18.308 E13.6826
G1 X173.248 Y18.788 E13.7239
G1 X173.611 Y19.381 E13.7652
G1 X173.808 Y20.050 E13.8065
G1 X173.827 Y20.767 E13.8490
G1 X173.358 Y25.194 E14.1129
G1 X182.966 Y26.205 E14.6855
G1 X183.149 Y24.454 E14.7899
G1 X182.150 Y24.214 E14.8508
G1 X181.540 Y23.881 E14.8920
G1 X181.033 Y23.403 E14.9333
G1 X180.671 Y22.808 E14.9746
G1 X180.472 Y22.140 E15.0159
G1 X180.454 Y21.446 E15.0570
G1 X180.619 Y20.767 E15.0984
G1 X180.949 Y20.156 E15.1396
G1 X181.431 Y19.650 E15.1810
G1 X182.023 Y19.286 E15.2222
G1 X182.690 Y19.090 E15.2634
G1 X183.389 Y19.072 E15.3048
G1 X184.065 Y19.234 E15.3460
G1 X184.675 Y19.567 E15.3872
G1 X185.180 Y20.047 E15.4285
G1 X185.544 Y20.640 E15.4698
G1 X185.743 Y21.310 E15.5112
G1 X185.761 Y22.026 E15.5536
G1 X185.295 Y26.449 E15.8173
G1 X194.902 Y27.460 E16.3898
G1 X195.086 Y25.712 E16.4940
G1 X194.083 Y25.473 E16.5551
G1 X193.472 Y25.142 E16.5963
G1 X192.967 Y24.662 E16.6376
G1 X192.604 Y24.069 E16.6788
G1 X192.407 Y23.400 E16.7202
G1 X192.389 Y22.705 E16.7614
G1 X192.551 Y22.028 E16.8026
G1 X192.884 Y21.415 E16.8440
G1 X193.364 Y20.912 E16.8852
G1 X193.957 Y20.546 E16.9265
G1 X194.626 Y20.351 E16.9678
G1 X195.322 Y20.333 E17.0090
G1 X195.998 Y20.493 E17.0502
G1 X196.611 Y20.828 E17.0916
G1 X197.114 Y21.306 E17.1328
G1 X197.478 Y21.901 E17.1741
G1 X197.675 Y22.568 E17.2154
G1 X197.693 Y23.285 E17.2579
G1 X195.492 Y44.154 E18.5016
G1 X195.325 Y44.854 E18.5442
G1 X194.992 Y45.465 E18.5855
G1 X194.512 Y45.970 E18.6268
G1 X193.919 Y46.334 E18.6680
G1 X193.250 Y46.529 E18.7093
G1 X192.554 Y46.547 E18.7506
G1 X191.877 Y46.386 E18.7918
G1 X191.264 Y46.054 E18.8331
G1 X190.761 Y45.574 E18.8743
G1 X190.397 Y44.981 E18.9156
G1 X190.200 Y44.312 E18.9569
G1 X190.182 Y43.614 E18.9983
G1 X190.345 Y42.940 E19.0394
G1 X190.678 Y42.326 E19.0808
G1 X191.155 Y41.823 E19.1219
G1 X191.751 Y41.458 E19.1633
G1 X192.418 Y41.263 E19.2045
G1 X193.445 Y41.236 E19.2654
G1 X193.669 Y39.145 E19.3900
G1 X184.061 Y38.137 E19.9626
G1 X183.557 Y42.895 E20.2462
G1 X183.390 Y43.593 E20.2887
G1 X183.057 Y44.206 E20.3301
G1 X182.578 Y44.709 E20.3713
G1 X181.984 Y45.073 E20.4126
G1 X181.317 Y45.270 E20.4538
G1 X180.622 Y45.288 E20.4950
G1 X179.943 Y45.126 E20.5364
G1 X179.332 Y44.793 E20.5776
G1 X178.827 Y44.315 E20.6188
G1 X178.463 Y43.720 E20.6602
G1 X178.266 Y43.052 E20.7014
G1 X178.248 Y42.357 E20.7426
G1 X178.410 Y41.679 E20.7840
G1 X178.743 Y41.067 E20.8252
G1 X179.223 Y40.562 E20.8665
G1 X179.816 Y40.198 E20.9078
G1 X180.485 Y40.002 E20.9491
G1 X181.513 Y39.975 E21.0100
G1 X181.735 Y37.890 E21.1343
G1 X172.125 Y36.882 E21.7070
G1 X171.625 Y41.635 E21.9903
G1 X171.456 Y42.333 E22.0329
G1 X171.125 Y42.945 E22.0741
G1 X170.643 Y43.450 E22.1155
G1 X170.051 Y43.814 E22.1566
G1 X169.382 Y44.013 E22.1980
G1 X168.686 Y44.031 E22.2393
G1 X168.009 Y43.867 E22.2805
G1 X167.397 Y43.534 E22.3218
G1 X166.893 Y43.054 E22.3631
G1 X166.530 Y42.460 E22.4043
G1 X166.332 Y41.793 E22.4456
G1 X166.314 Y41.098 E22.4868
G1 X166.478 Y40.420 E22.5282
G1 X166.809 Y39.808 E22.5694
G1 X167.289 Y39.303 E22.6107
G1 X167.882 Y38.939 E22.6519
G1 X168.549 Y38.742 E22.6932
G1 X169.579 Y38.716 E22.7542
G1 X169.798 Y36.635 E22.8782
G1 X160.191 Y35.625 E23.4508
G1 X159.689 Y40.377 E23.7340
G1 X159.523 Y41.075 E23.7765
G1 X159.190 Y41.686 E23.8178
G1 X158.711 Y42.191 E23.8591
G1 X158.117 Y42.555 E23.9003
G1 X157.448 Y42.752 E23.9417
G1 X156.751 Y42.770 E23.9830
G1 X156.076 Y42.607 E24.0241
G1 X155.463 Y42.275 E24.0655
G1 X154.960 Y41.795 E24.1067
G1 X154.596 Y41.201 E24.1480
G1 X154.397 Y40.534 E24.1892
G1 X154.379 Y39.837 E24.2305
G1 X154.543 Y39.161 E24.2717
G1 X154.876 Y38.549 E24.3131
G1 X155.354 Y38.044 E24.3543
G1 X155.950 Y37.680 E24.3956
G1 X156.615 Y37.483 E24.4367
G1 X157.644 Y37.457 E24.4978
G1 X157.864 Y35.380 E24.6215
G1 X141.630 Y33.673 E25.5890
G1 X141.633 Y34.210 E25.6208
G1 X141.604 Y34.507 E25.6385
G1 X141.537 Y34.756 E25.6538
G1 X141.435 Y34.965 E25.6676
G1 X141.295 Y35.145 E25.6811
G1 X141.113 Y35.302 E25.6954
G1 X141.017 Y35.362 E25.7020
G1 X140.754 Y35.485 E25.7193
G1 X140.619 Y35.530 E25.7277
G1 X140.278 Y35.608 E25.7484
G1 X139.890 Y35.653 E25.7716
G1 X93.783 Y36.841 E28.5052
G1 X93.393 Y36.816 E28.5284
G1 X93.049 Y36.756 E28.5491
G1 X92.911 Y36.717 E28.5576
G1 X92.641 Y36.608 E28.5749
G1 X92.544 Y36.554 E28.5814
G1 X92.354 Y36.406 E28.5957
G1 X92.207 Y36.233 E28.6092
G1 X92.092 Y36.029 E28.6231
G1 X92.012 Y35.785 E28.6383
G1 X91.969 Y35.491 E28.6559
G1 X91.949 Y34.952 E28.6878
G1 X75.819 Y37.494 E29.6557
G1 X76.145 Y39.556 E29.7794
G1 X77.172 Y39.530 E29.8404
G1 X77.849 Y39.692 E29.8816
G1 X78.462 Y40.025 E29.9230
G1 X78.968 Y40.505 E29.9643
G1 X79.331 Y41.098 E30.0055
G1 X79.528 Y41.765 E30.0467
G1 X79.546 Y42.462 E30.0881
G1 X79.384 Y43.139 E30.1293
G1 X79.051 Y43.750 E30.1706
G1 X78.571 Y44.255 E30.2118
G1 X77.976 Y44.619 E30.2532
G1 X77.309 Y44.816 E30.2944
G1 X76.614 Y44.834 E30.3357
G1 X75.937 Y44.672 E30.3769
G1 X75.324 Y44.339 E30.4182
G1 X74.820 Y43.859 E30.4595
G1 X74.455 Y43.266 E30.5008
G1 X74.254 Y42.578 E30.5432
G1 X73.508 Y37.857 E30.8265
G1 X63.965 Y39.362 E31.3991
G1 X64.291 Y41.428 E31.5231
G1 X65.321 Y41.402 E31.5841
G1 X65.997 Y41.564 E31.6253
G1 X66.609 Y41.897 E31.6666
G1 X67.114 Y42.376 E31.7079
G1 X67.476 Y42.970 E31.7491
G1 X67.674 Y43.639 E31.7905
G1 X67.692 Y44.334 E31.8317
G1 X67.528 Y45.011 E31.8729
G1 X67.197 Y45.622 E31.9142
G1 X66.718 Y46.127 E31.9554
G1 X66.124 Y46.491 E31.9967
G1 X65.457 Y46.690 E32.0380
G1 X64.760 Y46.708 E32.0793
G1 X64.082 Y46.544 E32.1206
G1 X63.472 Y46.211 E32.1618
G1 X62.965 Y45.731 E32.2032
G1 X62.603 Y45.137 E32.2444
G1 X62.398 Y44.449 E32.2870
G1 X61.654 Y39.727 E32.5703
G1 X52.111 Y41.229 E33.1428
G1 X52.437 Y43.300 E33.2671
G1 X53.465 Y43.274 E33.3280
G1 X54.143 Y43.436 E33.3694
G1 X54.755 Y43.769 E33.4106
G1 X55.260 Y44.248 E33.4519
G1 X55.624 Y44.842 E33.4932
G1 X55.821 Y45.511 E33.5345
G1 X55.839 Y46.206 E33.5757
G1 X55.676 Y46.883 E33.6170
G1 X55.344 Y47.496 E33.6583
G1 X54.864 Y47.999 E33.6995
G1 X54.270 Y48.363 E33.7408
G1 X53.601 Y48.560 E33.7821
