; G-Code generated by Simplify3D(R) Version 4.1.2
; Apr 21, 2020 at 3:15:45 PM
; Settings Summary
;   processName,Process1
;   applyToModels,Visor_Frame_NORTH_AMERICA_letter_6-hole_v5
;   profileName,Creality Ender 3 Pro (VISOR 1.0) (modified)
;   profileVersion,2020-04-21 15:12:59
;   baseProfile,Creality Ender 3 Pro (modified)
;   printMaterial,PLA
;   printQuality,Medium
;   printExtruders,
;   extruderName,Primary Extruder
;   extruderToolheadNumber,0
;   extruderDiameter,0.4
;   extruderAutoWidth,0
;   extruderWidth,0.4
;   extrusionMultiplier,0.9
;   extruderUseRetract,1
;   extruderRetractionDistance,4
;   extruderExtraRestartDistance,0
;   extruderRetractionZLift,0
;   extruderRetractionSpeed,2400
;   extruderUseCoasting,0
;   extruderCoastingDistance,0.2
;   extruderUseWipe,0
;   extruderWipeDistance,5
;   primaryExtruder,0
;   layerHeight,0.25
;   topSolidLayers,5
;   bottomSolidLayers,5
;   perimeterOutlines,9
;   printPerimetersInsideOut,0
;   startPointOption,2
;   startPointOriginX,0
;   startPointOriginY,0
;   sequentialIslands,0
;   spiralVaseMode,0
;   firstLayerHeightPercentage,120
;   firstLayerWidthPercentage,150
;   firstLayerUnderspeed,0.5
;   useRaft,0
;   raftExtruder,0
;   raftTopLayers,3
;   raftBaseLayers,2
;   raftOffset,3
;   raftSeparationDistance,0.14
;   raftTopInfill,100
;   aboveRaftSpeedMultiplier,0.3
;   useSkirt,0
;   skirtExtruder,0
;   skirtLayers,1
;   skirtOutlines,2
;   skirtOffset,4
;   usePrimePillar,0
;   primePillarExtruder,999
;   primePillarWidth,12
;   primePillarLocation,7
;   primePillarSpeedMultiplier,1
;   useOozeShield,0
;   oozeShieldExtruder,999
;   oozeShieldOffset,2
;   oozeShieldOutlines,1
;   oozeShieldSidewallShape,1
;   oozeShieldSidewallAngle,30
;   oozeShieldSpeedMultiplier,1
;   infillExtruder,0
;   internalInfillPattern,Rectilinear
;   externalInfillPattern,Rectilinear
;   infillPercentage,0
;   outlineOverlapPercentage,15
;   infillExtrusionWidthPercentage,100
;   minInfillLength,5
;   infillLayerInterval,1
;   internalInfillAngles,45,-45
;   overlapInternalInfillAngles,0
;   externalInfillAngles,45,-45
;   generateSupport,0
;   supportExtruder,0
;   supportInfillPercentage,30
;   supportExtraInflation,0
;   supportBaseLayers,0
;   denseSupportExtruder,0
;   denseSupportLayers,0
;   denseSupportInfillPercentage,70
;   supportLayerInterval,1
;   supportHorizontalPartOffset,0.3
;   supportUpperSeparationLayers,1
;   supportLowerSeparationLayers,1
;   supportType,0
;   supportGridSpacing,4
;   maxOverhangAngle,45
;   supportAngles,0
;   temperatureName,Primary Extruder,Heated Bed
;   temperatureNumber,0,0
;   temperatureSetpointCount,1,1
;   temperatureSetpointLayers,1,1
;   temperatureSetpointTemperatures,210,60
;   temperatureStabilizeAtStartup,1,1
;   temperatureHeatedBed,0,1
;   fanLayers,1,2
;   fanSpeeds,0,100
;   blipFanToFullPower,0
;   adjustSpeedForCooling,1
;   minSpeedLayerTime,15
;   minCoolingSpeedSlowdown,20
;   increaseFanForCooling,0
;   minFanLayerTime,45
;   maxCoolingFanSpeed,100
;   increaseFanForBridging,0
;   bridgingFanSpeed,100
;   use5D,1
;   relativeEdistances,0
;   allowEaxisZeroing,1
;   independentExtruderAxes,0
;   includeM10123,0
;   stickySupport,1
;   applyToolheadOffsets,0
;   gcodeXoffset,0
;   gcodeYoffset,0
;   gcodeZoffset,0
;   overrideMachineDefinition,1
;   machineTypeOverride,0
;   strokeXoverride,220
;   strokeYoverride,220
;   strokeZoverride,250
;   originOffsetXoverride,-5
;   originOffsetYoverride,-5
;   originOffsetZoverride,0
;   homeXdirOverride,-1
;   homeYdirOverride,-1
;   homeZdirOverride,-1
;   flipXoverride,1
;   flipYoverride,-1
;   flipZoverride,1
;   toolheadOffsets,0,0|0,0|0,0|0,0|0,0|0,0
;   overrideFirmwareConfiguration,1
;   firmwareTypeOverride,RepRap (Marlin/Repetier/Sprinter)
;   GPXconfigOverride,r2
;   baudRateOverride,115200
;   overridePrinterModels,1
;   printerModelsOverride
;   startingGcode,G28 ; home all axes,G1 X5 Y10 Z0.2 F3000 ; get ready to prime,G92 E0 ; reset extrusion distance,G1 X160 E15 F600 ; prime nozzle,G1 X180 F5000 ; quick wipe
;   layerChangeGcode,
;   retractionGcode,
;   toolChangeGcode,
;   endingGcode,G28 X0 ; home X axis,M106 S0 ; turn off cooling fan,M104 S0 ; turn off extruder,M140 S0 ; turn off bed,M84 ; disable motors
;   exportFileFormat,gcode
;   celebration,0
;   celebrationSong,Random Song
;   postProcessing,
;   defaultSpeed,3000
;   outlineUnderspeed,1
;   solidInfillUnderspeed,0.8
;   supportUnderspeed,0.8
;   rapidXYspeed,4800
;   rapidZspeed,1000
;   minBridgingArea,50
;   bridgingExtraInflation,0
;   bridgingExtrusionMultiplier,1
;   bridgingSpeedMultiplier,1
;   useFixedBridgingAngle,0
;   fixedBridgingAngle,0
;   applyBridgingToPerimeters,0
;   filamentDiameters,1.75|1.75|1.75|1.75|1.75|1.75
;   filamentPricesPerKg,46|46|46|46|46|46
;   filamentDensities,1.25|1.25|1.25|1.25|1.25|1.25
;   useMinPrintHeight,0
;   minPrintHeight,0
;   useMaxPrintHeight,0
;   maxPrintHeight,0
;   useDiaphragm,0
;   diaphragmLayerInterval,20
;   robustSlicing,1
;   mergeAllIntoSolid,0
;   onlyRetractWhenCrossingOutline,1
;   retractBetweenLayers,1
;   useRetractionMinTravel,0
;   retractionMinTravel,3
;   retractWhileWiping,0
;   onlyWipeOutlines,1
;   avoidCrossingOutline,0
;   maxMovementDetourFactor,3
;   toolChangeRetractionDistance,12
;   toolChangeExtraRestartDistance,-0.5
;   toolChangeRetractionSpeed,600
;   externalThinWallType,0
;   internalThinWallType,2
;   thinWallAllowedOverlapPercentage,10
;   singleExtrusionMinLength,1
;   singleExtrusionMinPrintingWidthPercentage,50
;   singleExtrusionMaxPrintingWidthPercentage,200
;   singleExtrusionEndpointExtension,0.2
;   horizontalSizeCompensation,0
G90
M82
M106 S0
M140 S60 ; set the bed temperature
G28 ; home all axes
M190 S60 ; wait for bed temperature
G29 ; Mesh Generation
M104 S200 T0 ; set the hot end temperature
M109 S200 T0 ; wait for hot end temperature
G1 X5 Y10 Z0.2 F3000 ; get ready to prime
G92 E0 ; reset extrusion distance
G1 X160 E15 F600 ; prime nozzle
G1 X180 F5000 ; quick wipe
; process Process1
; layer 1, Z = 0.300
T0
G92 E0.0000
G1 E-4.0000 F2400
; feature outer perimeter
; tool H0.300 W0.600
G1 Z0.300 F1000
G1 X74.736 Y28.389 F4800
G1 E0.0000 F2400
G92 E0.0000
G1 X75.263 Y27.635 E0.0620 F1500
G1 X75.864 Y26.938 E0.1240
G1 X76.533 Y26.305 E0.1860
G1 X77.263 Y25.744 E0.2480
G1 X78.046 Y25.260 E0.3100
G1 X78.875 Y24.858 E0.3721
G1 X79.578 Y24.599 E0.4225
G1 X79.738 Y24.543 E0.4339
G1 X80.632 Y24.316 E0.4961
G1 X81.375 Y24.206 E0.5466
G1 X81.542 Y24.182 E0.5580
G1 X82.286 Y24.149 E0.6082
G1 X82.639 Y24.151 E0.6319
G1 X83.382 Y24.194 E0.6821
G1 X84.291 Y24.340 E0.7441
G1 X85.181 Y24.577 E0.8061
G1 X86.043 Y24.905 E0.8682
G1 X86.195 Y24.978 E0.8796
G1 X86.864 Y25.316 E0.9301
G1 X87.641 Y25.810 E0.9921
G1 X88.364 Y26.381 E1.0541
G1 X89.025 Y27.021 E1.1161
G1 X89.617 Y27.726 E1.1781
G1 X90.135 Y28.487 E1.2401
G1 X90.573 Y29.297 E1.3021
G1 X90.925 Y30.146 E1.3640
G1 X91.233 Y31.204 E1.4382
G1 X91.389 Y32.110 E1.5001
G1 X91.453 Y33.028 E1.5621
G1 X91.422 Y33.948 E1.6241
G1 X91.299 Y34.861 E1.6862
G1 X91.083 Y35.756 E1.7482
G1 X90.778 Y36.624 E1.8102
G1 X90.386 Y37.457 E1.8722
G1 X90.000 Y38.102 E1.9228
G1 X89.912 Y38.245 E1.9341
G1 X89.359 Y38.983 E1.9962
G1 X88.728 Y39.666 E2.0588
G1 X86.053 Y42.349 E2.3140
G1 X83.440 Y45.105 E2.5698
G1 X80.896 Y47.925 E2.8256
G1 X78.424 Y50.808 E3.0814
G1 X76.025 Y53.752 E3.3372
G1 X73.700 Y56.755 E3.5930
G1 X71.451 Y59.815 E3.8487
G1 X69.278 Y62.931 E4.1045
G1 X67.185 Y66.099 E4.3603
G1 X65.171 Y69.319 E4.6161
G1 X63.239 Y72.589 E4.8719
G1 X61.388 Y75.905 E5.1277
G1 X59.622 Y79.267 E5.3835
G1 X57.939 Y82.672 E5.6393
G1 X56.343 Y86.118 E5.8951
G1 X54.833 Y89.603 E6.1509
G1 X53.677 Y92.465 E6.3587
G1 X53.410 Y93.124 E6.4067
G1 X52.076 Y96.680 E6.6624
G1 X50.831 Y100.268 E6.9182
G1 X49.893 Y103.208 E7.1261
G1 X49.677 Y103.886 E7.1740
G1 X48.613 Y107.532 E7.4298
G1 X47.641 Y111.203 E7.6856
G1 X46.760 Y114.897 E7.9414
G1 X45.972 Y118.613 E8.1972
G1 X45.278 Y122.346 E8.4530
G1 X44.677 Y126.096 E8.7088
G1 X44.169 Y129.860 E8.9646
G1 X43.756 Y133.636 E9.2204
G1 X43.438 Y137.420 E9.4761
G1 X43.214 Y141.211 E9.7319
G1 X43.085 Y145.007 E9.9877
G1 X43.051 Y148.805 E10.2435
G1 X43.112 Y152.602 E10.4993
G1 X43.267 Y156.397 E10.7551
G1 X43.518 Y160.186 E11.0109
G1 X43.798 Y163.260 E11.2188
G1 X43.863 Y163.968 E11.2667
G1 X44.303 Y167.748 E11.5230
G1 X44.445 Y168.478 E11.5731
G1 X44.680 Y169.191 E11.6236
G1 X44.938 Y169.741 E11.6646
G1 X45.005 Y169.873 E11.6745
G1 X45.409 Y170.501 E11.7248
G1 X45.891 Y171.076 E11.7753
G1 X46.340 Y171.502 E11.8170
G1 X46.939 Y171.952 E11.8675
G1 X47.591 Y172.324 E11.9181
G1 X48.286 Y172.611 E11.9687
G1 X49.012 Y172.808 E12.0194
G1 X50.826 Y173.037 E12.1425
G1 X51.885 Y173.252 E12.2153
G1 X52.922 Y173.553 E12.2880
G1 X53.931 Y173.938 E12.3608
G1 X54.904 Y174.406 E12.4335
G1 X55.836 Y174.953 E12.5062
G1 X56.718 Y175.574 E12.5789
G1 X57.547 Y176.267 E12.6517
G1 X58.315 Y177.026 E12.7244
G1 X59.018 Y177.845 E12.7971
G1 X59.651 Y178.720 E12.8699
G1 X60.210 Y179.645 E12.9426
G1 X60.690 Y180.612 E13.0153
G1 X61.088 Y181.616 E13.0881
G1 X61.402 Y182.649 E13.1608
G1 X61.630 Y183.704 E13.2335
G1 X61.769 Y184.775 E13.3063
G1 X61.820 Y185.854 E13.3790
G1 X61.777 Y187.043 E13.4591
G1 X61.775 Y187.739 E13.5060
G1 X61.857 Y188.443 E13.5537
G1 X62.001 Y189.056 E13.5961
G1 X62.259 Y189.771 E13.6473
G1 X62.591 Y190.421 E13.6965
G1 X62.680 Y190.558 E13.7075
G1 X63.004 Y191.030 E13.7461
G1 X63.501 Y191.596 E13.7968
G1 X64.065 Y192.094 E13.8475
G1 X64.686 Y192.516 E13.8980
G1 X65.030 Y192.695 E13.9242
G1 X65.247 Y192.766 E13.9396
G1 X65.458 Y192.765 E13.9537
G1 X65.638 Y192.685 E13.9670
G1 X65.749 Y192.569 E13.9778
G1 X65.816 Y192.397 E13.9902
G1 X65.823 Y192.250 E14.0002
G1 X65.784 Y192.058 E14.0134
G1 X64.788 Y189.844 E14.1769
G1 X64.641 Y189.432 E14.2064
G1 X64.566 Y189.011 E14.2351
G1 X64.564 Y188.952 E14.2391
G1 X64.563 Y188.568 E14.2650
G1 X65.241 Y179.817 E14.8562
G1 X65.294 Y179.486 E14.8787
G1 X65.393 Y179.179 E14.9005
G1 X65.540 Y178.891 E14.9222
G1 X65.730 Y178.630 E14.9440
G1 X65.959 Y178.402 E14.9657
G1 X66.221 Y178.213 E14.9875
G1 X66.510 Y178.067 E15.0093
G1 X66.817 Y177.969 E15.0310
G1 X67.136 Y177.920 E15.0528
G1 X67.459 Y177.922 E15.0745
G1 X67.624 Y177.949 E15.0857
G1 X67.782 Y178.002 E15.0970
G1 X67.942 Y178.086 E15.1092
G1 X70.427 Y179.593 E15.3048
G1 X72.972 Y181.023 E15.5015
G1 X75.563 Y182.369 E15.6981
G1 X78.197 Y183.628 E15.8948
G1 X80.872 Y184.800 E16.0915
G1 X83.583 Y185.883 E16.2881
G1 X86.329 Y186.876 E16.4848
G1 X89.106 Y187.777 E16.6814
G1 X91.912 Y188.586 E16.8781
G1 X94.742 Y189.302 E17.0747
G1 X97.595 Y189.924 E17.2714
G1 X100.467 Y190.452 E17.4680
G1 X103.354 Y190.885 E17.6647
G1 X106.255 Y191.221 E17.8613
G1 X109.164 Y191.462 E18.0580
G1 X112.081 Y191.607 E18.2546
G1 X115.000 Y191.655 E18.4513
G1 X117.919 Y191.607 E18.6479
G1 X120.836 Y191.462 E18.8446
G1 X123.745 Y191.221 E19.0412
G1 X126.646 Y190.885 E19.2379
G1 X129.533 Y190.452 E19.4346
G1 X132.405 Y189.924 E19.6312
G1 X135.258 Y189.302 E19.8279
G1 X138.088 Y188.586 E20.0245
G1 X140.894 Y187.777 E20.2212
G1 X143.671 Y186.876 E20.4178
G1 X146.417 Y185.883 E20.6145
G1 X149.128 Y184.800 E20.8111
G1 X151.803 Y183.628 E21.0078
G1 X153.944 Y182.605 E21.1676
G1 X154.437 Y182.369 E21.2044
G1 X157.028 Y181.023 E21.4011
G1 X159.573 Y179.593 E21.5977
G1 X162.058 Y178.086 E21.7934
G1 X162.218 Y178.002 E21.8056
G1 X162.376 Y177.949 E21.8168
G1 X162.541 Y177.922 E21.8281
G1 X162.864 Y177.920 E21.8498
G1 X163.183 Y177.969 E21.8716
G1 X163.490 Y178.067 E21.8933
G1 X163.779 Y178.213 E21.9151
G1 X164.041 Y178.402 E21.9368
G1 X164.270 Y178.630 E21.9586
G1 X164.460 Y178.891 E21.9804
G1 X164.607 Y179.179 E22.0021
G1 X164.706 Y179.486 E22.0239
G1 X164.759 Y179.817 E22.0464
G1 X165.437 Y188.568 E22.6376
G1 X165.437 Y188.969 E22.6646
G1 X165.390 Y189.302 E22.6872
G1 X165.274 Y189.692 E22.7147
G1 X165.130 Y190.007 E22.7380
G1 X164.003 Y192.082 E22.8970
G1 X163.926 Y192.307 E22.9130
G1 X163.935 Y192.595 E22.9325
G1 X164.084 Y192.794 E22.9492
G1 X164.292 Y192.884 E22.9645
G1 X164.514 Y192.877 E22.9795
G1 X164.696 Y192.824 E22.9922
G1 X165.047 Y192.665 E23.0182
G1 X165.713 Y192.258 E23.0707
G1 X166.323 Y191.765 E23.1236
G1 X166.916 Y191.128 E23.1822
G1 X167.325 Y190.559 E23.2293
G1 X167.619 Y190.023 E23.2705
G1 X167.698 Y189.865 E23.2825
G1 X167.931 Y189.271 E23.3254
G1 X168.134 Y188.496 E23.3793
G1 X168.231 Y187.668 E23.4355
G1 X168.180 Y185.855 E23.5577
G1 X168.231 Y184.775 E23.6305
G1 X168.370 Y183.704 E23.7032
G1 X168.598 Y182.649 E23.7760
G1 X168.912 Y181.616 E23.8487
G1 X169.310 Y180.612 E23.9214
G1 X169.790 Y179.645 E23.9941
G1 X170.349 Y178.720 E24.0669
G1 X170.982 Y177.845 E24.1396
G1 X171.685 Y177.026 E24.2123
G1 X172.453 Y176.267 E24.2851
G1 X173.282 Y175.574 E24.3578
G1 X174.164 Y174.953 E24.4305
G1 X175.096 Y174.406 E24.5032
G1 X176.069 Y173.938 E24.5760
G1 X177.078 Y173.553 E24.6487
G1 X178.115 Y173.252 E24.7214
G1 X179.174 Y173.037 E24.7943
G1 X180.988 Y172.808 E24.9173
G1 X181.714 Y172.611 E24.9681
G1 X182.408 Y172.325 E25.0186
G1 X182.949 Y172.021 E25.0604
G1 X183.660 Y171.502 E25.1197
G1 X184.198 Y170.979 E25.1702
G1 X184.591 Y170.500 E25.2120
G1 X184.997 Y169.870 E25.2625
G1 X185.320 Y169.192 E25.3130
G1 X185.555 Y168.478 E25.3636
G1 X185.697 Y167.748 E25.4137
G1 X186.137 Y163.968 E25.6700
G1 X186.482 Y160.186 E25.9258
G1 X186.733 Y156.397 E26.1816
G1 X186.888 Y152.602 E26.4374
G1 X186.949 Y148.805 E26.6932
G1 X186.915 Y145.007 E26.9490
G1 X186.786 Y141.211 E27.2048
G1 X186.562 Y137.420 E27.4606
G1 X186.244 Y133.636 E27.7163
G1 X185.831 Y129.860 E27.9721
G1 X185.323 Y126.096 E28.2279
G1 X184.722 Y122.346 E28.4837
G1 X184.028 Y118.613 E28.7395
G1 X183.240 Y114.897 E28.9953
G1 X182.524 Y111.895 E29.2032
G1 X182.359 Y111.203 E29.2511
G1 X181.387 Y107.532 E29.5069
G1 X180.323 Y103.886 E29.7627
G1 X179.169 Y100.268 E30.0185
G1 X177.924 Y96.680 E30.2743
G1 X176.590 Y93.124 E30.5300
G1 X175.167 Y89.603 E30.7858
G1 X173.657 Y86.118 E31.0416
G1 X172.061 Y82.672 E31.2974
G1 X170.378 Y79.267 E31.5532
G1 X168.943 Y76.535 E31.7611
G1 X168.612 Y75.905 E31.8090
G1 X166.761 Y72.589 E32.0648
G1 X164.829 Y69.319 E32.3206
G1 X162.815 Y66.099 E32.5764
G1 X160.722 Y62.931 E32.8322
G1 X158.549 Y59.815 E33.0880
G1 X156.300 Y56.755 E33.3437
G1 X153.975 Y53.752 E33.5995
G1 X151.576 Y50.808 E33.8553
G1 X149.104 Y47.925 E34.1111
G1 X146.560 Y45.105 E34.3669
G1 X143.947 Y42.349 E34.6227
G1 X141.272 Y39.666 E34.8779
G1 X140.641 Y38.983 E34.9405
G1 X140.089 Y38.246 E35.0025
G1 X139.614 Y37.457 E35.0645
G1 X139.222 Y36.624 E35.1265
G1 X138.917 Y35.756 E35.1885
G1 X138.700 Y34.857 E35.2508
G1 X138.674 Y34.691 E35.2621
G1 X138.578 Y33.949 E35.3125
G1 X138.547 Y33.028 E35.3746
G1 X138.611 Y32.105 E35.4369
G1 X138.635 Y31.939 E35.4482
G1 X138.767 Y31.204 E35.4985
G1 X139.015 Y30.318 E35.5605
G1 X139.428 Y29.296 E35.6347
G1 X139.865 Y28.487 E35.6966
G1 X140.383 Y27.725 E35.7587
G1 X140.860 Y27.150 E35.8090
G1 X140.972 Y27.024 E35.8203
G1 X141.636 Y26.381 E35.8826
G1 X142.359 Y25.810 E35.9447
G1 X142.989 Y25.405 E35.9951
G1 X143.133 Y25.318 E36.0064
G1 X143.959 Y24.904 E36.0686
G1 X144.819 Y24.577 E36.1306
G1 X145.709 Y24.340 E36.1927
G1 X146.450 Y24.220 E36.2432
G1 X146.617 Y24.194 E36.2546
G1 X147.537 Y24.141 E36.3167
G1 X148.457 Y24.182 E36.3787
G1 X149.369 Y24.317 E36.4408
G1 X149.532 Y24.357 E36.4521
G1 X150.260 Y24.543 E36.5027
G1 X151.125 Y24.858 E36.5647
G1 X151.954 Y25.260 E36.6267
G1 X152.740 Y25.746 E36.6890
G1 X152.875 Y25.846 E36.7003
G1 X153.466 Y26.305 E36.7507
G1 X154.136 Y26.938 E36.8128
G1 X154.737 Y27.635 E36.8748
G1 X155.264 Y28.389 E36.9368
G1 X155.711 Y29.193 E36.9987
G1 X156.137 Y30.209 E37.0729
G1 X156.396 Y31.091 E37.1348
G1 X156.564 Y31.996 E37.1968
G1 X156.639 Y32.914 E37.2589
G1 X156.629 Y33.662 E37.3092
G1 X156.621 Y33.830 E37.3205
G1 X156.509 Y34.747 E37.3828
G1 X156.305 Y35.645 E37.4448
G1 X156.010 Y36.518 E37.5068
G1 X155.629 Y37.356 E37.5689
G1 X155.252 Y38.004 E37.6194
G1 X155.165 Y38.149 E37.6308
G1 X154.621 Y38.894 E37.6928
G1 X154.009 Y39.574 E37.7545
