; G-Code generated by Simplify3D(R) Version 4.1.2
; Apr 26, 2020 at 1:33:41 PM
; Settings Summary
;   processName,Process1
;   applyToModels,6-hole-half-v-1-1
;   profileName,Creality Ender 3 Pro (modified)
;   profileVersion,2019-04-06 08:00:00
;   baseProfile,
;   printMaterial,PLA
;   printQuality,Medium
;   printExtruders,
;   extruderName,Primary Extruder
;   extruderToolheadNumber,0
;   extruderDiameter,0.4
;   extruderAutoWidth,0
;   extruderWidth,0.4
;   extrusionMultiplier,0.9
;   extruderUseRetract,1
;   extruderRetractionDistance,4
;   extruderExtraRestartDistance,0
;   extruderRetractionZLift,0
;   extruderRetractionSpeed,2400
;   extruderUseCoasting,0
;   extruderCoastingDistance,0.2
;   extruderUseWipe,0
;   extruderWipeDistance,5
;   primaryExtruder,0
;   layerHeight,0.2
;   topSolidLayers,3
;   bottomSolidLayers,3
;   perimeterOutlines,2
;   printPerimetersInsideOut,1
;   startPointOption,2
;   startPointOriginX,0
;   startPointOriginY,0
;   sequentialIslands,0
;   spiralVaseMode,0
;   firstLayerHeightPercentage,120
;   firstLayerWidthPercentage,150
;   firstLayerUnderspeed,0.5
;   useRaft,0
;   raftExtruder,0
;   raftTopLayers,3
;   raftBaseLayers,2
;   raftOffset,3
;   raftSeparationDistance,0.14
;   raftTopInfill,100
;   aboveRaftSpeedMultiplier,0.3
;   useSkirt,0
;   skirtExtruder,0
;   skirtLayers,1
;   skirtOutlines,2
;   skirtOffset,4
;   usePrimePillar,0
;   primePillarExtruder,999
;   primePillarWidth,12
;   primePillarLocation,7
;   primePillarSpeedMultiplier,1
;   useOozeShield,0
;   oozeShieldExtruder,999
;   oozeShieldOffset,2
;   oozeShieldOutlines,1
;   oozeShieldSidewallShape,1
;   oozeShieldSidewallAngle,30
;   oozeShieldSpeedMultiplier,1
;   infillExtruder,0
;   internalInfillPattern,Rectilinear
;   externalInfillPattern,Rectilinear
;   infillPercentage,20
;   outlineOverlapPercentage,15
;   infillExtrusionWidthPercentage,100
;   minInfillLength,5
;   infillLayerInterval,1
;   internalInfillAngles,45,-45
;   overlapInternalInfillAngles,0
;   externalInfillAngles,45,-45
;   generateSupport,0
;   supportExtruder,0
;   supportInfillPercentage,30
;   supportExtraInflation,0
;   supportBaseLayers,0
;   denseSupportExtruder,0
;   denseSupportLayers,0
;   denseSupportInfillPercentage,70
;   supportLayerInterval,1
;   supportHorizontalPartOffset,0.3
;   supportUpperSeparationLayers,1
;   supportLowerSeparationLayers,1
;   supportType,0
;   supportGridSpacing,4
;   maxOverhangAngle,45
;   supportAngles,0
;   temperatureName,Primary Extruder,Heated Bed
;   temperatureNumber,0,0
;   temperatureSetpointCount,1,1
;   temperatureSetpointLayers,1,1
;   temperatureSetpointTemperatures,210,60
;   temperatureStabilizeAtStartup,1,1
;   temperatureHeatedBed,0,1
;   fanLayers,1,2
;   fanSpeeds,0,100
;   blipFanToFullPower,0
;   adjustSpeedForCooling,1
;   minSpeedLayerTime,15
;   minCoolingSpeedSlowdown,20
;   increaseFanForCooling,0
;   minFanLayerTime,45
;   maxCoolingFanSpeed,100
;   increaseFanForBridging,0
;   bridgingFanSpeed,100
;   use5D,1
;   relativeEdistances,0
;   allowEaxisZeroing,1
;   independentExtruderAxes,0
;   includeM10123,0
;   stickySupport,1
;   applyToolheadOffsets,0
;   gcodeXoffset,0
;   gcodeYoffset,0
;   gcodeZoffset,0
;   overrideMachineDefinition,1
;   machineTypeOverride,0
;   strokeXoverride,220
;   strokeYoverride,220
;   strokeZoverride,250
;   originOffsetXoverride,-5
;   originOffsetYoverride,-5
;   originOffsetZoverride,0
;   homeXdirOverride,-1
;   homeYdirOverride,-1
;   homeZdirOverride,-1
;   flipXoverride,1
;   flipYoverride,-1
;   flipZoverride,1
;   toolheadOffsets,0,0|0,0|0,0|0,0|0,0|0,0
;   overrideFirmwareConfiguration,1
;   firmwareTypeOverride,RepRap (Marlin/Repetier/Sprinter)
;   GPXconfigOverride,r2
;   baudRateOverride,115200
;   overridePrinterModels,1
;   printerModelsOverride
;   startingGcode,G28 ; home all axes,G1 X5 Y10 Z0.2 F3000 ; get ready to prime,G92 E0 ; reset extrusion distance,G1 X160 E15 F600 ; prime nozzle,G1 X180 F5000 ; quick wipe
;   layerChangeGcode,
;   retractionGcode,
;   toolChangeGcode,
;   endingGcode,G28 X0 ; home X axis,M106 S0 ; turn off cooling fan,M104 S0 ; turn off extruder,M140 S0 ; turn off bed,M84 ; disable motors
;   exportFileFormat,gcode
;   celebration,0
;   celebrationSong,Random Song
;   postProcessing,
;   defaultSpeed,2400
;   outlineUnderspeed,0.5
;   solidInfillUnderspeed,0.8
;   supportUnderspeed,0.8
;   rapidXYspeed,4800
;   rapidZspeed,1000
;   minBridgingArea,50
;   bridgingExtraInflation,0
;   bridgingExtrusionMultiplier,1
;   bridgingSpeedMultiplier,1
;   useFixedBridgingAngle,0
;   fixedBridgingAngle,0
;   applyBridgingToPerimeters,0
;   filamentDiameters,1.75|1.75|1.75|1.75|1.75|1.75
;   filamentPricesPerKg,46|46|46|46|46|46
;   filamentDensities,1.25|1.25|1.25|1.25|1.25|1.25
;   useMinPrintHeight,0
;   minPrintHeight,0
;   useMaxPrintHeight,0
;   maxPrintHeight,0
;   useDiaphragm,0
;   diaphragmLayerInterval,20
;   robustSlicing,1
;   mergeAllIntoSolid,0
;   onlyRetractWhenCrossingOutline,1
;   retractBetweenLayers,1
;   useRetractionMinTravel,0
;   retractionMinTravel,3
;   retractWhileWiping,0
;   onlyWipeOutlines,1
;   avoidCrossingOutline,0
;   maxMovementDetourFactor,3
;   toolChangeRetractionDistance,12
;   toolChangeExtraRestartDistance,-0.5
;   toolChangeRetractionSpeed,600
;   externalThinWallType,0
;   internalThinWallType,2
;   thinWallAllowedOverlapPercentage,10
;   singleExtrusionMinLength,1
;   singleExtrusionMinPrintingWidthPercentage,50
;   singleExtrusionMaxPrintingWidthPercentage,200
;   singleExtrusionEndpointExtension,0.2
;   horizontalSizeCompensation,0
G90
M82
M106 S0
M140 S60
M190 S60
M104 S210 T0
M109 S210 T0
G28 ; home all axes
G1 X5 Y10 Z0.2 F3000 ; get ready to prime
G92 E0 ; reset extrusion distance
G1 X160 E15 F600 ; prime nozzle
G1 X180 F5000 ; quick wipe
; process Process1
; layer 1, Z = 0.240
T0
G92 E0.0000
G1 E-4.0000 F2400
; feature inner perimeter
; tool H0.240 W0.600
G1 Z0.240 F1000
G1 X45.050 Y103.200 F4800
G1 E0.0000 F2400
G92 E0.0000
G1 X184.950 Y103.200 E7.5380 F900
G1 X184.950 Y126.800 E8.8096
G1 X45.050 Y126.800 E16.3476
G1 X45.050 Y103.200 E17.6192
; feature outer perimeter
G1 X44.450 Y102.600 F4800
G92 E0.0000
G1 X185.550 Y102.600 E7.6027 F600
G1 X185.550 Y127.400 E8.9389
G1 X44.450 Y127.400 E16.5416
G1 X44.450 Y102.600 E17.8779
; feature inner perimeter
G1 X61.692 Y114.622 F4800
G92 E0.0000
G1 X61.446 Y115.108 E0.0293 F900
G1 X61.268 Y115.623 E0.0587
G1 X61.159 Y116.157 E0.0880
G1 X61.123 Y116.700 E0.1174
G1 X61.159 Y117.243 E0.1467
G1 X61.268 Y117.777 E0.1761
G1 X61.446 Y118.292 E0.2054
G1 X61.692 Y118.778 E0.2348
G1 X62.000 Y119.227 E0.2641
G1 X62.366 Y119.631 E0.2935
G1 X62.782 Y119.982 E0.3228
G1 X63.241 Y120.275 E0.3521
G1 X63.735 Y120.505 E0.3815
G1 X64.255 Y120.666 E0.4108
G1 X64.792 Y120.757 E0.4402
G1 X65.336 Y120.775 E0.4695
G1 X65.878 Y120.720 E0.4989
G1 X66.408 Y120.594 E0.5282
G1 X66.916 Y120.398 E0.5576
G1 X67.394 Y120.137 E0.5869
G1 X67.832 Y119.813 E0.6163
G1 X68.224 Y119.435 E0.6456
G1 X68.561 Y119.007 E0.6749
G1 X68.839 Y118.539 E0.7043
G1 X69.051 Y118.037 E0.7336
G1 X69.195 Y117.512 E0.7630
G1 X69.268 Y116.972 E0.7923
G1 X69.268 Y116.428 E0.8217
G1 X69.195 Y115.888 E0.8510
G1 X69.051 Y115.363 E0.8804
G1 X68.839 Y114.861 E0.9097
G1 X68.561 Y114.393 E0.9390
G1 X68.224 Y113.965 E0.9684
G1 X67.832 Y113.587 E0.9977
G1 X67.394 Y113.263 E1.0271
G1 X66.916 Y113.002 E1.0564
G1 X66.408 Y112.806 E1.0858
G1 X65.878 Y112.680 E1.1151
G1 X65.336 Y112.625 E1.1445
G1 X64.792 Y112.643 E1.1738
G1 X64.255 Y112.734 E1.2032
G1 X63.735 Y112.895 E1.2325
G1 X63.241 Y113.125 E1.2619
G1 X62.782 Y113.418 E1.2912
G1 X62.366 Y113.769 E1.3205
G1 X62.000 Y114.173 E1.3499
G1 X61.692 Y114.622 E1.3792
; feature outer perimeter
G1 X62.210 Y114.929 F4800
G92 E0.0000
G1 X62.000 Y115.343 E0.0250 F600
G1 X61.848 Y115.782 E0.0500
G1 X61.755 Y116.237 E0.0751
G1 X61.724 Y116.700 E0.1001
G1 X61.755 Y117.163 E0.1251
G1 X61.848 Y117.618 E0.1501
G1 X62.000 Y118.057 E0.1751
G1 X62.210 Y118.471 E0.2001
G1 X62.472 Y118.854 E0.2252
G1 X62.784 Y119.198 E0.2502
G1 X63.138 Y119.498 E0.2752
G1 X63.530 Y119.748 E0.3002
G1 X63.951 Y119.943 E0.3252
G1 X64.394 Y120.081 E0.3502
G1 X64.852 Y120.158 E0.3753
G1 X65.316 Y120.174 E0.4003
G1 X65.778 Y120.127 E0.4253
G1 X66.230 Y120.020 E0.4503
G1 X66.663 Y119.853 E0.4753
G1 X67.070 Y119.630 E0.5003
G1 X67.444 Y119.354 E0.5254
G1 X67.778 Y119.031 E0.5504
G1 X68.065 Y118.667 E0.5754
G1 X68.302 Y118.268 E0.6004
G1 X68.483 Y117.840 E0.6254
G1 X68.606 Y117.392 E0.6504
G1 X68.668 Y116.932 E0.6755
G1 X68.668 Y116.468 E0.7005
G1 X68.606 Y116.008 E0.7255
G1 X68.483 Y115.560 E0.7505
G1 X68.302 Y115.132 E0.7755
G1 X68.065 Y114.733 E0.8005
G1 X67.778 Y114.369 E0.8256
G1 X67.444 Y114.046 E0.8506
G1 X67.070 Y113.770 E0.8756
G1 X66.663 Y113.547 E0.9006
G1 X66.230 Y113.380 E0.9256
G1 X65.778 Y113.273 E0.9506
G1 X65.316 Y113.226 E0.9757
G1 X64.852 Y113.242 E1.0007
G1 X64.394 Y113.319 E1.0257
G1 X63.951 Y113.457 E1.0507
G1 X63.530 Y113.652 E1.0757
G1 X63.138 Y113.902 E1.1008
G1 X62.784 Y114.202 E1.1258
G1 X62.472 Y114.546 E1.1508
G1 X62.210 Y114.929 E1.1758
G92 E0.0000
G1 E-4.0000 F2400
; feature inner perimeter
G1 X86.523 Y116.700 F4800
G1 E0.0000 F2400
G92 E0.0000
G1 X86.559 Y117.243 E0.0293 F900
G1 X86.668 Y117.777 E0.0587
G1 X86.846 Y118.292 E0.0880
G1 X87.092 Y118.778 E0.1174
G1 X87.400 Y119.227 E0.1467
G1 X87.766 Y119.631 E0.1761
G1 X88.182 Y119.982 E0.2054
G1 X88.641 Y120.275 E0.2348
G1 X89.135 Y120.505 E0.2641
G1 X89.655 Y120.666 E0.2935
G1 X90.192 Y120.757 E0.3228
G1 X90.736 Y120.775 E0.3521
G1 X91.278 Y120.720 E0.3815
G1 X91.808 Y120.594 E0.4108
G1 X92.316 Y120.398 E0.4402
G1 X92.794 Y120.137 E0.4695
G1 X93.232 Y119.813 E0.4989
G1 X93.624 Y119.435 E0.5282
G1 X93.961 Y119.007 E0.5576
G1 X94.239 Y118.539 E0.5869
G1 X94.451 Y118.037 E0.6162
G1 X94.595 Y117.512 E0.6456
G1 X94.668 Y116.972 E0.6749
G1 X94.668 Y116.428 E0.7043
G1 X94.595 Y115.888 E0.7336
G1 X94.451 Y115.363 E0.7630
G1 X94.239 Y114.861 E0.7923
G1 X93.961 Y114.393 E0.8217
G1 X93.624 Y113.965 E0.8510
G1 X93.232 Y113.587 E0.8804
G1 X92.794 Y113.263 E0.9097
G1 X92.316 Y113.002 E0.9391
G1 X91.808 Y112.806 E0.9684
G1 X91.278 Y112.680 E0.9977
G1 X90.736 Y112.625 E1.0271
G1 X90.192 Y112.643 E1.0564
G1 X89.655 Y112.734 E1.0858
G1 X89.135 Y112.895 E1.1151
G1 X88.641 Y113.125 E1.1445
G1 X88.182 Y113.418 E1.1738
G1 X87.766 Y113.769 E1.2032
G1 X87.400 Y114.173 E1.2325
G1 X87.092 Y114.622 E1.2619
G1 X86.846 Y115.108 E1.2912
G1 X86.668 Y115.623 E1.3205
G1 X86.559 Y116.157 E1.3499
G1 X86.523 Y116.700 E1.3792
; feature outer perimeter
G1 X87.124 Y116.700 F4800
G92 E0.0000
G1 X87.155 Y117.163 E0.0250 F600
G1 X87.248 Y117.618 E0.0500
G1 X87.400 Y118.057 E0.0751
G1 X87.610 Y118.471 E0.1001
G1 X87.872 Y118.854 E0.1251
G1 X88.184 Y119.198 E0.1501
G1 X88.538 Y119.498 E0.1751
G1 X88.930 Y119.748 E0.2001
G1 X89.351 Y119.943 E0.2252
G1 X89.794 Y120.081 E0.2502
G1 X90.252 Y120.158 E0.2752
G1 X90.716 Y120.174 E0.3002
G1 X91.178 Y120.127 E0.3252
G1 X91.630 Y120.020 E0.3502
G1 X92.063 Y119.853 E0.3753
G1 X92.470 Y119.630 E0.4003
G1 X92.844 Y119.354 E0.4253
G1 X93.178 Y119.031 E0.4503
G1 X93.465 Y118.667 E0.4753
G1 X93.702 Y118.268 E0.5003
G1 X93.883 Y117.840 E0.5254
G1 X94.006 Y117.392 E0.5504
G1 X94.068 Y116.932 E0.5754
G1 X94.068 Y116.468 E0.6004
G1 X94.006 Y116.008 E0.6254
G1 X93.883 Y115.560 E0.6504
G1 X93.702 Y115.132 E0.6755
G1 X93.465 Y114.733 E0.7005
G1 X93.178 Y114.369 E0.7255
G1 X92.844 Y114.046 E0.7505
G1 X92.470 Y113.770 E0.7755
G1 X92.063 Y113.547 E0.8005
G1 X91.630 Y113.380 E0.8256
G1 X91.178 Y113.273 E0.8506
G1 X90.716 Y113.226 E0.8756
G1 X90.252 Y113.242 E0.9006
G1 X89.794 Y113.319 E0.9256
G1 X89.351 Y113.457 E0.9506
G1 X88.930 Y113.652 E0.9757
G1 X88.538 Y113.902 E1.0007
G1 X88.184 Y114.202 E1.0257
G1 X87.872 Y114.546 E1.0507
G1 X87.610 Y114.929 E1.0757
G1 X87.400 Y115.343 E1.1008
G1 X87.248 Y115.782 E1.1258
G1 X87.155 Y116.237 E1.1508
G1 X87.124 Y116.700 E1.1758
G92 E0.0000
G1 E-4.0000 F2400
; feature inner perimeter
G1 X169.073 Y116.700 F4800
G1 E0.0000 F2400
G92 E0.0000
G1 X169.109 Y117.243 E0.0293 F900
G1 X169.218 Y117.777 E0.0587
G1 X169.396 Y118.292 E0.0880
G1 X169.642 Y118.778 E0.1174
G1 X169.950 Y119.227 E0.1467
G1 X170.316 Y119.631 E0.1761
G1 X170.732 Y119.982 E0.2054
G1 X171.191 Y120.275 E0.2348
G1 X171.685 Y120.505 E0.2641
G1 X172.205 Y120.666 E0.2935
G1 X172.742 Y120.757 E0.3228
G1 X173.286 Y120.775 E0.3521
G1 X173.828 Y120.720 E0.3815
G1 X174.358 Y120.594 E0.4108
G1 X174.866 Y120.398 E0.4402
G1 X175.344 Y120.136 E0.4695
G1 X175.782 Y119.813 E0.4989
G1 X176.174 Y119.435 E0.5282
G1 X176.511 Y119.007 E0.5576
G1 X176.789 Y118.539 E0.5869
G1 X177.001 Y118.037 E0.6163
G1 X177.145 Y117.512 E0.6456
G1 X177.218 Y116.972 E0.6749
G1 X177.218 Y116.428 E0.7043
G1 X177.145 Y115.888 E0.7336
G1 X177.001 Y115.363 E0.7630
G1 X176.789 Y114.861 E0.7923
G1 X176.511 Y114.393 E0.8217
G1 X176.174 Y113.965 E0.8510
G1 X175.782 Y113.587 E0.8804
G1 X175.344 Y113.264 E0.9097
G1 X174.866 Y113.002 E0.9391
G1 X174.358 Y112.806 E0.9684
G1 X173.828 Y112.680 E0.9977
G1 X173.286 Y112.625 E1.0271
G1 X172.742 Y112.643 E1.0564
G1 X172.205 Y112.734 E1.0858
G1 X171.685 Y112.895 E1.1151
G1 X171.191 Y113.125 E1.1445
G1 X170.732 Y113.418 E1.1738
G1 X170.316 Y113.769 E1.2032
G1 X169.950 Y114.173 E1.2325
G1 X169.642 Y114.622 E1.2619
G1 X169.396 Y115.108 E1.2912
G1 X169.218 Y115.623 E1.3205
G1 X169.109 Y116.157 E1.3499
G1 X169.073 Y116.700 E1.3792
; feature outer perimeter
G1 X169.674 Y116.700 F4800
G92 E0.0000
G1 X169.705 Y117.163 E0.0250 F600
G1 X169.798 Y117.618 E0.0500
G1 X169.950 Y118.057 E0.0751
G1 X170.160 Y118.471 E0.1001
G1 X170.422 Y118.854 E0.1251
G1 X170.734 Y119.198 E0.1501
G1 X171.088 Y119.498 E0.1751
G1 X171.480 Y119.748 E0.2001
G1 X171.901 Y119.943 E0.2252
G1 X172.344 Y120.081 E0.2502
G1 X172.802 Y120.158 E0.2752
G1 X173.266 Y120.174 E0.3002
G1 X173.728 Y120.127 E0.3252
G1 X174.180 Y120.020 E0.3502
G1 X174.613 Y119.853 E0.3753
G1 X175.020 Y119.630 E0.4003
G1 X175.394 Y119.354 E0.4253
G1 X175.728 Y119.031 E0.4503
G1 X176.015 Y118.667 E0.4753
G1 X176.252 Y118.268 E0.5003
G1 X176.433 Y117.840 E0.5254
G1 X176.556 Y117.392 E0.5504
G1 X176.618 Y116.932 E0.5754
G1 X176.618 Y116.468 E0.6004
G1 X176.556 Y116.008 E0.6254
G1 X176.433 Y115.560 E0.6504
G1 X176.252 Y115.132 E0.6755
G1 X176.015 Y114.733 E0.7005
G1 X175.728 Y114.369 E0.7255
G1 X175.394 Y114.046 E0.7505
G1 X175.020 Y113.770 E0.7755
G1 X174.613 Y113.547 E0.8005
G1 X174.180 Y113.380 E0.8256
G1 X173.728 Y113.273 E0.8506
G1 X173.266 Y113.226 E0.8756
G1 X172.802 Y113.242 E0.9006
G1 X172.344 Y113.319 E0.9256
G1 X171.901 Y113.457 E0.9506
G1 X171.480 Y113.652 E0.9757
G1 X171.088 Y113.902 E1.0007
G1 X170.734 Y114.202 E1.0257
G1 X170.422 Y114.546 E1.0507
G1 X170.160 Y114.929 E1.0757
G1 X169.950 Y115.343 E1.1008
G1 X169.798 Y115.782 E1.1258
G1 X169.705 Y116.237 E1.1508
G1 X169.674 Y116.700 E1.1758
G92 E0.0000
G1 E-4.0000 F2400
; feature solid layer
G1 X172.070 Y121.158 F4800
G1 E0.0000 F2400
G92 E0.0000
G1 X177.202 Y126.290 E0.3911 F960
G1 X178.050 Y126.290 E0.4368
G1 X173.037 Y121.277 E0.8188
G1 X173.303 Y121.286 E0.8332
G1 X173.840 Y121.232 E0.8622
G1 X178.899 Y126.290 E1.2477
G1 X179.747 Y126.290 E1.2934
G1 X174.531 Y121.074 E1.6909
G1 X175.081 Y120.862 E1.7227
G1 X175.137 Y120.831 E1.7261
G1 X180.596 Y126.290 E2.1420
G1 X181.444 Y126.290 E2.1878
G1 X175.678 Y120.524 E2.6271
G1 X176.112 Y120.204 E2.6562
G1 X176.160 Y120.157 E2.6598
G1 X182.293 Y126.290 E3.1271
G1 X183.141 Y126.290 E3.1728
G1 X176.586 Y119.735 E3.6723
G1 X176.933 Y119.297 E3.7024
G1 X176.956 Y119.257 E3.7049
G1 X183.990 Y126.290 E4.2409
G1 X184.440 Y126.290 E4.2651
G1 X184.440 Y125.892 E4.2866
G1 X177.267 Y118.718 E4.8332
G1 X177.484 Y118.205 E4.8632
G1 X177.510 Y118.113 E4.8684
G1 X184.440 Y125.043 E5.3965
G1 X184.440 Y124.194 E5.4422
G1 X177.671 Y117.426 E5.9580
G1 X177.728 Y117.006 E5.9808
G1 X177.728 Y116.634 E6.0009
G1 X184.440 Y123.346 E6.5123
G1 X184.440 Y122.497 E6.5580
G1 X177.615 Y115.673 E7.0781
G1 X184.320 Y103.710 F4800
G92 E0.0000
G1 X184.440 Y103.830 E0.0091 F960
