; G-Code generated by Simplify3D(R) Version 4.1.2
; Apr 9, 2020 at 9:19:46 AM
; Settings Summary
;   processName,Process1
;   applyToModels,Elastic_ClipV1.3,Elastic_ClipV1.3(2),Elastic_ClipV1.3(3),Elastic_ClipV1.3(4),Elastic_ClipV1.3(5),Elastic_ClipV1.3(6),Elastic_ClipV1.3(7),Elastic_ClipV1.3(7)(2)
;   profileName,Creality Ender 3 Pro (Mask 2.1)
;   profileVersion,2020-04-09 09:08:56
;   baseProfile,Creality Ender 3 Pro (modified)
;   printMaterial,PLA
;   printQuality,MASK-2.1
;   printExtruders,
;   extruderName,Primary Extruder
;   extruderToolheadNumber,0
;   extruderDiameter,0.4
;   extruderAutoWidth,0
;   extruderWidth,0.7
;   extrusionMultiplier,0.9
;   extruderUseRetract,1
;   extruderRetractionDistance,6
;   extruderExtraRestartDistance,0
;   extruderRetractionZLift,0
;   extruderRetractionSpeed,1500
;   extruderUseCoasting,0
;   extruderCoastingDistance,0.2
;   extruderUseWipe,0
;   extruderWipeDistance,5
;   primaryExtruder,0
;   layerHeight,0.2
;   topSolidLayers,4
;   bottomSolidLayers,4
;   perimeterOutlines,3
;   printPerimetersInsideOut,0
;   startPointOption,2
;   startPointOriginX,0
;   startPointOriginY,0
;   sequentialIslands,0
;   spiralVaseMode,0
;   firstLayerHeightPercentage,120
;   firstLayerWidthPercentage,110
;   firstLayerUnderspeed,0.5
;   useRaft,0
;   raftExtruder,0
;   raftTopLayers,3
;   raftBaseLayers,2
;   raftOffset,3
;   raftSeparationDistance,0.14
;   raftTopInfill,100
;   aboveRaftSpeedMultiplier,0.3
;   useSkirt,0
;   skirtExtruder,0
;   skirtLayers,1
;   skirtOutlines,2
;   skirtOffset,4
;   usePrimePillar,0
;   primePillarExtruder,999
;   primePillarWidth,12
;   primePillarLocation,7
;   primePillarSpeedMultiplier,1
;   useOozeShield,0
;   oozeShieldExtruder,999
;   oozeShieldOffset,2
;   oozeShieldOutlines,1
;   oozeShieldSidewallShape,1
;   oozeShieldSidewallAngle,30
;   oozeShieldSpeedMultiplier,1
;   infillExtruder,0
;   internalInfillPattern,Rectilinear
;   externalInfillPattern,Rectilinear
;   infillPercentage,50
;   outlineOverlapPercentage,15
;   infillExtrusionWidthPercentage,100
;   minInfillLength,5
;   infillLayerInterval,1
;   internalInfillAngles,45,-45
;   overlapInternalInfillAngles,0
;   externalInfillAngles,45,-45
;   generateSupport,0
;   supportExtruder,0
;   supportInfillPercentage,25
;   supportExtraInflation,0
;   supportBaseLayers,0
;   denseSupportExtruder,0
;   denseSupportLayers,0
;   denseSupportInfillPercentage,70
;   supportLayerInterval,1
;   supportHorizontalPartOffset,0.3
;   supportUpperSeparationLayers,1
;   supportLowerSeparationLayers,1
;   supportType,0
;   supportGridSpacing,4
;   maxOverhangAngle,45
;   supportAngles,0
;   temperatureName,Primary Extruder,Heated Bed
;   temperatureNumber,0,0
;   temperatureSetpointCount,1,1
;   temperatureSetpointLayers,1,1
;   temperatureSetpointTemperatures,200,60
;   temperatureStabilizeAtStartup,1,1
;   temperatureHeatedBed,0,1
;   fanLayers,1,2
;   fanSpeeds,0,100
;   blipFanToFullPower,0
;   adjustSpeedForCooling,1
;   minSpeedLayerTime,15
;   minCoolingSpeedSlowdown,20
;   increaseFanForCooling,0
;   minFanLayerTime,45
;   maxCoolingFanSpeed,100
;   increaseFanForBridging,0
;   bridgingFanSpeed,100
;   use5D,1
;   relativeEdistances,0
;   allowEaxisZeroing,1
;   independentExtruderAxes,0
;   includeM10123,0
;   stickySupport,1
;   applyToolheadOffsets,0
;   gcodeXoffset,0
;   gcodeYoffset,0
;   gcodeZoffset,0
;   overrideMachineDefinition,1
;   machineTypeOverride,0
;   strokeXoverride,220
;   strokeYoverride,220
;   strokeZoverride,250
;   originOffsetXoverride,-5
;   originOffsetYoverride,-5
;   originOffsetZoverride,0
;   homeXdirOverride,-1
;   homeYdirOverride,-1
;   homeZdirOverride,-1
;   flipXoverride,1
;   flipYoverride,-1
;   flipZoverride,1
;   toolheadOffsets,0,0|0,0|0,0|0,0|0,0|0,0
;   overrideFirmwareConfiguration,1
;   firmwareTypeOverride,RepRap (Marlin/Repetier/Sprinter)
;   GPXconfigOverride,r2
;   baudRateOverride,115200
;   overridePrinterModels,1
;   printerModelsOverride
;   startingGcode,G28 ; home all axes,G1 X5 Y10 Z0.2 F3000 ; get ready to prime,G92 E0 ; reset extrusion distance,G1 X160 E15 F600 ; prime nozzle,G1 X180 F5000 ; quick wipe
;   layerChangeGcode,
;   retractionGcode,
;   toolChangeGcode,
;   endingGcode,G28 X0 ; home X axis,M106 S0 ; turn off cooling fan,M104 S0 ; turn off extruder,M140 S0 ; turn off bed,M84 ; disable motors
;   exportFileFormat,gcode
;   celebration,0
;   celebrationSong,Random Song
;   postProcessing,
;   defaultSpeed,3000
;   outlineUnderspeed,0.75
;   solidInfillUnderspeed,0.8
;   supportUnderspeed,0.8
;   rapidXYspeed,4800
;   rapidZspeed,1000
;   minBridgingArea,50
;   bridgingExtraInflation,0
;   bridgingExtrusionMultiplier,1
;   bridgingSpeedMultiplier,1
;   useFixedBridgingAngle,0
;   fixedBridgingAngle,0
;   applyBridgingToPerimeters,0
;   filamentDiameters,1.75|1.75|1.75|1.75|1.75|1.75
;   filamentPricesPerKg,25|46|46|46|46|46
;   filamentDensities,1.25|1.25|1.25|1.25|1.25|1.25
;   useMinPrintHeight,0
;   minPrintHeight,9
;   useMaxPrintHeight,0
;   maxPrintHeight,9
;   useDiaphragm,0
;   diaphragmLayerInterval,20
;   robustSlicing,1
;   mergeAllIntoSolid,0
;   onlyRetractWhenCrossingOutline,1
;   retractBetweenLayers,1
;   useRetractionMinTravel,0
;   retractionMinTravel,3
;   retractWhileWiping,0
;   onlyWipeOutlines,1
;   avoidCrossingOutline,0
;   maxMovementDetourFactor,3
;   toolChangeRetractionDistance,12
;   toolChangeExtraRestartDistance,-0.5
;   toolChangeRetractionSpeed,600
;   externalThinWallType,0
;   internalThinWallType,2
;   thinWallAllowedOverlapPercentage,10
;   singleExtrusionMinLength,1
;   singleExtrusionMinPrintingWidthPercentage,50
;   singleExtrusionMaxPrintingWidthPercentage,200
;   singleExtrusionEndpointExtension,0.2
;   horizontalSizeCompensation,0
G90
M82
M106 S0
M140 S72
M190 S72
M104 S225 T0
M109 S225 T0
G28 ; home all axes
G1 X5 Y10 Z0.2 F3000 ; get ready to prime
G92 E0 ; reset extrusion distance
G1 X160 E15 F600 ; prime nozzle
G1 X180 F5000 ; quick wipe
; process Process1
; layer 1, Z = 0.240
T0
G92 E0.0000
G1 E-6.0000 F1500
; feature outer perimeter
; tool H0.240 W0.770
G1 Z0.240 F1000
G1 X82.081 Y90.885 F4800
G1 E0.0000 F1500
G92 E0.0000
G1 X99.949 Y90.885 E1.2355 F1125
G1 X99.949 Y103.115 E2.0812
G1 X82.081 Y103.115 E3.3168
G1 X82.081 Y90.885 E4.1624
G1 X83.311 Y91.615 F4800
G92 E0.0000
G1 X83.311 Y102.385 E0.7447 F1125
G1 X86.785 Y102.385 E0.9850
G1 X86.785 Y91.615 E1.7297
G1 X83.311 Y91.615 E1.9699
G1 X88.563 Y91.615 F4800
G92 E0.0000
G1 X88.563 Y102.385 E0.7447 F1125
G1 X90.400 Y102.385 E0.8718
G1 X90.400 Y91.615 E1.6165
G1 X88.563 Y91.615 E1.7435
G1 X91.630 Y91.615 F4800
G92 E0.0000
G1 X91.630 Y102.385 E0.7447 F1125
G1 X93.467 Y102.385 E0.8718
G1 X93.467 Y91.615 E1.6165
G1 X91.630 Y91.615 E1.7435
G1 X95.245 Y91.615 F4800
G92 E0.0000
G1 X95.245 Y102.385 E0.7447 F1125
G1 X98.719 Y102.385 E0.9850
G1 X98.719 Y91.615 E1.7297
G1 X95.245 Y91.615 E1.9699
; feature gap fill
; tool H0.240 W0.700
G1 X94.474 Y91.504 F4800
G92 E0.0000
G1 X94.625 Y91.655 E0.0134 F1500
G1 X94.625 Y92.645 E0.0756
G1 X94.087 Y92.107 E0.1235
G1 X94.087 Y93.097 E0.1857
G1 X94.625 Y93.635 E0.2336
G1 X94.625 Y94.625 E0.2958
G1 X94.087 Y94.087 E0.3437
G1 X94.087 Y95.077 E0.4059
G1 X94.625 Y95.615 E0.4538
G1 X94.625 Y96.605 E0.5160
G1 X94.087 Y96.067 E0.5638
G1 X94.087 Y97.057 E0.6261
G1 X94.625 Y97.595 E0.6739
G1 X94.625 Y98.585 E0.7362
G1 X94.087 Y98.047 E0.7840
G1 X94.087 Y99.037 E0.8462
G1 X94.625 Y99.575 E0.8941
G1 X94.625 Y100.565 E0.9563
G1 X94.087 Y100.027 E1.0042
G1 X94.087 Y101.017 E1.0664
G1 X94.625 Y101.555 E1.1143
G1 X94.625 Y102.496 E1.1734
G1 X94.576 Y102.496 E1.1765
G1 X94.087 Y102.007 E1.2200
G1 X87.405 Y102.254 F4800
G92 E0.0000
G1 X87.646 Y102.496 E0.0215 F1500
G1 X87.943 Y102.496 E0.0401
G1 X87.943 Y101.802 E0.0837
G1 X87.405 Y101.264 E0.1315
G1 X87.405 Y100.274 E0.1938
G1 X87.943 Y100.813 E0.2416
G1 X87.943 Y99.823 E0.3039
G1 X87.405 Y99.284 E0.3517
G1 X87.405 Y98.294 E0.4139
G1 X87.943 Y98.833 E0.4618
G1 X87.943 Y97.843 E0.5240
G1 X87.405 Y97.304 E0.5719
G1 X87.405 Y96.314 E0.6341
G1 X87.943 Y96.853 E0.6820
G1 X87.943 Y95.863 E0.7442
G1 X87.405 Y95.324 E0.7921
G1 X87.405 Y94.335 E0.8543
G1 X87.943 Y94.873 E0.9022
G1 X87.943 Y93.883 E0.9644
G1 X87.405 Y93.345 E1.0122
G1 X87.405 Y92.355 E1.0745
G1 X87.943 Y92.893 E1.1223
G1 X87.943 Y91.903 E1.1846
G1 X87.545 Y91.504 E1.2200
G92 E0.0000
G1 E-6.0000 F1500
; feature outer perimeter
; tool H0.240 W0.770
G1 X82.081 Y108.885 F4800
G1 E0.0000 F1500
G92 E0.0000
G1 X99.949 Y108.885 E1.2355 F1125
G1 X99.949 Y121.115 E2.0812
G1 X82.081 Y121.115 E3.3168
G1 X82.081 Y108.885 E4.1624
G1 X83.311 Y109.615 F4800
G92 E0.0000
G1 X83.311 Y120.385 E0.7447 F1125
G1 X86.785 Y120.385 E0.9850
G1 X86.785 Y109.615 E1.7297
G1 X83.311 Y109.615 E1.9699
G1 X88.563 Y109.615 F4800
G92 E0.0000
G1 X88.563 Y120.385 E0.7447 F1125
G1 X90.400 Y120.385 E0.8718
G1 X90.400 Y109.615 E1.6165
G1 X88.563 Y109.615 E1.7435
G1 X91.630 Y109.615 F4800
G92 E0.0000
G1 X91.630 Y120.385 E0.7447 F1125
G1 X93.467 Y120.385 E0.8718
G1 X93.467 Y109.615 E1.6165
G1 X91.630 Y109.615 E1.7435
G1 X95.245 Y109.615 F4800
G92 E0.0000
G1 X95.245 Y120.385 E0.7447 F1125
G1 X98.719 Y120.385 E0.9850
G1 X98.719 Y109.615 E1.7297
G1 X95.245 Y109.615 E1.9699
; feature gap fill
; tool H0.240 W0.700
G1 X94.087 Y109.926 F4800
G92 E0.0000
G1 X94.625 Y110.464 E0.0479 F1500
G1 X94.625 Y111.454 E0.1101
G1 X94.087 Y110.916 E0.1579
G1 X94.087 Y111.906 E0.2202
G1 X94.625 Y112.444 E0.2680
G1 X94.625 Y113.434 E0.3303
G1 X94.087 Y112.896 E0.3781
G1 X94.087 Y113.886 E0.4403
G1 X94.625 Y114.424 E0.4882
G1 X94.625 Y115.414 E0.5504
G1 X94.087 Y114.876 E0.5983
G1 X94.087 Y115.866 E0.6605
G1 X94.625 Y116.404 E0.7084
G1 X94.625 Y117.394 E0.7706
G1 X94.087 Y116.856 E0.8185
G1 X94.087 Y117.846 E0.8807
G1 X94.625 Y118.384 E0.9285
G1 X94.625 Y119.374 E0.9908
G1 X94.087 Y118.836 E1.0386
G1 X94.087 Y119.826 E1.1009
G1 X94.625 Y120.364 E1.1487
G1 X87.405 Y120.073 F4800
G92 E0.0000
G1 X87.827 Y120.496 E0.0375 F1500
G1 X87.943 Y120.496 E0.0448
G1 X87.943 Y119.622 E0.0998
G1 X87.405 Y119.083 E0.1476
G1 X87.405 Y118.093 E0.2099
G1 X87.943 Y118.632 E0.2577
G1 X87.943 Y117.642 E0.3199
G1 X87.405 Y117.103 E0.3678
G1 X87.405 Y116.113 E0.4300
G1 X87.943 Y116.652 E0.4779
G1 X87.943 Y115.662 E0.5401
G1 X87.405 Y115.123 E0.5880
G1 X87.405 Y114.133 E0.6502
G1 X87.943 Y114.672 E0.6981
G1 X87.943 Y113.682 E0.7603
G1 X87.405 Y113.144 E0.8081
G1 X87.405 Y112.154 E0.8704
G1 X87.943 Y112.692 E0.9182
G1 X87.943 Y111.702 E0.9805
G1 X87.405 Y111.164 E1.0283
G1 X87.405 Y110.174 E1.0906
G1 X87.943 Y110.712 E1.1384
G1 X87.943 Y109.722 E1.2006
G1 X87.726 Y109.504 E1.2200
G92 E0.0000
G1 E-6.0000 F1500
; feature outer perimeter
; tool H0.240 W0.770
G1 X106.066 Y108.885 F4800
G1 E0.0000 F1500
G92 E0.0000
G1 X123.934 Y108.885 E1.2355 F1125
G1 X123.934 Y121.115 E2.0812
G1 X106.066 Y121.115 E3.3168
G1 X106.066 Y108.885 E4.1624
G1 X107.296 Y109.615 F4800
G92 E0.0000
G1 X107.296 Y120.385 E0.7447 F1125
G1 X110.770 Y120.385 E0.9850
G1 X110.770 Y109.615 E1.7297
G1 X107.296 Y109.615 E1.9699
G1 X112.548 Y109.615 F4800
G92 E0.0000
G1 X112.548 Y120.385 E0.7447 F1125
G1 X114.385 Y120.385 E0.8718
G1 X114.385 Y109.615 E1.6165
G1 X112.548 Y109.615 E1.7435
G1 X115.615 Y109.615 F4800
G92 E0.0000
G1 X115.615 Y120.385 E0.7447 F1125
G1 X117.452 Y120.385 E0.8718
G1 X117.452 Y109.615 E1.6165
G1 X115.615 Y109.615 E1.7435
G1 X119.230 Y109.615 F4800
G92 E0.0000
G1 X119.230 Y120.385 E0.7447 F1125
G1 X122.704 Y120.385 E0.9850
G1 X122.704 Y109.615 E1.7297
G1 X119.230 Y109.615 E1.9699
; feature gap fill
; tool H0.240 W0.700
G1 X118.414 Y109.504 F4800
G92 E0.0000
G1 X118.610 Y109.701 E0.0174 F1500
G1 X118.610 Y110.691 E0.0797
G1 X118.072 Y110.152 E0.1275
G1 X118.072 Y111.142 E0.1898
G1 X118.610 Y111.681 E0.2376
G1 X118.610 Y112.671 E0.2998
G1 X118.072 Y112.132 E0.3477
G1 X118.072 Y113.122 E0.4099
G1 X118.610 Y113.660 E0.4578
G1 X118.610 Y114.650 E0.5200
G1 X118.072 Y114.112 E0.5679
G1 X118.072 Y115.102 E0.6301
G1 X118.610 Y115.640 E0.6780
G1 X118.610 Y116.630 E0.7402
G1 X118.072 Y116.092 E0.7881
G1 X118.072 Y117.082 E0.8503
G1 X118.610 Y117.620 E0.8981
G1 X118.610 Y118.610 E0.9604
G1 X118.072 Y118.072 E1.0082
G1 X118.072 Y119.062 E1.0705
G1 X118.610 Y119.600 E1.1183
G1 X118.610 Y120.496 E1.1746
G1 X118.516 Y120.496 E1.1805
G1 X118.072 Y120.052 E1.2200
G1 X111.390 Y120.299 F4800
G92 E0.0000
G1 X111.586 Y120.496 E0.0174 F1500
G1 X111.928 Y120.496 E0.0389
G1 X111.928 Y119.848 E0.0797
G1 X111.390 Y119.309 E0.1275
G1 X111.390 Y118.319 E0.1898
G1 X111.928 Y118.858 E0.2376
G1 X111.928 Y117.868 E0.2998
G1 X111.390 Y117.329 E0.3477
G1 X111.390 Y116.339 E0.4099
G1 X111.928 Y116.878 E0.4578
G1 X111.928 Y115.888 E0.5200
G1 X111.390 Y115.350 E0.5679
G1 X111.390 Y114.360 E0.6301
G1 X111.928 Y114.898 E0.6780
G1 X111.928 Y113.908 E0.7402
G1 X111.390 Y113.370 E0.7881
G1 X111.390 Y112.380 E0.8503
G1 X111.928 Y112.918 E0.8981
G1 X111.928 Y111.928 E0.9604
G1 X111.390 Y111.390 E1.0082
G1 X111.390 Y110.400 E1.0705
G1 X111.928 Y110.938 E1.1183
G1 X111.928 Y109.948 E1.1805
G1 X111.484 Y109.504 E1.2200
G92 E0.0000
G1 E-6.0000 F1500
; feature outer perimeter
; tool H0.240 W0.770
G1 X106.066 Y103.115 F4800
G1 E0.0000 F1500
G92 E0.0000
G1 X106.066 Y90.885 E0.8457 F1125
G1 X123.934 Y90.885 E2.0812
G1 X123.934 Y103.115 E2.9269
G1 X106.066 Y103.115 E4.1624
G1 X107.296 Y102.385 F4800
G92 E0.0000
G1 X110.770 Y102.385 E0.2402 F1125
G1 X110.770 Y91.615 E0.9850
G1 X107.296 Y91.615 E1.2252
G1 X107.296 Y102.385 E1.9699
G1 X112.548 Y102.385 F4800
G92 E0.0000
G1 X114.385 Y102.385 E0.1271 F1125
G1 X114.385 Y91.615 E0.8718
G1 X112.548 Y91.615 E0.9988
G1 X112.548 Y102.385 E1.7435
G1 X115.615 Y102.385 F4800
G92 E0.0000
G1 X117.452 Y102.385 E0.1271 F1125
G1 X117.452 Y91.615 E0.8718
G1 X115.615 Y91.615 E0.9988
G1 X115.615 Y102.385 E1.7435
G1 X119.230 Y102.385 F4800
G92 E0.0000
G1 X122.704 Y102.385 E0.2402 F1125
G1 X122.704 Y91.615 E0.9850
G1 X119.230 Y91.615 E1.2252
G1 X119.230 Y102.385 E1.9699
; feature gap fill
; tool H0.240 W0.700
G1 X118.072 Y102.233 F4800
G92 E0.0000
G1 X118.335 Y102.496 E0.0234 F1500
G1 X118.610 Y102.496 E0.0407
G1 X118.610 Y101.781 E0.0856
G1 X118.072 Y101.243 E0.1334
G1 X118.072 Y100.253 E0.1957
G1 X118.610 Y100.791 E0.2435
G1 X118.610 Y99.801 E0.3058
G1 X118.072 Y99.263 E0.3536
G1 X118.072 Y98.273 E0.4159
G1 X118.610 Y98.811 E0.4637
G1 X118.610 Y97.821 E0.5259
G1 X118.072 Y97.283 E0.5738
G1 X118.072 Y96.293 E0.6360
G1 X118.610 Y96.831 E0.6839
G1 X118.610 Y95.841 E0.7461
G1 X118.072 Y95.303 E0.7940
G1 X118.072 Y94.313 E0.8562
G1 X118.610 Y94.851 E0.9041
G1 X118.610 Y93.861 E0.9663
G1 X118.072 Y93.323 E1.0141
G1 X118.072 Y92.333 E1.0764
G1 X118.610 Y92.872 E1.1242
G1 X118.610 Y91.882 E1.1865
G1 X118.233 Y91.504 E1.2200
G1 X111.390 Y91.591 F4800
G92 E0.0000
G1 X111.928 Y92.129 E0.0479 F1500
G1 X111.928 Y93.119 E0.1101
G1 X111.390 Y92.581 E0.1579
G1 X111.390 Y93.571 E0.2202
G1 X111.928 Y94.109 E0.2680
G1 X111.928 Y95.099 E0.3303
G1 X111.390 Y94.561 E0.3781
G1 X111.390 Y95.551 E0.4404
G1 X111.928 Y96.089 E0.4882
G1 X111.928 Y97.079 E0.5504
G1 X111.390 Y96.541 E0.5983
G1 X111.390 Y97.530 E0.6605
G1 X111.928 Y98.069 E0.7084
G1 X111.928 Y99.059 E0.7706
G1 X111.390 Y98.520 E0.8185
G1 X111.390 Y99.510 E0.8807
G1 X111.928 Y100.049 E0.9286
G1 X111.928 Y101.039 E0.9908
G1 X111.390 Y100.500 E1.0387
G1 X111.390 Y101.490 E1.1009
G1 X111.928 Y102.029 E1.1487
G1 X111.928 Y102.496 E1.1781
G1 X111.405 Y102.496 E1.2110
G1 X111.390 Y102.480 E1.2123
G92 E0.0000
G1 E-6.0000 F1500
; feature outer perimeter
; tool H0.240 W0.770
G1 X130.051 Y103.115 F4800
G1 E0.0000 F1500
G92 E0.0000
G1 X130.051 Y90.885 E0.8457 F1125
G1 X147.919 Y90.885 E2.0812
G1 X147.919 Y103.115 E2.9269
G1 X130.051 Y103.115 E4.1624
G1 X131.281 Y102.385 F4800
G92 E0.0000
G1 X134.755 Y102.385 E0.2402 F1125
G1 X134.755 Y91.615 E0.9850
G1 X131.281 Y91.615 E1.2252
G1 X131.281 Y102.385 E1.9699
G1 X136.532 Y102.385 F4800
G92 E0.0000
G1 X138.370 Y102.385 E0.1271 F1125
G1 X138.370 Y91.615 E0.8718
G1 X136.532 Y91.615 E0.9988
G1 X136.532 Y102.385 E1.7435
G1 X139.600 Y102.385 F4800
