; G-Code generated by Simplify3D(R) Version 4.1.2
; Apr 2, 2020 at 8:11:10 PM
; Settings Summary
;   processName,Process1
;   applyToModels,bedleveling-try_this_one_first
;   profileName,Creality Ender 3 Pro
;   profileVersion,2019-04-06 08:00:00
;   baseProfile,
;   printMaterial,PLA
;   printQuality,Fast
;   printExtruders,
;   extruderName,Primary Extruder
;   extruderToolheadNumber,0
;   extruderDiameter,0.4
;   extruderAutoWidth,0
;   extruderWidth,0.4
;   extrusionMultiplier,0.9
;   extruderUseRetract,1
;   extruderRetractionDistance,4
;   extruderExtraRestartDistance,0
;   extruderRetractionZLift,0
;   extruderRetractionSpeed,2400
;   extruderUseCoasting,0
;   extruderCoastingDistance,0.2
;   extruderUseWipe,0
;   extruderWipeDistance,5
;   primaryExtruder,0
;   layerHeight,0.3
;   topSolidLayers,3
;   bottomSolidLayers,3
;   perimeterOutlines,2
;   printPerimetersInsideOut,1
;   startPointOption,2
;   startPointOriginX,0
;   startPointOriginY,0
;   sequentialIslands,0
;   spiralVaseMode,0
;   firstLayerHeightPercentage,120
;   firstLayerWidthPercentage,150
;   firstLayerUnderspeed,0.5
;   useRaft,0
;   raftExtruder,0
;   raftTopLayers,3
;   raftBaseLayers,2
;   raftOffset,3
;   raftSeparationDistance,0.14
;   raftTopInfill,100
;   aboveRaftSpeedMultiplier,0.3
;   useSkirt,1
;   skirtExtruder,0
;   skirtLayers,1
;   skirtOutlines,2
;   skirtOffset,4
;   usePrimePillar,0
;   primePillarExtruder,999
;   primePillarWidth,12
;   primePillarLocation,7
;   primePillarSpeedMultiplier,1
;   useOozeShield,0
;   oozeShieldExtruder,999
;   oozeShieldOffset,2
;   oozeShieldOutlines,1
;   oozeShieldSidewallShape,1
;   oozeShieldSidewallAngle,30
;   oozeShieldSpeedMultiplier,1
;   infillExtruder,0
;   internalInfillPattern,Rectilinear
;   externalInfillPattern,Rectilinear
;   infillPercentage,15
;   outlineOverlapPercentage,15
;   infillExtrusionWidthPercentage,100
;   minInfillLength,5
;   infillLayerInterval,1
;   internalInfillAngles,45,-45
;   overlapInternalInfillAngles,0
;   externalInfillAngles,45,-45
;   generateSupport,0
;   supportExtruder,0
;   supportInfillPercentage,25
;   supportExtraInflation,0
;   supportBaseLayers,0
;   denseSupportExtruder,0
;   denseSupportLayers,0
;   denseSupportInfillPercentage,70
;   supportLayerInterval,1
;   supportHorizontalPartOffset,0.3
;   supportUpperSeparationLayers,1
;   supportLowerSeparationLayers,1
;   supportType,0
;   supportGridSpacing,4
;   maxOverhangAngle,45
;   supportAngles,0
;   temperatureName,Primary Extruder,Heated Bed
;   temperatureNumber,0,0
;   temperatureSetpointCount,1,1
;   temperatureSetpointLayers,1,1
;   temperatureSetpointTemperatures,210,60
;   temperatureStabilizeAtStartup,1,1
;   temperatureHeatedBed,0,1
;   fanLayers,1,2
;   fanSpeeds,0,100
;   blipFanToFullPower,0
;   adjustSpeedForCooling,1
;   minSpeedLayerTime,15
;   minCoolingSpeedSlowdown,20
;   increaseFanForCooling,0
;   minFanLayerTime,45
;   maxCoolingFanSpeed,100
;   increaseFanForBridging,0
;   bridgingFanSpeed,100
;   use5D,1
;   relativeEdistances,0
;   allowEaxisZeroing,1
;   independentExtruderAxes,0
;   includeM10123,0
;   stickySupport,1
;   applyToolheadOffsets,0
;   gcodeXoffset,0
;   gcodeYoffset,0
;   gcodeZoffset,0
;   overrideMachineDefinition,1
;   machineTypeOverride,0
;   strokeXoverride,220
;   strokeYoverride,220
;   strokeZoverride,250
;   originOffsetXoverride,-5
;   originOffsetYoverride,-5
;   originOffsetZoverride,0
;   homeXdirOverride,-1
;   homeYdirOverride,-1
;   homeZdirOverride,-1
;   flipXoverride,1
;   flipYoverride,-1
;   flipZoverride,1
;   toolheadOffsets,0,0|0,0|0,0|0,0|0,0|0,0
;   overrideFirmwareConfiguration,1
;   firmwareTypeOverride,RepRap (Marlin/Repetier/Sprinter)
;   GPXconfigOverride,r2
;   baudRateOverride,115200
;   overridePrinterModels,1
;   printerModelsOverride
;   startingGcode,G28 ; home all axes,G1 X5 Y10 Z0.2 F3000 ; get ready to prime,G92 E0 ; reset extrusion distance,G1 X160 E15 F600 ; prime nozzle,G1 X180 F5000 ; quick wipe
;   layerChangeGcode,
;   retractionGcode,
;   toolChangeGcode,
;   endingGcode,G28 X0 ; home X axis,M106 S0 ; turn off cooling fan,M104 S0 ; turn off extruder,M140 S0 ; turn off bed,M84 ; disable motors
;   exportFileFormat,gcode
;   celebration,0
;   celebrationSong,Random Song
;   postProcessing,
;   defaultSpeed,2400
;   outlineUnderspeed,0.5
;   solidInfillUnderspeed,0.8
;   supportUnderspeed,0.8
;   rapidXYspeed,4800
;   rapidZspeed,1000
;   minBridgingArea,50
;   bridgingExtraInflation,0
;   bridgingExtrusionMultiplier,1
;   bridgingSpeedMultiplier,1
;   useFixedBridgingAngle,0
;   fixedBridgingAngle,0
;   applyBridgingToPerimeters,0
;   filamentDiameters,1.75|1.75|1.75|1.75|1.75|1.75
;   filamentPricesPerKg,46|46|46|46|46|46
;   filamentDensities,1.25|1.25|1.25|1.25|1.25|1.25
;   useMinPrintHeight,0
;   minPrintHeight,0
;   useMaxPrintHeight,0
;   maxPrintHeight,0
;   useDiaphragm,0
;   diaphragmLayerInterval,20
;   robustSlicing,1
;   mergeAllIntoSolid,0
;   onlyRetractWhenCrossingOutline,1
;   retractBetweenLayers,1
;   useRetractionMinTravel,0
;   retractionMinTravel,3
;   retractWhileWiping,0
;   onlyWipeOutlines,1
;   avoidCrossingOutline,0
;   maxMovementDetourFactor,3
;   toolChangeRetractionDistance,12
;   toolChangeExtraRestartDistance,-0.5
;   toolChangeRetractionSpeed,600
;   externalThinWallType,0
;   internalThinWallType,2
;   thinWallAllowedOverlapPercentage,10
;   singleExtrusionMinLength,1
;   singleExtrusionMinPrintingWidthPercentage,50
;   singleExtrusionMaxPrintingWidthPercentage,200
;   singleExtrusionEndpointExtension,0.2
;   horizontalSizeCompensation,0
G90
M82
M106 S0
M140 S72
M190 S72
M104 S225 T0
M109 S225 T0
G28 ; home all axes
G1 X5 Y10 Z0.2 F3000 ; get ready to prime
G92 E0 ; reset extrusion distance
G1 X160 E15 F600 ; prime nozzle
G1 X180 F5000 ; quick wipe
; process Process1
; layer 1, Z = 0.360
T0
G92 E0.0000
G1 E-4.0000 F2400
; feature skirt
; tool H0.360 W0.600
G1 Z0.360 F1000
G1 X33.600 Y36.470 F4800
G1 E0.0000 F2400
G92 E0.0000
G1 X36.470 Y33.600 E0.3281 F1200
G1 X193.530 Y33.600 E13.0219
G1 X196.400 Y36.470 E13.3500
G1 X196.400 Y193.530 E26.0439
G1 X193.530 Y196.400 E26.3720
G1 X36.470 Y196.400 E39.0658
G1 X33.600 Y193.530 E39.3939
G1 X33.600 Y36.470 E52.0878
G92 E0.0000
G1 E-4.0000 F2400
G1 X34.200 Y36.719 F4800
G1 E0.0000 F2400
G92 E0.0000
G1 X36.719 Y34.200 E0.2879 F1200
G1 X193.281 Y34.200 E12.9416
G1 X195.800 Y36.719 E13.2295
G1 X195.800 Y193.281 E25.8832
G1 X193.281 Y195.800 E26.1711
G1 X36.719 Y195.800 E38.8248
G1 X34.200 Y193.281 E39.1127
G1 X34.200 Y36.719 E51.7664
G92 E0.0000
G1 E-4.0000 F2400
; feature outer perimeter
G1 X38.800 Y38.800 F4800
G1 E0.0000 F2400
G92 E0.0000
G1 X191.200 Y38.800 E12.3173 F600
G1 X191.200 Y191.200 E24.6346
G1 X38.800 Y191.200 E36.9519
G1 X38.800 Y38.800 E49.2692
G1 X39.200 Y39.200 F4800
G92 E0.0000
G1 X39.200 Y190.800 E12.2526 F600
G1 X190.800 Y190.800 E24.5053
G1 X190.800 Y39.200 E36.7579
G1 X39.200 Y39.200 E49.0105
G92 E0.0000
G1 E-4.0000 F2400
G1 X43.950 Y43.950 F4800
G1 E0.0000 F2400
G92 E0.0000
G1 X186.050 Y43.950 E11.4848 F600
G1 X186.050 Y186.050 E22.9696
G1 X43.950 Y186.050 E34.4545
G1 X43.950 Y43.950 E45.9393
G1 X44.350 Y44.350 F4800
G92 E0.0000
G1 X44.350 Y185.650 E11.4202 F600
G1 X185.650 Y185.650 E22.8403
G1 X185.650 Y44.350 E34.2605
G1 X44.350 Y44.350 E45.6807
G92 E0.0000
G1 E-4.0000 F2400
G1 X49.100 Y49.100 F4800
G1 E0.0000 F2400
G92 E0.0000
G1 X180.900 Y49.100 E10.6524 F600
G1 X180.900 Y180.900 E21.3047
G1 X49.100 Y180.900 E31.9571
G1 X49.100 Y49.100 E42.6094
G1 X49.500 Y49.500 F4800
G92 E0.0000
G1 X49.500 Y180.500 E10.5877 F600
G1 X180.500 Y180.500 E21.1754
G1 X180.500 Y49.500 E31.7631
G1 X49.500 Y49.500 E42.3508
G92 E0.0000
G1 E-4.0000 F2400
; layer end
G28 X0 ; home X axis
M106 S0 ; turn off cooling fan
M104 S0 ; turn off extruder
M140 S0 ; turn off bed
M84 ; disable motors
; Build Summary
;   Build time: 0 hours 6 minutes
;   Filament length: 378.7 mm (0.38 m)
;   Plastic volume: 910.91 mm^3 (0.91 cc)
;   Plastic weight: 1.14 g (0.00 lb)
;   Material cost: 0.05
