; G-Code generated by Simplify3D(R) Version 4.1.2
; Apr 8, 2020 at 10:01:00 PM
; Settings Summary
;   processName,Process1
;   applyToModels,USE PLA OR ABS Simple Face Shield 2.0
;   profileName,Creality Ender 3 Pro (modified)
;   profileVersion,2019-04-06 08:00:00
;   baseProfile,
;   printMaterial,PLA
;   printQuality,MASK-2.1
;   printExtruders,
;   extruderName,Primary Extruder
;   extruderToolheadNumber,0
;   extruderDiameter,0.4
;   extruderAutoWidth,0
;   extruderWidth,0.7
;   extrusionMultiplier,0.9
;   extruderUseRetract,1
;   extruderRetractionDistance,6
;   extruderExtraRestartDistance,0
;   extruderRetractionZLift,0
;   extruderRetractionSpeed,1500
;   extruderUseCoasting,0
;   extruderCoastingDistance,0.2
;   extruderUseWipe,0
;   extruderWipeDistance,5
;   primaryExtruder,0
;   layerHeight,0.2
;   topSolidLayers,4
;   bottomSolidLayers,4
;   perimeterOutlines,3
;   printPerimetersInsideOut,0
;   startPointOption,2
;   startPointOriginX,0
;   startPointOriginY,0
;   sequentialIslands,0
;   spiralVaseMode,0
;   firstLayerHeightPercentage,120
;   firstLayerWidthPercentage,110
;   firstLayerUnderspeed,0.5
;   useRaft,0
;   raftExtruder,0
;   raftTopLayers,3
;   raftBaseLayers,2
;   raftOffset,3
;   raftSeparationDistance,0.14
;   raftTopInfill,100
;   aboveRaftSpeedMultiplier,0.3
;   useSkirt,0
;   skirtExtruder,0
;   skirtLayers,1
;   skirtOutlines,2
;   skirtOffset,4
;   usePrimePillar,0
;   primePillarExtruder,999
;   primePillarWidth,12
;   primePillarLocation,7
;   primePillarSpeedMultiplier,1
;   useOozeShield,0
;   oozeShieldExtruder,999
;   oozeShieldOffset,2
;   oozeShieldOutlines,1
;   oozeShieldSidewallShape,1
;   oozeShieldSidewallAngle,30
;   oozeShieldSpeedMultiplier,1
;   infillExtruder,0
;   internalInfillPattern,Rectilinear
;   externalInfillPattern,Rectilinear
;   infillPercentage,50
;   outlineOverlapPercentage,15
;   infillExtrusionWidthPercentage,100
;   minInfillLength,5
;   infillLayerInterval,1
;   internalInfillAngles,45,-45
;   overlapInternalInfillAngles,0
;   externalInfillAngles,45,-45
;   generateSupport,0
;   supportExtruder,0
;   supportInfillPercentage,25
;   supportExtraInflation,0
;   supportBaseLayers,0
;   denseSupportExtruder,0
;   denseSupportLayers,0
;   denseSupportInfillPercentage,70
;   supportLayerInterval,1
;   supportHorizontalPartOffset,0.3
;   supportUpperSeparationLayers,1
;   supportLowerSeparationLayers,1
;   supportType,0
;   supportGridSpacing,4
;   maxOverhangAngle,45
;   supportAngles,0
;   temperatureName,Primary Extruder,Heated Bed
;   temperatureNumber,0,0
;   temperatureSetpointCount,1,1
;   temperatureSetpointLayers,1,1
;   temperatureSetpointTemperatures,200,60
;   temperatureStabilizeAtStartup,1,1
;   temperatureHeatedBed,0,1
;   fanLayers,1,2
;   fanSpeeds,0,100
;   blipFanToFullPower,0
;   adjustSpeedForCooling,1
;   minSpeedLayerTime,15
;   minCoolingSpeedSlowdown,20
;   increaseFanForCooling,0
;   minFanLayerTime,45
;   maxCoolingFanSpeed,100
;   increaseFanForBridging,0
;   bridgingFanSpeed,100
;   use5D,1
;   relativeEdistances,0
;   allowEaxisZeroing,1
;   independentExtruderAxes,0
;   includeM10123,0
;   stickySupport,1
;   applyToolheadOffsets,0
;   gcodeXoffset,0
;   gcodeYoffset,0
;   gcodeZoffset,0
;   overrideMachineDefinition,1
;   machineTypeOverride,0
;   strokeXoverride,220
;   strokeYoverride,220
;   strokeZoverride,250
;   originOffsetXoverride,-5
;   originOffsetYoverride,-5
;   originOffsetZoverride,0
;   homeXdirOverride,-1
;   homeYdirOverride,-1
;   homeZdirOverride,-1
;   flipXoverride,1
;   flipYoverride,-1
;   flipZoverride,1
;   toolheadOffsets,0,0|0,0|0,0|0,0|0,0|0,0
;   overrideFirmwareConfiguration,1
;   firmwareTypeOverride,RepRap (Marlin/Repetier/Sprinter)
;   GPXconfigOverride,r2
;   baudRateOverride,115200
;   overridePrinterModels,1
;   printerModelsOverride
;   startingGcode,G28 ; home all axes,G1 X5 Y10 Z0.2 F3000 ; get ready to prime,G92 E0 ; reset extrusion distance,G1 X160 E15 F600 ; prime nozzle,G1 X180 F5000 ; quick wipe
;   layerChangeGcode,
;   retractionGcode,
;   toolChangeGcode,
;   endingGcode,G28 X0 ; home X axis,M106 S0 ; turn off cooling fan,M104 S0 ; turn off extruder,M140 S0 ; turn off bed,M84 ; disable motors
;   exportFileFormat,gcode
;   celebration,0
;   celebrationSong,Random Song
;   postProcessing,
;   defaultSpeed,3000
;   outlineUnderspeed,0.75
;   solidInfillUnderspeed,0.8
;   supportUnderspeed,0.8
;   rapidXYspeed,4800
;   rapidZspeed,1000
;   minBridgingArea,50
;   bridgingExtraInflation,0
;   bridgingExtrusionMultiplier,1
;   bridgingSpeedMultiplier,1
;   useFixedBridgingAngle,0
;   fixedBridgingAngle,0
;   applyBridgingToPerimeters,0
;   filamentDiameters,1.75|1.75|1.75|1.75|1.75|1.75
;   filamentPricesPerKg,25|46|46|46|46|46
;   filamentDensities,1.25|1.25|1.25|1.25|1.25|1.25
;   useMinPrintHeight,0
;   minPrintHeight,9
;   useMaxPrintHeight,0
;   maxPrintHeight,9
;   useDiaphragm,0
;   diaphragmLayerInterval,20
;   robustSlicing,1
;   mergeAllIntoSolid,0
;   onlyRetractWhenCrossingOutline,1
;   retractBetweenLayers,1
;   useRetractionMinTravel,0
;   retractionMinTravel,3
;   retractWhileWiping,0
;   onlyWipeOutlines,1
;   avoidCrossingOutline,0
;   maxMovementDetourFactor,3
;   toolChangeRetractionDistance,12
;   toolChangeExtraRestartDistance,-0.5
;   toolChangeRetractionSpeed,600
;   externalThinWallType,0
;   internalThinWallType,2
;   thinWallAllowedOverlapPercentage,10
;   singleExtrusionMinLength,1
;   singleExtrusionMinPrintingWidthPercentage,50
;   singleExtrusionMaxPrintingWidthPercentage,200
;   singleExtrusionEndpointExtension,0.2
;   horizontalSizeCompensation,0
G90
M82
M106 S0
M140 S60
M190 S60
M104 S200 T0
M109 S200 T0
G28 ; home all axes
G1 X5 Y10 Z0.2 F3000 ; get ready to prime
G92 E0 ; reset extrusion distance
G1 X160 E15 F600 ; prime nozzle
G1 X180 F5000 ; quick wipe
; process Process1
; layer 1, Z = 0.240
T0
G92 E0.0000
G1 E-6.0000 F1500
; feature outer perimeter
; tool H0.240 W0.770
G1 Z0.240 F1000
G1 X73.977 Y30.231 F4800
G1 E0.0000 F1500
G92 E0.0000
G1 X74.384 Y29.258 E0.0729 F1125
G1 X74.825 Y28.463 E0.1358
G1 X75.345 Y27.716 E0.1987
G1 X75.939 Y27.026 E0.2617
G1 X76.600 Y26.400 E0.3246
G1 X77.321 Y25.844 E0.3876
G1 X78.095 Y25.365 E0.4505
G1 X78.915 Y24.966 E0.5135
G1 X79.646 Y24.697 E0.5674
G1 X79.767 Y24.655 E0.5763
G1 X80.652 Y24.430 E0.6394
G1 X81.424 Y24.315 E0.6934
G1 X81.551 Y24.297 E0.7023
G1 X82.325 Y24.262 E0.7558
G1 X82.599 Y24.264 E0.7748
G1 X83.371 Y24.308 E0.8283
G1 X84.270 Y24.453 E0.8912
G1 X85.150 Y24.688 E0.9542
G1 X86.004 Y25.013 E1.0174
G1 X86.118 Y25.068 E1.0262
G1 X86.814 Y25.420 E1.0801
G1 X87.582 Y25.909 E1.1431
G1 X88.296 Y26.474 E1.2060
G1 X88.949 Y27.109 E1.2690
G1 X89.534 Y27.806 E1.3319
G1 X90.045 Y28.560 E1.3949
G1 X90.476 Y29.362 E1.4578
G1 X90.823 Y30.202 E1.5207
G1 X91.117 Y31.215 E1.5936
G1 X91.273 Y32.110 E1.6565
G1 X91.337 Y33.018 E1.7194
G1 X91.309 Y33.928 E1.7824
G1 X91.188 Y34.830 E1.8453
G1 X90.975 Y35.716 E1.9083
G1 X90.674 Y36.575 E1.9712
G1 X90.286 Y37.399 E2.0342
G1 X89.885 Y38.069 E2.0882
G1 X89.818 Y38.178 E2.0970
G1 X89.271 Y38.908 E2.1601
G1 X88.645 Y39.586 E2.2239
G1 X85.971 Y42.269 E2.4859
G1 X83.355 Y45.027 E2.7487
G1 X80.810 Y47.849 E3.0115
G1 X78.336 Y50.735 E3.2743
G1 X75.935 Y53.681 E3.5371
G1 X73.608 Y56.686 E3.7999
G1 X71.357 Y59.748 E4.0627
G1 X69.183 Y62.866 E4.3256
G1 X67.088 Y66.037 E4.5884
G1 X65.073 Y69.260 E4.8512
G1 X63.139 Y72.531 E5.1140
G1 X61.287 Y75.851 E5.3768
G1 X59.519 Y79.215 E5.6396
G1 X57.836 Y82.622 E5.9024
G1 X56.238 Y86.071 E6.1652
G1 X54.727 Y89.558 E6.4280
G1 X53.517 Y92.553 E6.6514
G1 X53.303 Y93.082 E6.6909
G1 X51.968 Y96.641 E6.9537
G1 X50.722 Y100.232 E7.2165
G1 X49.740 Y103.309 E7.4398
G1 X49.567 Y103.853 E7.4793
G1 X48.502 Y107.501 E7.7421
G1 X47.529 Y111.175 E8.0049
G1 X46.648 Y114.872 E8.2677
G1 X45.860 Y118.590 E8.5305
G1 X45.164 Y122.327 E8.7933
G1 X44.563 Y126.080 E9.0561
G1 X44.055 Y129.846 E9.3190
G1 X43.642 Y133.624 E9.5818
G1 X43.323 Y137.412 E9.8446
G1 X43.099 Y141.206 E10.1074
G1 X42.970 Y145.004 E10.3702
G1 X42.936 Y148.805 E10.6330
G1 X42.997 Y152.605 E10.8958
G1 X43.153 Y156.403 E11.1586
G1 X43.403 Y160.195 E11.4214
G1 X43.749 Y163.980 E11.6843
G1 X44.190 Y167.765 E11.9477
G1 X44.333 Y168.505 E11.9998
G1 X44.571 Y169.229 E12.0525
G1 X44.851 Y169.825 E12.0981
G1 X45.309 Y170.560 E12.1580
G1 X45.798 Y171.146 E12.2108
G1 X46.275 Y171.598 E12.2562
G1 X46.884 Y172.054 E12.3088
G1 X47.548 Y172.431 E12.3616
G1 X48.253 Y172.722 E12.4144
G1 X48.992 Y172.922 E12.4673
G1 X50.807 Y173.151 E12.5938
G1 X51.858 Y173.363 E12.6679
G1 X52.886 Y173.662 E12.7419
G1 X53.886 Y174.044 E12.8159
G1 X54.850 Y174.508 E12.8900
G1 X55.773 Y175.049 E12.9640
G1 X56.648 Y175.666 E13.0380
G1 X57.470 Y176.352 E13.1120
G1 X58.231 Y177.104 E13.1860
G1 X58.928 Y177.917 E13.2600
G1 X59.555 Y178.784 E13.3340
G1 X60.109 Y179.700 E13.4080
G1 X60.584 Y180.659 E13.4820
G1 X60.979 Y181.654 E13.5560
G1 X61.291 Y182.678 E13.6300
G1 X61.516 Y183.724 E13.7041
G1 X61.654 Y184.785 E13.7781
G1 X61.704 Y185.855 E13.8521
G1 X61.663 Y187.020 E13.9327
G1 X61.659 Y187.731 E13.9819
G1 X61.742 Y188.454 E14.0322
G1 X61.894 Y189.100 E14.0781
G1 X62.157 Y189.825 E14.1315
G1 X62.561 Y190.588 E14.1912
G1 X62.917 Y191.106 E14.2346
G1 X63.421 Y191.680 E14.2874
G1 X63.994 Y192.185 E14.3402
G1 X64.623 Y192.612 E14.3928
G1 X65.047 Y192.835 E14.4259
G1 X65.222 Y192.898 E14.4388
G1 X65.540 Y192.916 E14.4608
G1 X65.845 Y192.745 E14.4850
G1 X65.973 Y192.449 E14.5073
G1 X65.937 Y192.117 E14.5304
G1 X64.895 Y189.800 E14.7060
G1 X64.753 Y189.405 E14.7351
G1 X64.679 Y188.939 E14.7677
G1 X64.678 Y188.573 E14.7930
G1 X65.356 Y179.829 E15.3994
G1 X65.406 Y179.513 E15.4216
G1 X65.500 Y179.223 E15.4426
G1 X65.638 Y178.952 E15.4637
G1 X65.818 Y178.705 E15.4848
G1 X66.034 Y178.490 E15.5059
G1 X66.281 Y178.312 E15.5270
G1 X66.553 Y178.174 E15.5480
G1 X66.844 Y178.081 E15.5691
G1 X67.145 Y178.035 E15.5902
G1 X67.450 Y178.037 E15.6113
G1 X67.596 Y178.061 E15.6215
G1 X67.737 Y178.108 E15.6318
G1 X67.884 Y178.185 E15.6433
G1 X70.369 Y179.692 E15.8442
G1 X72.917 Y181.124 E16.0464
G1 X75.512 Y182.472 E16.2485
G1 X78.149 Y183.733 E16.4507
G1 X80.827 Y184.906 E16.6529
G1 X83.542 Y185.990 E16.8550
G1 X86.292 Y186.984 E17.0572
G1 X89.072 Y187.887 E17.2593
G1 X91.882 Y188.697 E17.4615
G1 X94.716 Y189.414 E17.6637
G1 X97.572 Y190.037 E17.8658
G1 X100.448 Y190.565 E18.0680
G1 X103.339 Y190.999 E18.2701
G1 X106.243 Y191.336 E18.4723
G1 X109.157 Y191.577 E18.6745
G1 X112.077 Y191.722 E18.8766
G1 X115.000 Y191.770 E19.0788
G1 X117.923 Y191.722 E19.2809
G1 X120.843 Y191.577 E19.4831
G1 X123.757 Y191.336 E19.6853
G1 X126.661 Y190.999 E19.8874
G1 X129.552 Y190.565 E20.0896
G1 X132.428 Y190.037 E20.2917
G1 X135.284 Y189.414 E20.4939
G1 X138.118 Y188.697 E20.6961
G1 X140.928 Y187.887 E20.8982
G1 X143.708 Y186.984 E21.1004
G1 X146.458 Y185.990 E21.3025
G1 X149.173 Y184.906 E21.5047
G1 X151.851 Y183.733 E21.7068
G1 X154.092 Y182.661 E21.8786
G1 X154.488 Y182.472 E21.9090
G1 X157.083 Y181.124 E22.1112
G1 X159.631 Y179.692 E22.3133
G1 X162.115 Y178.186 E22.5142
G1 X162.263 Y178.108 E22.5257
G1 X162.404 Y178.061 E22.5360
G1 X162.550 Y178.037 E22.5463
G1 X162.855 Y178.035 E22.5673
G1 X163.156 Y178.081 E22.5884
G1 X163.447 Y178.174 E22.6095
G1 X163.719 Y178.312 E22.6306
G1 X163.966 Y178.490 E22.6517
G1 X164.182 Y178.705 E22.6727
G1 X164.362 Y178.952 E22.6938
G1 X164.500 Y179.223 E22.7149
G1 X164.594 Y179.513 E22.7360
G1 X164.644 Y179.829 E22.7581
G1 X165.322 Y188.574 E23.3646
G1 X165.323 Y188.957 E23.3911
G1 X165.277 Y189.279 E23.4136
G1 X165.169 Y189.646 E23.4400
G1 X165.027 Y189.954 E23.4635
G1 X163.853 Y192.116 E23.6336
G1 X163.772 Y192.362 E23.6515
G1 X163.789 Y192.688 E23.6740
G1 X163.967 Y192.921 E23.6943
G1 X164.202 Y193.023 E23.7121
G1 X164.454 Y193.026 E23.7295
G1 X164.663 Y192.968 E23.7445
G1 X165.109 Y192.762 E23.7784
G1 X165.784 Y192.349 E23.8332
G1 X166.403 Y191.849 E23.8882
G1 X166.993 Y191.216 E23.9480
G1 X167.419 Y190.626 E23.9983
G1 X167.739 Y190.044 E24.0443
G1 X168.045 Y189.295 E24.1002
G1 X168.249 Y188.510 E24.1563
G1 X168.346 Y187.679 E24.2141
G1 X168.295 Y185.856 E24.3402
G1 X168.346 Y184.785 E24.4143
G1 X168.484 Y183.724 E24.4883
G1 X168.709 Y182.678 E24.5624
G1 X169.021 Y181.654 E24.6364
G1 X169.416 Y180.659 E24.7104
G1 X169.891 Y179.700 E24.7844
G1 X170.445 Y178.784 E24.8584
G1 X171.072 Y177.917 E24.9324
G1 X171.769 Y177.104 E25.0064
G1 X172.530 Y176.352 E25.0804
G1 X173.352 Y175.666 E25.1545
G1 X174.227 Y175.049 E25.2285
G1 X175.150 Y174.508 E25.3025
G1 X176.114 Y174.044 E25.3765
G1 X177.114 Y173.662 E25.4505
G1 X178.142 Y173.363 E25.5245
G1 X179.193 Y173.151 E25.5986
G1 X181.008 Y172.922 E25.7251
G1 X181.747 Y172.722 E25.7781
G1 X182.451 Y172.432 E25.8308
G1 X183.026 Y172.110 E25.8763
G1 X183.725 Y171.598 E25.9362
G1 X184.274 Y171.068 E25.9890
G1 X184.690 Y170.560 E26.0344
G1 X185.101 Y169.919 E26.0870
G1 X185.429 Y169.230 E26.1398
G1 X185.667 Y168.505 E26.1926
G1 X185.810 Y167.765 E26.2447
G1 X186.251 Y163.980 E26.5082
G1 X186.597 Y160.195 E26.7710
G1 X186.847 Y156.403 E27.0338
G1 X187.003 Y152.605 E27.2966
G1 X187.064 Y148.805 E27.5594
G1 X187.030 Y145.004 E27.8222
G1 X186.901 Y141.206 E28.0850
G1 X186.677 Y137.412 E28.3478
G1 X186.358 Y133.624 E28.6107
G1 X185.945 Y129.846 E28.8735
G1 X185.437 Y126.080 E29.1363
G1 X184.836 Y122.327 E29.3991
G1 X184.140 Y118.590 E29.6619
G1 X183.352 Y114.872 E29.9247
G1 X182.603 Y111.730 E30.1480
G1 X182.471 Y111.175 E30.1875
G1 X181.498 Y107.501 E30.4503
G1 X180.433 Y103.853 E30.7131
G1 X179.278 Y100.232 E30.9759
G1 X178.032 Y96.641 E31.2388
G1 X176.697 Y93.082 E31.5016
G1 X175.273 Y89.558 E31.7644
G1 X173.762 Y86.071 E32.0272
G1 X172.164 Y82.622 E32.2900
G1 X170.481 Y79.215 E32.5528
G1 X168.978 Y76.356 E32.7761
G1 X168.713 Y75.851 E32.8156
G1 X166.861 Y72.531 E33.0784
G1 X164.927 Y69.260 E33.3412
G1 X162.912 Y66.037 E33.6041
G1 X160.817 Y62.866 E33.8669
G1 X158.643 Y59.748 E34.1297
G1 X156.392 Y56.686 E34.3925
G1 X154.065 Y53.681 E34.6553
G1 X151.664 Y50.735 E34.9181
G1 X149.190 Y47.849 E35.1809
G1 X146.645 Y45.027 E35.4437
G1 X144.029 Y42.269 E35.7065
G1 X141.355 Y39.586 E35.9685
G1 X140.729 Y38.908 E36.0323
G1 X140.183 Y38.179 E36.0953
G1 X139.714 Y37.399 E36.1582
G1 X139.326 Y36.575 E36.2212
G1 X139.025 Y35.716 E36.2841
G1 X138.811 Y34.826 E36.3474
G1 X138.792 Y34.700 E36.3562
G1 X138.691 Y33.929 E36.4100
G1 X138.663 Y33.020 E36.4729
G1 X138.747 Y31.967 E36.5459
G1 X138.883 Y31.214 E36.5988
G1 X139.129 Y30.338 E36.6617
G1 X139.525 Y29.360 E36.7347
G1 X139.955 Y28.560 E36.7975
G1 X140.467 Y27.806 E36.8606
G1 X140.955 Y27.217 E36.9134
G1 X141.705 Y26.473 E36.9865
G1 X142.418 Y25.909 E37.0494
G1 X143.074 Y25.488 E37.1033
G1 X143.182 Y25.422 E37.1120
G1 X143.999 Y25.012 E37.1752
G1 X144.850 Y24.688 E37.2382
G1 X145.730 Y24.453 E37.3012
G1 X146.501 Y24.328 E37.3552
G1 X146.628 Y24.309 E37.3640
G1 X147.538 Y24.256 E37.4271
G1 X148.448 Y24.297 E37.4900
G1 X149.350 Y24.430 E37.5531
G1 X149.474 Y24.460 E37.5619
G1 X150.231 Y24.654 E37.6159
G1 X151.086 Y24.967 E37.6789
G1 X151.905 Y25.365 E37.7419
G1 X152.683 Y25.846 E37.8051
G1 X152.785 Y25.922 E37.8139
G1 X153.399 Y26.399 E37.8677
G1 X154.061 Y27.026 E37.9307
G1 X154.655 Y27.716 E37.9937
G1 X155.175 Y28.463 E38.0566
G1 X155.616 Y29.258 E38.1195
G1 X156.023 Y30.231 E38.1924
G1 X156.281 Y31.102 E38.2553
G1 X156.448 Y31.997 E38.3182
G1 X156.524 Y32.906 E38.3812
G1 X156.513 Y33.670 E38.4341
G1 X156.397 Y34.721 E38.5072
G1 X156.196 Y35.607 E38.5700
G1 X155.906 Y36.470 E38.6330
G1 X155.529 Y37.299 E38.6960
G1 X155.136 Y37.974 E38.7500
G1 X155.071 Y38.083 E38.7588
G1 X154.533 Y38.820 E38.8219
G1 X153.928 Y39.492 E38.8843
G1 X153.799 Y39.601 E38.8961
G1 X153.658 Y39.683 E38.9073
G1 X153.505 Y39.739 E38.9186
G1 X153.345 Y39.767 E38.9298
G1 X153.182 Y39.767 E38.9411
G1 X153.022 Y39.739 E38.9523
G1 X152.912 Y39.700 E38.9604
G1 X152.723 Y39.599 E38.9752
G1 X152.603 Y39.499 E38.9860
G1 X152.498 Y39.374 E38.9973
G1 X152.416 Y39.233 E39.0085
G1 X152.360 Y39.081 E39.0198
G1 X152.332 Y38.920 E39.0310
G1 X152.332 Y38.758 E39.0423
