; G-Code generated by Simplify3D(R) Version 4.1.2
; Apr 8, 2020 at 10:00:07 PM
; Settings Summary
;   processName,Process1
;   applyToModels,Surgical_Mask_Strap_Remix_0,Surgical_Mask_Strap_Remix_0(2),Surgical_Mask_Strap_Remix_0(6),Surgical_Mask_Strap_Remix_0(7),Surgical_Mask_Strap_Remix_0(8),Surgical_Mask_Strap_Remix_0(9),Surgical_Mask_Strap_Remix_0(10)
;   profileName,Creality Ender 3 Pro (modified)
;   profileVersion,2019-04-06 08:00:00
;   baseProfile,
;   printMaterial,PLA
;   printQuality,MASK-2.1
;   printExtruders,
;   extruderName,Primary Extruder
;   extruderToolheadNumber,0
;   extruderDiameter,0.4
;   extruderAutoWidth,0
;   extruderWidth,0.7
;   extrusionMultiplier,0.9
;   extruderUseRetract,1
;   extruderRetractionDistance,6
;   extruderExtraRestartDistance,0
;   extruderRetractionZLift,0
;   extruderRetractionSpeed,1500
;   extruderUseCoasting,0
;   extruderCoastingDistance,0.2
;   extruderUseWipe,0
;   extruderWipeDistance,5
;   primaryExtruder,0
;   layerHeight,0.2
;   topSolidLayers,4
;   bottomSolidLayers,4
;   perimeterOutlines,3
;   printPerimetersInsideOut,0
;   startPointOption,2
;   startPointOriginX,0
;   startPointOriginY,0
;   sequentialIslands,0
;   spiralVaseMode,0
;   firstLayerHeightPercentage,120
;   firstLayerWidthPercentage,110
;   firstLayerUnderspeed,0.5
;   useRaft,0
;   raftExtruder,0
;   raftTopLayers,3
;   raftBaseLayers,2
;   raftOffset,3
;   raftSeparationDistance,0.14
;   raftTopInfill,100
;   aboveRaftSpeedMultiplier,0.3
;   useSkirt,0
;   skirtExtruder,0
;   skirtLayers,1
;   skirtOutlines,2
;   skirtOffset,4
;   usePrimePillar,0
;   primePillarExtruder,999
;   primePillarWidth,12
;   primePillarLocation,7
;   primePillarSpeedMultiplier,1
;   useOozeShield,0
;   oozeShieldExtruder,999
;   oozeShieldOffset,2
;   oozeShieldOutlines,1
;   oozeShieldSidewallShape,1
;   oozeShieldSidewallAngle,30
;   oozeShieldSpeedMultiplier,1
;   infillExtruder,0
;   internalInfillPattern,Rectilinear
;   externalInfillPattern,Rectilinear
;   infillPercentage,50
;   outlineOverlapPercentage,15
;   infillExtrusionWidthPercentage,100
;   minInfillLength,5
;   infillLayerInterval,1
;   internalInfillAngles,45,-45
;   overlapInternalInfillAngles,0
;   externalInfillAngles,45,-45
;   generateSupport,0
;   supportExtruder,0
;   supportInfillPercentage,25
;   supportExtraInflation,0
;   supportBaseLayers,0
;   denseSupportExtruder,0
;   denseSupportLayers,0
;   denseSupportInfillPercentage,70
;   supportLayerInterval,1
;   supportHorizontalPartOffset,0.3
;   supportUpperSeparationLayers,1
;   supportLowerSeparationLayers,1
;   supportType,0
;   supportGridSpacing,4
;   maxOverhangAngle,45
;   supportAngles,0
;   temperatureName,Primary Extruder,Heated Bed
;   temperatureNumber,0,0
;   temperatureSetpointCount,1,1
;   temperatureSetpointLayers,1,1
;   temperatureSetpointTemperatures,200,60
;   temperatureStabilizeAtStartup,1,1
;   temperatureHeatedBed,0,1
;   fanLayers,1,2
;   fanSpeeds,0,100
;   blipFanToFullPower,0
;   adjustSpeedForCooling,1
;   minSpeedLayerTime,15
;   minCoolingSpeedSlowdown,20
;   increaseFanForCooling,0
;   minFanLayerTime,45
;   maxCoolingFanSpeed,100
;   increaseFanForBridging,0
;   bridgingFanSpeed,100
;   use5D,1
;   relativeEdistances,0
;   allowEaxisZeroing,1
;   independentExtruderAxes,0
;   includeM10123,0
;   stickySupport,1
;   applyToolheadOffsets,0
;   gcodeXoffset,0
;   gcodeYoffset,0
;   gcodeZoffset,0
;   overrideMachineDefinition,1
;   machineTypeOverride,0
;   strokeXoverride,220
;   strokeYoverride,220
;   strokeZoverride,250
;   originOffsetXoverride,-5
;   originOffsetYoverride,-5
;   originOffsetZoverride,0
;   homeXdirOverride,-1
;   homeYdirOverride,-1
;   homeZdirOverride,-1
;   flipXoverride,1
;   flipYoverride,-1
;   flipZoverride,1
;   toolheadOffsets,0,0|0,0|0,0|0,0|0,0|0,0
;   overrideFirmwareConfiguration,1
;   firmwareTypeOverride,RepRap (Marlin/Repetier/Sprinter)
;   GPXconfigOverride,r2
;   baudRateOverride,115200
;   overridePrinterModels,1
;   printerModelsOverride
;   startingGcode,G28 ; home all axes,G1 X5 Y10 Z0.2 F3000 ; get ready to prime,G92 E0 ; reset extrusion distance,G1 X160 E15 F600 ; prime nozzle,G1 X180 F5000 ; quick wipe
;   layerChangeGcode,
;   retractionGcode,
;   toolChangeGcode,
;   endingGcode,G28 X0 ; home X axis,M106 S0 ; turn off cooling fan,M104 S0 ; turn off extruder,M140 S0 ; turn off bed,M84 ; disable motors
;   exportFileFormat,gcode
;   celebration,0
;   celebrationSong,Random Song
;   postProcessing,
;   defaultSpeed,3000
;   outlineUnderspeed,0.75
;   solidInfillUnderspeed,0.8
;   supportUnderspeed,0.8
;   rapidXYspeed,4800
;   rapidZspeed,1000
;   minBridgingArea,50
;   bridgingExtraInflation,0
;   bridgingExtrusionMultiplier,1
;   bridgingSpeedMultiplier,1
;   useFixedBridgingAngle,0
;   fixedBridgingAngle,0
;   applyBridgingToPerimeters,0
;   filamentDiameters,1.75|1.75|1.75|1.75|1.75|1.75
;   filamentPricesPerKg,25|46|46|46|46|46
;   filamentDensities,1.25|1.25|1.25|1.25|1.25|1.25
;   useMinPrintHeight,0
;   minPrintHeight,9
;   useMaxPrintHeight,0
;   maxPrintHeight,9
;   useDiaphragm,0
;   diaphragmLayerInterval,20
;   robustSlicing,1
;   mergeAllIntoSolid,0
;   onlyRetractWhenCrossingOutline,1
;   retractBetweenLayers,1
;   useRetractionMinTravel,0
;   retractionMinTravel,3
;   retractWhileWiping,0
;   onlyWipeOutlines,1
;   avoidCrossingOutline,0
;   maxMovementDetourFactor,3
;   toolChangeRetractionDistance,12
;   toolChangeExtraRestartDistance,-0.5
;   toolChangeRetractionSpeed,600
;   externalThinWallType,0
;   internalThinWallType,2
;   thinWallAllowedOverlapPercentage,10
;   singleExtrusionMinLength,1
;   singleExtrusionMinPrintingWidthPercentage,50
;   singleExtrusionMaxPrintingWidthPercentage,200
;   singleExtrusionEndpointExtension,0.2
;   horizontalSizeCompensation,0
G90
M82
M106 S0
M140 S60
M190 S60
M104 S200 T0
M109 S200 T0
G28 ; home all axes
G1 X5 Y10 Z0.2 F3000 ; get ready to prime
G92 E0 ; reset extrusion distance
G1 X160 E15 F600 ; prime nozzle
G1 X180 F5000 ; quick wipe
; process Process1
; layer 1, Z = 0.240
T0
G92 E0.0000
G1 E-6.0000 F1500
; feature outer perimeter
; tool H0.240 W0.770
G1 Z0.240 F1000
G1 X10.092 Y53.873 F4800
G1 E0.0000 F1500
G92 E0.0000
G1 X30.900 Y51.213 E1.4506 F1125
G1 X31.606 Y51.216 E1.4994
G1 X32.264 Y51.394 E1.5465
G1 X32.855 Y51.738 E1.5937
G1 X33.333 Y52.220 E1.6407
G1 X33.674 Y52.813 E1.6880
G1 X33.846 Y53.472 E1.7351
G1 X33.843 Y54.154 E1.7822
G1 X33.666 Y54.812 E1.8294
G1 X33.321 Y55.401 E1.8766
G1 X32.839 Y55.882 E1.9237
G1 X32.246 Y56.221 E1.9709
G1 X31.587 Y56.394 E2.0180
G1 X30.906 Y56.391 E2.0651
G1 X30.247 Y56.213 E2.1123
G1 X29.658 Y55.870 E2.1595
G1 X29.178 Y55.386 E2.2066
G1 X28.840 Y54.795 E2.2537
G1 X28.568 Y53.757 E2.3278
G1 X26.723 Y53.996 E2.4565
G1 X27.959 Y63.688 E3.1321
G1 X32.422 Y63.115 E3.4432
G1 X33.127 Y63.118 E3.4920
G1 X33.787 Y63.298 E3.5393
G1 X34.376 Y63.640 E3.5864
G1 X34.857 Y64.126 E3.6336
G1 X35.196 Y64.715 E3.6807
G1 X35.369 Y65.376 E3.7279
G1 X35.366 Y66.059 E3.7751
G1 X35.188 Y66.714 E3.8221
G1 X34.845 Y67.303 E3.8692
G1 X34.360 Y67.783 E3.9164
G1 X33.769 Y68.123 E3.9635
G1 X33.108 Y68.298 E4.0108
G1 X32.428 Y68.295 E4.0578
G1 X31.770 Y68.115 E4.1050
G1 X31.179 Y67.772 E4.1522
G1 X30.701 Y67.288 E4.1993
G1 X30.362 Y66.696 E4.2465
G1 X30.089 Y65.664 E4.3203
G1 X28.240 Y65.899 E4.4492
G1 X29.476 Y75.591 E5.1248
G1 X33.943 Y75.019 E5.4362
G1 X34.649 Y75.022 E5.4851
G1 X35.308 Y75.200 E5.5323
G1 X35.897 Y75.543 E5.5794
G1 X36.378 Y76.028 E5.6266
G1 X36.717 Y76.619 E5.6737
G1 X36.890 Y77.279 E5.7209
G1 X36.888 Y77.961 E5.7680
G1 X36.709 Y78.618 E5.8152
G1 X36.366 Y79.209 E5.8624
G1 X35.882 Y79.687 E5.9094
G1 X35.290 Y80.026 E5.9566
G1 X34.630 Y80.200 E6.0038
G1 X33.949 Y80.197 E6.0509
G1 X33.291 Y80.019 E6.0980
G1 X32.702 Y79.675 E6.1452
G1 X32.222 Y79.193 E6.1922
G1 X31.883 Y78.600 E6.2395
G1 X31.608 Y77.565 E6.3135
G1 X29.757 Y77.803 E6.4425
G1 X30.993 Y87.493 E7.1180
G1 X35.466 Y86.923 E7.4298
G1 X36.172 Y86.925 E7.4786
G1 X36.830 Y87.106 E7.5257
G1 X37.419 Y87.447 E7.5728
G1 X37.899 Y87.931 E7.6200
G1 X38.238 Y88.523 E7.6671
G1 X38.411 Y89.181 E7.7142
G1 X38.409 Y89.864 E7.7614
G1 X38.231 Y90.522 E7.8085
G1 X37.887 Y91.111 E7.8557
G1 X37.403 Y91.593 E7.9029
G1 X36.812 Y91.930 E7.9500
G1 X36.152 Y92.105 E7.9971
G1 X35.472 Y92.103 E8.0442
G1 X34.813 Y91.923 E8.0915
G1 X34.224 Y91.581 E8.1385
G1 X33.743 Y91.095 E8.1858
G1 X33.404 Y90.503 E8.2329
G1 X33.132 Y89.469 E8.3069
G1 X31.275 Y89.707 E8.4364
G1 X33.850 Y109.900 E9.8441
G1 X37.069 Y111.248 E10.0854
G1 X37.608 Y111.665 E10.1324
G1 X38.022 Y112.208 E10.1797
G1 X38.280 Y112.837 E10.2267
G1 X38.368 Y113.539 E10.2757
G1 X38.227 Y151.162 E12.8772
G1 X38.134 Y151.864 E12.9262
G1 X37.871 Y152.491 E12.9732
G1 X37.452 Y153.031 E13.0204
G1 X36.911 Y153.443 E13.0675
G1 X33.681 Y154.767 E13.3088
G1 X30.955 Y174.941 E14.7165
G1 X32.810 Y175.192 E14.8460
G1 X33.090 Y174.160 E14.9200
G1 X33.434 Y173.569 E14.9672
G1 X33.918 Y173.089 E15.0143
G1 X34.509 Y172.752 E15.0614
G1 X35.170 Y172.578 E15.1087
G1 X35.851 Y172.581 E15.1557
G1 X36.508 Y172.759 E15.2029
G1 X37.097 Y173.101 E15.2499
G1 X37.577 Y173.585 E15.2971
G1 X37.916 Y174.178 E15.3443
G1 X38.090 Y174.837 E15.3914
G1 X38.087 Y175.520 E15.4387
G1 X37.909 Y176.177 E15.4857
G1 X37.566 Y176.766 E15.5329
G1 X37.082 Y177.246 E15.5800
G1 X36.490 Y177.584 E15.6271
G1 X35.831 Y177.759 E15.6743
G1 X35.125 Y177.756 E15.7231
G1 X30.657 Y177.152 E16.0349
G1 X29.348 Y186.833 E16.7103
G1 X31.197 Y187.084 E16.8394
G1 X31.479 Y186.052 E16.9134
G1 X31.823 Y185.461 E16.9606
G1 X32.307 Y184.983 E17.0077
G1 X32.899 Y184.644 E17.0548
G1 X33.557 Y184.470 E17.1019
G1 X34.238 Y184.473 E17.1490
G1 X34.898 Y184.651 E17.1963
G1 X35.487 Y184.995 E17.2434
G1 X35.967 Y185.477 E17.2905
G1 X36.306 Y186.070 E17.3377
G1 X36.479 Y186.729 E17.3848
G1 X36.477 Y187.410 E17.4319
G1 X36.298 Y188.069 E17.4791
G1 X35.955 Y188.658 E17.5263
G1 X35.471 Y189.139 E17.5734
G1 X34.879 Y189.477 E17.6206
G1 X34.219 Y189.651 E17.6678
G1 X33.513 Y189.648 E17.7166
G1 X29.050 Y189.042 E18.0280
G1 X27.741 Y198.725 E18.7037
G1 X29.589 Y198.974 E18.8326
G1 X29.869 Y197.942 E18.9065
G1 X30.212 Y197.355 E18.9536
G1 X30.695 Y196.873 E19.0007
G1 X31.288 Y196.536 E19.0479
G1 X31.947 Y196.360 E19.0951
G1 X32.627 Y196.363 E19.1421
G1 X33.287 Y196.543 E19.1894
G1 X33.876 Y196.885 E19.2365
G1 X34.356 Y197.371 E19.2837
G1 X34.695 Y197.960 E19.3308
G1 X34.869 Y198.619 E19.3778
G1 X34.866 Y199.304 E19.4252
G1 X34.688 Y199.961 E19.4723
G1 X34.345 Y200.548 E19.5193
G1 X33.860 Y201.028 E19.5665
G1 X33.268 Y201.368 E19.6136
G1 X32.608 Y201.543 E19.6609
G1 X31.902 Y201.540 E19.7097
G1 X27.443 Y200.936 E20.0208
G1 X26.135 Y210.619 E20.6965
G1 X27.979 Y210.868 E20.8251
G1 X28.258 Y209.834 E20.8992
G1 X28.600 Y209.245 E20.9463
G1 X29.084 Y208.765 E20.9934
G1 X29.675 Y208.426 E21.0406
G1 X30.336 Y208.252 E21.0878
G1 X31.017 Y208.255 E21.1349
G1 X31.674 Y208.433 E21.1820
G1 X32.265 Y208.777 E21.2292
G1 X32.744 Y209.261 E21.2763
G1 X33.084 Y209.852 E21.3235
G1 X33.256 Y210.512 E21.3707
G1 X33.253 Y211.194 E21.4178
G1 X33.077 Y211.851 E21.4649
G1 X32.732 Y212.442 E21.5122
G1 X32.250 Y212.920 E21.5591
G1 X31.656 Y213.259 E21.6064
G1 X30.997 Y213.433 E21.6535
G1 X30.291 Y213.430 E21.7023
G1 X9.503 Y210.615 E23.1529
G1 X8.820 Y210.430 E23.2019
G1 X8.231 Y210.086 E23.2490
G1 X7.750 Y209.602 E23.2962
G1 X7.411 Y209.011 E23.3433
G1 X7.240 Y208.351 E23.3905
G1 X7.242 Y207.669 E23.4376
G1 X7.419 Y207.011 E23.4847
G1 X7.762 Y206.421 E23.5319
G1 X8.246 Y205.943 E23.5790
G1 X8.838 Y205.603 E23.6261
G1 X9.498 Y205.430 E23.6733
G1 X10.181 Y205.433 E23.7206
G1 X10.837 Y205.611 E23.7675
G1 X11.428 Y205.954 E23.8148
G1 X11.906 Y206.437 E23.8618
G1 X12.247 Y207.030 E23.9091
G1 X12.418 Y207.688 E23.9561
G1 X12.414 Y208.757 E24.0300
G1 X14.600 Y209.057 E24.1826
G1 X15.906 Y199.374 E24.8582
G1 X11.114 Y198.723 E25.1926
G1 X10.432 Y198.538 E25.2415
G1 X9.842 Y198.194 E25.2887
G1 X9.363 Y197.710 E25.3358
G1 X9.024 Y197.119 E25.3829
G1 X8.851 Y196.460 E25.4300
G1 X8.853 Y195.779 E25.4771
G1 X9.031 Y195.120 E25.5244
G1 X9.375 Y194.531 E25.5715
G1 X9.857 Y194.050 E25.6186
G1 X10.450 Y193.711 E25.6658
G1 X11.109 Y193.538 E25.7129
G1 X11.790 Y193.541 E25.7600
G1 X12.449 Y193.719 E25.8072
G1 X13.038 Y194.062 E25.8544
G1 X13.519 Y194.547 E25.9015
G1 X13.858 Y195.138 E25.9487
G1 X14.031 Y195.798 E25.9959
G1 X14.027 Y196.867 E26.0698
G1 X16.207 Y197.164 E26.2219
G1 X17.513 Y187.479 E26.8977
G1 X12.725 Y186.833 E27.2317
G1 X12.043 Y186.646 E27.2807
G1 X11.454 Y186.304 E27.3277
G1 X10.973 Y185.818 E27.3750
G1 X10.634 Y185.228 E27.4221
G1 X10.459 Y184.568 E27.4693
G1 X10.462 Y183.886 E27.5165
G1 X10.642 Y183.228 E27.5636
G1 X10.985 Y182.639 E27.6108
G1 X11.469 Y182.159 E27.6579
G1 X12.061 Y181.821 E27.7050
G1 X12.720 Y181.646 E27.7522
G1 X13.400 Y181.649 E27.7992
G1 X14.060 Y181.829 E27.8465
G1 X14.649 Y182.171 E27.8936
G1 X15.129 Y182.655 E27.9407
G1 X15.468 Y183.246 E27.9879
G1 X15.642 Y183.905 E28.0350
G1 X15.638 Y184.976 E28.1090
G1 X17.813 Y185.270 E28.2608
G1 X19.122 Y175.588 E28.9364
G1 X14.335 Y174.939 E29.2705
G1 X13.653 Y174.755 E29.3193
G1 X13.065 Y174.412 E29.3664
G1 X12.584 Y173.928 E29.4136
G1 X12.245 Y173.337 E29.4607
G1 X12.072 Y172.676 E29.5079
G1 X12.074 Y171.993 E29.5551
G1 X12.253 Y171.338 E29.6021
G1 X12.596 Y170.747 E29.6494
G1 X13.080 Y170.268 E29.6964
G1 X13.672 Y169.929 E29.7436
G1 X14.331 Y169.754 E29.7907
G1 X15.013 Y169.757 E29.8379
G1 X15.670 Y169.937 E29.8850
G1 X16.260 Y170.280 E29.9322
G1 X16.740 Y170.763 E29.9793
G1 X17.079 Y171.356 E30.0265
G1 X17.252 Y172.013 E30.0735
G1 X17.248 Y173.084 E30.1475
G1 X19.420 Y173.378 E30.2991
G1 X21.621 Y157.087 E31.4358
G1 X21.025 Y157.072 E31.4770
G1 X20.736 Y157.035 E31.4972
G1 X20.499 Y156.963 E31.5143
G1 X20.303 Y156.860 E31.5296
G1 X20.136 Y156.723 E31.5446
G1 X19.990 Y156.543 E31.5606
G1 X19.937 Y156.453 E31.5678
G1 X19.824 Y156.192 E31.5875
G1 X19.785 Y156.061 E31.5970
G1 X19.718 Y155.724 E31.6207
G1 X19.685 Y155.340 E31.6474
G1 X19.858 Y109.223 E34.8363
G1 X19.894 Y108.839 E34.8629
G1 X19.963 Y108.502 E34.8867
G1 X20.004 Y108.371 E34.8962
G1 X20.119 Y108.110 E34.9159
G1 X20.172 Y108.022 E34.9230
G1 X20.319 Y107.844 E34.9390
G1 X20.488 Y107.708 E34.9540
G1 X20.685 Y107.605 E34.9694
G1 X20.922 Y107.536 E34.9865
G1 X21.209 Y107.501 E35.0064
G1 X21.808 Y107.497 E35.0478
G1 X19.728 Y91.183 E36.1851
G1 X17.555 Y91.461 E36.3366
G1 X17.551 Y92.530 E36.4105
G1 X17.372 Y93.188 E36.4576
G1 X17.029 Y93.778 E36.5049
G1 X16.545 Y94.259 E36.5520
G1 X15.953 Y94.598 E36.5992
G1 X15.295 Y94.771 E36.6463
G1 X14.612 Y94.769 E36.6935
G1 X13.955 Y94.590 E36.7406
G1 X13.366 Y94.247 E36.7877
G1 X12.885 Y93.763 E36.8349
G1 X12.546 Y93.169 E36.8821
G1 X12.373 Y92.511 E36.9292
G1 X12.375 Y91.830 E36.9763
G1 X12.554 Y91.172 E37.0234
G1 X12.897 Y90.582 E37.0707
G1 X13.381 Y90.103 E37.1178
G1 X13.973 Y89.762 E37.1650
G1 X14.655 Y89.584 E37.2137
G1 X19.447 Y88.971 E37.5478
G1 X18.211 Y79.279 E38.2234
G1 X16.033 Y79.557 E38.3752
G1 X16.029 Y80.628 E38.4492
G1 X15.851 Y81.285 E38.4963
G1 X15.508 Y81.874 E38.5435
G1 X15.024 Y82.355 E38.5906
G1 X14.432 Y82.692 E38.6377
G1 X13.771 Y82.867 E38.6850
G1 X13.091 Y82.865 E38.7320
G1 X12.433 Y82.685 E38.7792
G1 X11.844 Y82.343 E38.8263
G1 X11.364 Y81.859 E38.8734
G1 X11.025 Y81.267 E38.9206
G1 X10.849 Y80.608 E38.9677
G1 X10.852 Y79.926 E39.0149
G1 X11.032 Y79.267 E39.0621
G1 X11.376 Y78.680 E39.1092
G1 X11.860 Y78.197 E39.1565
G1 X12.451 Y77.860 E39.2036
G1 X13.135 Y77.678 E39.2525
G1 X17.928 Y77.067 E39.5865
G1 X16.694 Y67.375 E40.2621
G1 X14.512 Y67.653 E40.4142
G1 X14.508 Y68.723 E40.4882
G1 X14.330 Y69.382 E40.5354
G1 X13.986 Y69.971 E40.5825
G1 X13.502 Y70.451 E40.6297
G1 X12.911 Y70.790 E40.6768
G1 X12.250 Y70.963 E40.7240
G1 X11.569 Y70.961 E40.7711
G1 X10.912 Y70.783 E40.8182
G1 X10.321 Y70.439 E40.8655
G1 X9.843 Y69.955 E40.9125
G1 X9.504 Y69.364 E40.9597
G1 X9.330 Y68.703 E41.0069
G1 X9.333 Y68.022 E41.0540
G1 X9.511 Y67.365 E41.1011
G1 X9.855 Y66.776 E41.1483
G1 X10.337 Y66.295 E41.1953
G1 X10.930 Y65.956 E41.2426
