; G-Code generated by Simplify3D(R) Version 4.1.2
; Apr 22, 2020 at 7:16:24 PM
; Settings Summary
;   processName,Process1
;   applyToModels,Raise3DN2PlatformTest
;   profileName,Creality Ender 3 Pro (DOOR 1.0) (modified)
;   profileVersion,2020-04-10 20:01:48
;   baseProfile,Creality Ender 3 Pro (modified)
;   printMaterial,PLA
;   printQuality,MASK-2.3
;   printExtruders,
;   extruderName,Primary Extruder
;   extruderToolheadNumber,0
;   extruderDiameter,0.4
;   extruderAutoWidth,0
;   extruderWidth,0.6
;   extrusionMultiplier,0.9
;   extruderUseRetract,1
;   extruderRetractionDistance,6
;   extruderExtraRestartDistance,0
;   extruderRetractionZLift,0
;   extruderRetractionSpeed,1500
;   extruderUseCoasting,0
;   extruderCoastingDistance,0.2
;   extruderUseWipe,0
;   extruderWipeDistance,5
;   primaryExtruder,0
;   layerHeight,0.3
;   topSolidLayers,4
;   bottomSolidLayers,4
;   perimeterOutlines,3
;   printPerimetersInsideOut,0
;   startPointOption,2
;   startPointOriginX,0
;   startPointOriginY,0
;   sequentialIslands,0
;   spiralVaseMode,0
;   firstLayerHeightPercentage,120
;   firstLayerWidthPercentage,110
;   firstLayerUnderspeed,0.5
;   useRaft,0
;   raftExtruder,0
;   raftTopLayers,3
;   raftBaseLayers,2
;   raftOffset,3
;   raftSeparationDistance,0.14
;   raftTopInfill,100
;   aboveRaftSpeedMultiplier,0.3
;   useSkirt,0
;   skirtExtruder,0
;   skirtLayers,1
;   skirtOutlines,2
;   skirtOffset,4
;   usePrimePillar,0
;   primePillarExtruder,999
;   primePillarWidth,12
;   primePillarLocation,7
;   primePillarSpeedMultiplier,1
;   useOozeShield,0
;   oozeShieldExtruder,999
;   oozeShieldOffset,2
;   oozeShieldOutlines,1
;   oozeShieldSidewallShape,1
;   oozeShieldSidewallAngle,30
;   oozeShieldSpeedMultiplier,1
;   infillExtruder,0
;   internalInfillPattern,Rectilinear
;   externalInfillPattern,Rectilinear
;   infillPercentage,100
;   outlineOverlapPercentage,15
;   infillExtrusionWidthPercentage,100
;   minInfillLength,5
;   infillLayerInterval,1
;   internalInfillAngles,45,-45
;   overlapInternalInfillAngles,0
;   externalInfillAngles,45,-45
;   generateSupport,0
;   supportExtruder,0
;   supportInfillPercentage,25
;   supportExtraInflation,0
;   supportBaseLayers,0
;   denseSupportExtruder,0
;   denseSupportLayers,0
;   denseSupportInfillPercentage,70
;   supportLayerInterval,1
;   supportHorizontalPartOffset,0.3
;   supportUpperSeparationLayers,1
;   supportLowerSeparationLayers,1
;   supportType,0
;   supportGridSpacing,4
;   maxOverhangAngle,45
;   supportAngles,0
;   temperatureName,Primary Extruder,Heated Bed
;   temperatureNumber,0,0
;   temperatureSetpointCount,1,1
;   temperatureSetpointLayers,1,1
;   temperatureSetpointTemperatures,200,60
;   temperatureStabilizeAtStartup,1,1
;   temperatureHeatedBed,0,1
;   fanLayers,1,2
;   fanSpeeds,0,100
;   blipFanToFullPower,0
;   adjustSpeedForCooling,1
;   minSpeedLayerTime,15
;   minCoolingSpeedSlowdown,20
;   increaseFanForCooling,0
;   minFanLayerTime,45
;   maxCoolingFanSpeed,100
;   increaseFanForBridging,0
;   bridgingFanSpeed,100
;   use5D,1
;   relativeEdistances,0
;   allowEaxisZeroing,1
;   independentExtruderAxes,0
;   includeM10123,0
;   stickySupport,1
;   applyToolheadOffsets,0
;   gcodeXoffset,0
;   gcodeYoffset,0
;   gcodeZoffset,0
;   overrideMachineDefinition,1
;   machineTypeOverride,0
;   strokeXoverride,220
;   strokeYoverride,220
;   strokeZoverride,250
;   originOffsetXoverride,-5
;   originOffsetYoverride,-5
;   originOffsetZoverride,0
;   homeXdirOverride,-1
;   homeYdirOverride,-1
;   homeZdirOverride,-1
;   flipXoverride,1
;   flipYoverride,-1
;   flipZoverride,1
;   toolheadOffsets,0,0|0,0|0,0|0,0|0,0|0,0
;   overrideFirmwareConfiguration,1
;   firmwareTypeOverride,RepRap (Marlin/Repetier/Sprinter)
;   GPXconfigOverride,r2
;   baudRateOverride,115200
;   overridePrinterModels,1
;   printerModelsOverride
;   startingGcode,G28 ; home all axes,G1 X5 Y10 Z0.2 F3000 ; get ready to prime,G92 E0 ; reset extrusion distance,G1 X160 E15 F600 ; prime nozzle,G1 X180 F5000 ; quick wipe
;   layerChangeGcode,
;   retractionGcode,
;   toolChangeGcode,
;   endingGcode,G28 X0 ; home X axis,M106 S0 ; turn off cooling fan,M104 S0 ; turn off extruder,M140 S0 ; turn off bed,M84 ; disable motors
;   exportFileFormat,gcode
;   celebration,0
;   celebrationSong,Random Song
;   postProcessing,
;   defaultSpeed,3000
;   outlineUnderspeed,0.75
;   solidInfillUnderspeed,0.8
;   supportUnderspeed,0.8
;   rapidXYspeed,4800
;   rapidZspeed,1000
;   minBridgingArea,50
;   bridgingExtraInflation,0
;   bridgingExtrusionMultiplier,1
;   bridgingSpeedMultiplier,1
;   useFixedBridgingAngle,0
;   fixedBridgingAngle,0
;   applyBridgingToPerimeters,0
;   filamentDiameters,1.75|1.75|1.75|1.75|1.75|1.75
;   filamentPricesPerKg,25|46|46|46|46|46
;   filamentDensities,1.25|1.25|1.25|1.25|1.25|1.25
;   useMinPrintHeight,0
;   minPrintHeight,9
;   useMaxPrintHeight,0
;   maxPrintHeight,9
;   useDiaphragm,0
;   diaphragmLayerInterval,20
;   robustSlicing,1
;   mergeAllIntoSolid,0
;   onlyRetractWhenCrossingOutline,1
;   retractBetweenLayers,1
;   useRetractionMinTravel,0
;   retractionMinTravel,3
;   retractWhileWiping,0
;   onlyWipeOutlines,1
;   avoidCrossingOutline,0
;   maxMovementDetourFactor,3
;   toolChangeRetractionDistance,12
;   toolChangeExtraRestartDistance,-0.5
;   toolChangeRetractionSpeed,600
;   externalThinWallType,0
;   internalThinWallType,2
;   thinWallAllowedOverlapPercentage,10
;   singleExtrusionMinLength,1
;   singleExtrusionMinPrintingWidthPercentage,50
;   singleExtrusionMaxPrintingWidthPercentage,200
;   singleExtrusionEndpointExtension,0.2
;   horizontalSizeCompensation,0
G90
M82
M106 S0
M140 S72 ; set the bed temperature
G28 ; home all axes
M190 S72 ; wait for bed temperature
G29 ; Mesh Generation
M104 S215 T0 ; set the hot end temperature
M109 S215 T0 ; wait for hot end temperature
G1 X5 Y10 Z0.2 F3000 ; get ready to prime
G92 E0 ; reset extrusion distance
G1 X160 E15 F600 ; prime nozzle
G1 X180 F5000 ; quick wipe
; process Process1
; layer 1, Z = 0.360
T0
G92 E0.0000
G1 E-6.0000 F1500
; feature outer perimeter
; tool H0.360 W0.660
G1 Z0.360 F1000
G1 X10.335 Y10.335 F4800
G1 E0.0000 F1500
G92 E0.0000
G1 X28.765 Y10.335 E1.6385 F1125
G1 X28.765 Y28.765 E3.2770
G1 X10.335 Y28.765 E4.9155
G1 X10.335 Y10.335 E6.5540
; feature inner perimeter
G1 X10.995 Y10.995 F4800
G92 E0.0000
G1 X28.105 Y10.995 E1.5212 F1313
G1 X28.105 Y28.105 E3.0423
G1 X10.995 Y28.105 E4.5635
G1 X10.995 Y10.995 E6.0846
G1 X11.655 Y11.655 F4800
G92 E0.0000
G1 X27.445 Y11.655 E1.4038 F1313
G1 X27.445 Y27.445 E2.8076
G1 X11.655 Y27.445 E4.2114
G1 X11.655 Y11.655 E5.6152
; feature solid layer
G1 X26.217 Y12.216 F4800
G92 E0.0000
G1 X26.884 Y12.883 E0.0839 F1200
G1 X26.884 Y13.817 E0.1669
G1 X25.283 Y12.216 E0.3681
G1 X24.350 Y12.216 E0.4511
G1 X26.884 Y14.750 E0.7697
G1 X26.884 Y15.683 E0.8527
G1 X23.417 Y12.216 E1.2887
G1 X22.483 Y12.216 E1.3716
G1 X26.884 Y16.617 E1.9250
G1 X26.884 Y17.550 E2.0079
G1 X21.550 Y12.216 E2.6786
G1 X20.616 Y12.216 E2.7616
G1 X26.884 Y18.484 E3.5496
G1 X26.884 Y19.417 E3.6326
G1 X19.683 Y12.216 E4.5380
G1 X18.750 Y12.216 E4.6209
G1 X26.884 Y20.350 E5.6437
G1 X26.884 Y21.284 E5.7266
G1 X17.816 Y12.216 E6.8667
G1 X16.883 Y12.216 E6.9497
G1 X26.884 Y22.217 E8.2071
G1 X26.884 Y23.150 E8.2901
G1 X15.950 Y12.216 E9.6649
G1 X15.016 Y12.216 E9.7479
G1 X26.884 Y24.084 E11.2400
G1 X26.884 Y25.017 E11.3230
G1 X14.083 Y12.216 E12.9325
G1 X13.149 Y12.216 E13.0155
G1 X26.884 Y25.951 E14.7423
G1 X26.884 Y26.884 E14.8253
G1 X12.216 Y12.216 E16.6695
G1 X12.216 Y13.149 E16.7525
G1 X25.951 Y26.884 E18.4794
G1 X25.017 Y26.884 E18.5623
G1 X12.216 Y14.083 E20.1718
G1 X12.216 Y15.016 E20.2548
G1 X24.084 Y26.884 E21.7470
G1 X23.150 Y26.884 E21.8300
G1 X12.216 Y15.950 E23.2047
G1 X12.216 Y16.883 E23.2877
G1 X22.217 Y26.884 E24.5452
G1 X21.284 Y26.884 E24.6281
G1 X12.216 Y17.816 E25.7682
G1 X12.216 Y18.750 E25.8512
G1 X20.350 Y26.884 E26.8739
G1 X19.417 Y26.884 E26.9569
G1 X12.216 Y19.683 E27.8623
G1 X12.216 Y20.616 E27.9453
G1 X18.484 Y26.884 E28.7333
G1 X17.550 Y26.884 E28.8163
G1 X12.216 Y21.550 E29.4870
G1 X12.216 Y22.483 E29.5699
G1 X16.617 Y26.884 E30.1233
G1 X15.683 Y26.884 E30.2062
G1 X12.216 Y23.417 E30.6422
G1 X12.216 Y24.350 E30.7252
G1 X14.750 Y26.884 E31.0438
G1 X13.817 Y26.884 E31.1268
G1 X12.216 Y25.283 E31.3280
G1 X12.216 Y26.217 E31.4110
G1 X12.883 Y26.884 E31.4949
G92 E0.0000
G1 E-6.0000 F1500
; feature outer perimeter
G1 X48.515 Y67.605 F4800
G1 E0.0000 F1500
G92 E0.0000
G1 X66.945 Y67.605 E1.6385 F1125
G1 X66.945 Y86.035 E3.2770
G1 X48.515 Y86.035 E4.9155
G1 X48.515 Y67.605 E6.5540
; feature inner perimeter
G1 X49.175 Y68.265 F4800
G92 E0.0000
G1 X66.285 Y68.265 E1.5212 F1313
G1 X66.285 Y85.375 E3.0423
G1 X49.175 Y85.375 E4.5635
G1 X49.175 Y68.265 E6.0846
G1 X49.835 Y68.925 F4800
G92 E0.0000
G1 X65.625 Y68.925 E1.4038 F1313
G1 X65.625 Y84.715 E2.8076
G1 X49.835 Y84.715 E4.2114
G1 X49.835 Y68.925 E5.6152
; feature solid layer
G1 X64.819 Y69.486 F4800
G92 E0.0000
G1 X65.064 Y69.731 E0.0308 F1200
G1 X65.064 Y70.664 E0.1138
G1 X63.886 Y69.486 E0.2619
G1 X62.952 Y69.486 E0.3449
G1 X65.064 Y71.598 E0.6104
G1 X65.064 Y72.531 E0.6934
G1 X62.019 Y69.486 E1.0762
G1 X61.086 Y69.486 E1.1592
G1 X65.064 Y73.464 E1.6594
G1 X65.064 Y74.398 E1.7424
G1 X60.152 Y69.486 E2.3600
G1 X59.219 Y69.486 E2.4429
G1 X65.064 Y75.331 E3.1778
G1 X65.064 Y76.265 E3.2608
G1 X58.285 Y69.486 E4.1131
G1 X57.352 Y69.486 E4.1961
G1 X65.064 Y77.198 E5.1657
G1 X65.064 Y78.131 E5.2487
G1 X56.419 Y69.486 E6.3357
G1 X55.485 Y69.486 E6.4186
G1 X65.064 Y79.065 E7.6230
G1 X65.064 Y79.998 E7.7059
G1 X54.552 Y69.486 E9.0276
G1 X53.619 Y69.486 E9.1106
G1 X65.064 Y80.931 E10.5496
G1 X65.064 Y81.865 E10.6326
G1 X52.685 Y69.486 E12.1890
G1 X51.752 Y69.486 E12.2720
G1 X65.064 Y82.798 E13.9457
G1 X65.064 Y83.732 E14.0287
G1 X50.818 Y69.486 E15.8198
G1 X50.396 Y69.486 E15.8574
G1 X50.396 Y69.997 E15.9028
G1 X64.553 Y84.154 E17.6828
G1 X63.620 Y84.154 E17.7657
G1 X50.396 Y70.930 E19.4283
G1 X50.396 Y71.864 E19.5113
G1 X62.686 Y84.154 E21.0566
G1 X61.753 Y84.154 E21.1396
G1 X50.396 Y72.797 E22.5674
G1 X50.396 Y73.731 E22.6504
G1 X60.819 Y84.154 E23.9610
G1 X59.886 Y84.154 E24.0440
G1 X50.396 Y74.664 E25.2371
G1 X50.396 Y75.597 E25.3201
G1 X58.953 Y84.154 E26.3960
G1 X58.019 Y84.154 E26.4789
G1 X50.396 Y76.531 E27.4374
G1 X50.396 Y77.464 E27.5204
G1 X57.086 Y84.154 E28.3615
G1 X56.153 Y84.154 E28.4445
G1 X50.396 Y78.397 E29.1683
G1 X50.396 Y79.331 E29.2513
G1 X55.219 Y84.154 E29.8577
G1 X54.286 Y84.154 E29.9407
G1 X50.396 Y80.264 E30.4297
G1 X50.396 Y81.198 E30.5127
G1 X53.352 Y84.154 E30.8844
G1 X52.419 Y84.154 E30.9674
G1 X50.396 Y82.131 E31.2218
G1 X50.396 Y83.064 E31.3048
G1 X51.486 Y84.154 E31.4418
G1 X50.552 Y84.154 E31.5247
G1 X50.396 Y83.998 E31.5444
G92 E0.0000
G1 E-6.0000 F1500
; feature outer perimeter
G1 X28.765 Y105.785 F4800
G1 E0.0000 F1500
G92 E0.0000
G1 X28.765 Y124.215 E1.6385 F1125
G1 X10.335 Y124.215 E3.2770
G1 X10.335 Y105.785 E4.9155
G1 X28.765 Y105.785 E6.5540
; feature inner perimeter
G1 X28.105 Y106.445 F4800
G92 E0.0000
G1 X28.105 Y123.555 E1.5212 F1313
G1 X10.995 Y123.555 E3.0423
G1 X10.995 Y106.445 E4.5635
G1 X28.105 Y106.445 E6.0846
G1 X27.445 Y107.105 F4800
G92 E0.0000
G1 X27.445 Y122.895 E1.4038 F1313
G1 X11.655 Y122.895 E2.8076
G1 X11.655 Y107.105 E4.2114
G1 X27.445 Y107.105 E5.6152
; feature solid layer
G1 X26.462 Y107.666 F4800
G92 E0.0000
G1 X26.884 Y108.088 E0.0531 F1200
G1 X26.884 Y109.022 E0.1361
G1 X25.528 Y107.666 E0.3065
G1 X24.595 Y107.666 E0.3895
G1 X26.884 Y109.955 E0.6773
G1 X26.884 Y110.888 E0.7602
G1 X23.662 Y107.666 E1.1654
G1 X22.728 Y107.666 E1.2484
G1 X26.884 Y111.822 E1.7708
G1 X26.884 Y112.755 E1.8538
G1 X21.795 Y107.666 E2.4937
G1 X20.862 Y107.666 E2.5767
G1 X26.884 Y113.688 E3.3339
G1 X26.884 Y114.622 E3.4168
G1 X19.928 Y107.666 E4.2914
G1 X18.995 Y107.666 E4.3744
G1 X26.884 Y115.555 E5.3663
G1 X26.884 Y116.489 E5.4493
G1 X18.061 Y107.666 E6.5585
G1 X17.128 Y107.666 E6.6415
G1 X26.884 Y117.422 E7.8681
G1 X26.884 Y118.355 E7.9511
G1 X16.195 Y107.666 E9.2951
G1 X15.261 Y107.666 E9.3780
G1 X26.884 Y119.289 E10.8394
G1 X26.884 Y120.222 E10.9224
G1 X14.328 Y107.666 E12.5010
G1 X13.395 Y107.666 E12.5840
G1 X26.884 Y121.155 E14.2800
G1 X26.884 Y122.089 E14.3630
G1 X12.461 Y107.666 E16.1764
G1 X12.216 Y107.666 E16.1982
G1 X12.216 Y108.354 E16.2594
G1 X26.196 Y122.334 E18.0171
G1 X25.262 Y122.334 E18.1000
G1 X12.216 Y109.288 E19.7404
G1 X12.216 Y110.221 E19.8233
G1 X24.329 Y122.334 E21.3463
G1 X23.396 Y122.334 E21.4293
G1 X12.216 Y111.154 E22.8349
G1 X12.216 Y112.088 E22.9179
G1 X22.462 Y122.334 E24.2061
G1 X21.529 Y122.334 E24.2891
G1 X12.216 Y113.021 E25.4600
G1 X12.216 Y113.955 E25.5430
G1 X20.595 Y122.334 E26.5966
G1 X19.662 Y122.334 E26.6795
G1 X12.216 Y114.888 E27.6157
G1 X12.216 Y115.821 E27.6987
G1 X18.729 Y122.334 E28.5176
G1 X17.795 Y122.334 E28.6005
G1 X12.216 Y116.755 E29.3020
G1 X12.216 Y117.688 E29.3850
G1 X16.862 Y122.334 E29.9692
G1 X15.929 Y122.334 E30.0521
G1 X12.216 Y118.621 E30.5189
G1 X12.216 Y119.555 E30.6019
G1 X14.995 Y122.334 E30.9513
G1 X14.062 Y122.334 E31.0343
G1 X12.216 Y120.488 E31.2664
G1 X12.216 Y121.422 E31.3494
G1 X13.128 Y122.334 E31.4641
G92 E0.0000
G1 E-6.0000 F1500
; feature outer perimeter
G1 X48.515 Y143.965 F4800
G1 E0.0000 F1500
G92 E0.0000
G1 X66.945 Y143.965 E1.6385 F1125
G1 X66.945 Y162.395 E3.2770
G1 X48.515 Y162.395 E4.9155
G1 X48.515 Y143.965 E6.5540
; feature inner perimeter
G1 X49.175 Y144.625 F4800
G92 E0.0000
G1 X66.285 Y144.625 E1.5212 F1313
G1 X66.285 Y161.735 E3.0423
G1 X49.175 Y161.735 E4.5635
G1 X49.175 Y144.625 E6.0846
G1 X49.835 Y145.285 F4800
G92 E0.0000
G1 X65.625 Y145.285 E1.4038 F1313
G1 X65.625 Y161.075 E2.8076
G1 X49.835 Y161.075 E4.2114
G1 X49.835 Y145.285 E5.6152
; feature solid layer
G1 X64.642 Y145.846 F4800
G92 E0.0000
G1 X65.064 Y146.268 E0.0531 F1200
G1 X65.064 Y147.202 E0.1361
G1 X63.708 Y145.846 E0.3065
G1 X62.775 Y145.846 E0.3895
G1 X65.064 Y148.135 E0.6772
G1 X65.064 Y149.068 E0.7602
G1 X61.842 Y145.846 E1.1654
G1 X60.908 Y145.846 E1.2483
G1 X65.064 Y150.002 E1.7708
G1 X65.064 Y150.935 E1.8538
G1 X59.975 Y145.846 E2.4937
G1 X59.042 Y145.846 E2.5766
G1 X65.064 Y151.868 E3.3338
G1 X65.064 Y152.802 E3.4168
G1 X58.108 Y145.846 E4.2914
G1 X57.175 Y145.846 E4.3744
G1 X65.064 Y153.735 E5.3663
G1 X65.064 Y154.669 E5.4492
G1 X56.241 Y145.846 E6.5585
G1 X55.308 Y145.846 E6.6415
G1 X65.064 Y155.602 E7.8681
G1 X65.064 Y156.535 E7.9511
G1 X54.375 Y145.846 E9.2950
G1 X53.441 Y145.846 E9.3780
G1 X65.064 Y157.469 E10.8393
G1 X65.064 Y158.402 E10.9223
G1 X52.508 Y145.846 E12.5010
G1 X51.575 Y145.846 E12.5840
G1 X65.064 Y159.335 E14.2800
G1 X65.064 Y160.269 E14.3630
G1 X50.641 Y145.846 E16.1764
G1 X50.396 Y145.846 E16.1982
G1 X50.396 Y146.534 E16.2593
G1 X64.376 Y160.514 E18.0170
G1 X63.442 Y160.514 E18.1000
G1 X50.396 Y147.468 E19.7403
G1 X50.396 Y148.401 E19.8233
G1 X62.509 Y160.514 E21.3463
G1 X61.576 Y160.514 E21.4292
G1 X50.396 Y149.334 E22.8349
G1 X50.396 Y150.268 E22.9178
G1 X60.642 Y160.514 E24.2061
G1 X59.709 Y160.514 E24.2891
G1 X50.396 Y151.201 E25.4600
G1 X50.396 Y152.135 E25.5430
G1 X58.775 Y160.514 E26.5965
G1 X57.842 Y160.514 E26.6795
G1 X50.396 Y153.068 E27.6157
G1 X50.396 Y154.001 E27.6987
G1 X56.909 Y160.514 E28.5175
G1 X55.975 Y160.514 E28.6005
G1 X50.396 Y154.935 E29.3020
G1 X50.396 Y155.868 E29.3850
G1 X55.042 Y160.514 E29.9691
G1 X54.109 Y160.514 E30.0521
G1 X50.396 Y156.801 E30.5189
G1 X50.396 Y157.735 E30.6019
G1 X53.175 Y160.514 E30.9513
G1 X52.242 Y160.514 E31.0343
G1 X50.396 Y158.668 E31.2663
G1 X50.396 Y159.602 E31.3493
G1 X51.308 Y160.514 E31.4640
G92 E0.0000
G1 E-6.0000 F1500
; feature outer perimeter
G1 X28.765 Y201.235 F4800
G1 E0.0000 F1500
G92 E0.0000
G1 X28.765 Y219.665 E1.6385 F1125
G1 X10.335 Y219.665 E3.2770
G1 X10.335 Y201.235 E4.9155
G1 X28.765 Y201.235 E6.5540
; feature inner perimeter
G1 X28.105 Y201.895 F4800
G92 E0.0000
G1 X28.105 Y219.005 E1.5212 F1313
G1 X10.995 Y219.005 E3.0423
G1 X10.995 Y201.895 E4.5635
G1 X28.105 Y201.895 E6.0846
