; G-Code generated by Simplify3D(R) Version 4.1.2
; May 13, 2020 at 8:46:26 PM
; Settings Summary
;   processName,Process1
;   applyToModels,temp-tower-190-230
;   profileName,Creality Ender 3 Pro (modified)
;   profileVersion,2019-04-06 08:00:00
;   baseProfile,
;   printMaterial,PLA
;   printQuality,Medium - Temp Tower 215-230
;   printExtruders,
;   extruderName,Primary Extruder
;   extruderToolheadNumber,0
;   extruderDiameter,0.4
;   extruderAutoWidth,0
;   extruderWidth,0.4
;   extrusionMultiplier,0.9
;   extruderUseRetract,1
;   extruderRetractionDistance,6
;   extruderExtraRestartDistance,0
;   extruderRetractionZLift,0
;   extruderRetractionSpeed,2400
;   extruderUseCoasting,0
;   extruderCoastingDistance,0.2
;   extruderUseWipe,0
;   extruderWipeDistance,5
;   primaryExtruder,0
;   layerHeight,0.2
;   topSolidLayers,3
;   bottomSolidLayers,3
;   perimeterOutlines,2
;   printPerimetersInsideOut,1
;   startPointOption,2
;   startPointOriginX,0
;   startPointOriginY,0
;   sequentialIslands,0
;   spiralVaseMode,0
;   firstLayerHeightPercentage,110
;   firstLayerWidthPercentage,110
;   firstLayerUnderspeed,0.5
;   useRaft,0
;   raftExtruder,0
;   raftTopLayers,3
;   raftBaseLayers,2
;   raftOffset,3
;   raftSeparationDistance,0.14
;   raftTopInfill,100
;   aboveRaftSpeedMultiplier,0.3
;   useSkirt,1
;   skirtExtruder,0
;   skirtLayers,1
;   skirtOutlines,2
;   skirtOffset,4
;   usePrimePillar,0
;   primePillarExtruder,999
;   primePillarWidth,12
;   primePillarLocation,7
;   primePillarSpeedMultiplier,1
;   useOozeShield,0
;   oozeShieldExtruder,999
;   oozeShieldOffset,2
;   oozeShieldOutlines,1
;   oozeShieldSidewallShape,1
;   oozeShieldSidewallAngle,30
;   oozeShieldSpeedMultiplier,1
;   infillExtruder,0
;   internalInfillPattern,Rectilinear
;   externalInfillPattern,Rectilinear
;   infillPercentage,20
;   outlineOverlapPercentage,15
;   infillExtrusionWidthPercentage,100
;   minInfillLength,5
;   infillLayerInterval,1
;   internalInfillAngles,45,-45
;   overlapInternalInfillAngles,0
;   externalInfillAngles,45,-45
;   generateSupport,0
;   supportExtruder,0
;   supportInfillPercentage,30
;   supportExtraInflation,0
;   supportBaseLayers,0
;   denseSupportExtruder,0
;   denseSupportLayers,0
;   denseSupportInfillPercentage,70
;   supportLayerInterval,1
;   supportHorizontalPartOffset,0.3
;   supportUpperSeparationLayers,1
;   supportLowerSeparationLayers,1
;   supportType,0
;   supportGridSpacing,4
;   maxOverhangAngle,45
;   supportAngles,0
;   temperatureName,Primary Extruder,Heated Bed
;   temperatureNumber,0,0
;   temperatureSetpointCount,4,1
;   temperatureSetpointLayers,1,50,100,150,1
;   temperatureSetpointTemperatures,215,220,225,230,72
;   temperatureStabilizeAtStartup,1,1
;   temperatureHeatedBed,0,1
;   fanLayers,1,2
;   fanSpeeds,0,100
;   blipFanToFullPower,0
;   adjustSpeedForCooling,1
;   minSpeedLayerTime,15
;   minCoolingSpeedSlowdown,20
;   increaseFanForCooling,0
;   minFanLayerTime,45
;   maxCoolingFanSpeed,100
;   increaseFanForBridging,0
;   bridgingFanSpeed,100
;   use5D,1
;   relativeEdistances,0
;   allowEaxisZeroing,1
;   independentExtruderAxes,0
;   includeM10123,0
;   stickySupport,1
;   applyToolheadOffsets,0
;   gcodeXoffset,0
;   gcodeYoffset,0
;   gcodeZoffset,0
;   overrideMachineDefinition,1
;   machineTypeOverride,0
;   strokeXoverride,220
;   strokeYoverride,220
;   strokeZoverride,250
;   originOffsetXoverride,-5
;   originOffsetYoverride,-5
;   originOffsetZoverride,0
;   homeXdirOverride,-1
;   homeYdirOverride,-1
;   homeZdirOverride,-1
;   flipXoverride,1
;   flipYoverride,-1
;   flipZoverride,1
;   toolheadOffsets,0,0|0,0|0,0|0,0|0,0|0,0
;   overrideFirmwareConfiguration,1
;   firmwareTypeOverride,RepRap (Marlin/Repetier/Sprinter)
;   GPXconfigOverride,r2
;   baudRateOverride,115200
;   overridePrinterModels,1
;   printerModelsOverride
;   startingGcode,G28 ; home all axes,G1 X5 Y10 Z0.2 F3000 ; get ready to prime,G92 E0 ; reset extrusion distance,G1 X160 E15 F600 ; prime nozzle,G1 X180 F5000 ; quick wipe
;   layerChangeGcode,
;   retractionGcode,
;   toolChangeGcode,
;   endingGcode,G28 X0 ; home X axis,M106 S0 ; turn off cooling fan,M104 S0 ; turn off extruder,M140 S0 ; turn off bed,M84 ; disable motors
;   exportFileFormat,gcode
;   celebration,0
;   celebrationSong,Random Song
;   postProcessing,
;   defaultSpeed,1500
;   outlineUnderspeed,0.5
;   solidInfillUnderspeed,0.8
;   supportUnderspeed,0.8
;   rapidXYspeed,4800
;   rapidZspeed,1000
;   minBridgingArea,50
;   bridgingExtraInflation,0
;   bridgingExtrusionMultiplier,1
;   bridgingSpeedMultiplier,1
;   useFixedBridgingAngle,0
;   fixedBridgingAngle,0
;   applyBridgingToPerimeters,0
;   filamentDiameters,1.75|1.75|1.75|1.75|1.75|1.75
;   filamentPricesPerKg,46|46|46|46|46|46
;   filamentDensities,1.25|1.25|1.25|1.25|1.25|1.25
;   useMinPrintHeight,0
;   minPrintHeight,0
;   useMaxPrintHeight,0
;   maxPrintHeight,0
;   useDiaphragm,0
;   diaphragmLayerInterval,20
;   robustSlicing,1
;   mergeAllIntoSolid,0
;   onlyRetractWhenCrossingOutline,1
;   retractBetweenLayers,1
;   useRetractionMinTravel,0
;   retractionMinTravel,3
;   retractWhileWiping,0
;   onlyWipeOutlines,1
;   avoidCrossingOutline,0
;   maxMovementDetourFactor,3
;   toolChangeRetractionDistance,12
;   toolChangeExtraRestartDistance,-0.5
;   toolChangeRetractionSpeed,600
;   externalThinWallType,0
;   internalThinWallType,2
;   thinWallAllowedOverlapPercentage,10
;   singleExtrusionMinLength,1
;   singleExtrusionMinPrintingWidthPercentage,50
;   singleExtrusionMaxPrintingWidthPercentage,200
;   singleExtrusionEndpointExtension,0.2
;   horizontalSizeCompensation,0
G90
M82
M106 S0
M140 S72 ; set the bed temperature
G28 ; home all axes
M190 S72 ; wait for bed temperature
M104 S215 T0 ; set the hot end temperature
G29 ; Mesh Generation
M109 S215 T0 ; wait for hot end temperature
G1 X5 Y10 Z0.2 F3000 ; get ready to prime
G92 E0 ; reset extrusion distance
G1 X160 E15 F600 ; prime nozzle
G1 X180 F5000 ; quick wipe
; process Process1
; layer 1, Z = 0.220
T0
G92 E0.0000
G1 E-6.0000 F2400
; feature skirt
; tool H0.220 W0.440
G1 Z0.220 F1000
G1 X98.708 Y65.992 F4800
G1 E0.0000 F2400
G92 E0.0000
G1 X101.438 Y63.263 E0.1398 F750
G1 X115.299 Y63.263 E0.6419
G1 X118.028 Y65.992 E0.7817
G1 X118.028 Y148.187 E3.7588
G1 X115.299 Y150.917 E3.8986
G1 X101.438 Y150.917 E4.4007
G1 X98.708 Y148.187 E4.5405
G1 X98.708 Y65.992 E7.5176
G92 E0.0000
G1 E-6.0000 F2400
G1 X99.148 Y66.175 F4800
G1 E0.0000 F2400
G92 E0.0000
G1 X101.620 Y63.703 E0.1266 F750
G1 X115.116 Y63.703 E0.6155
G1 X117.588 Y66.175 E0.7421
G1 X117.588 Y148.005 E3.7060
G1 X115.116 Y150.477 E3.8326
G1 X101.620 Y150.477 E4.3215
G1 X99.148 Y148.005 E4.4481
G1 X99.148 Y66.175 E7.4120
G92 E0.0000
G1 E-6.0000 F2400
; feature inner perimeter
G1 X104.028 Y68.583 F4800
G1 E0.0000 F2400
G92 E0.0000
G1 X112.708 Y68.583 E0.3144 F563
G1 X112.708 Y145.597 E3.1039
G1 X104.028 Y145.597 E3.4183
G1 X104.028 Y68.583 E6.2078
; feature outer perimeter
G1 X103.588 Y68.143 F4800
G92 E0.0000
G1 X113.148 Y68.143 E0.3463 F375
G1 X113.148 Y146.037 E3.1676
G1 X103.588 Y146.037 E3.5139
G1 X103.588 Y68.143 E6.3353
; feature inner perimeter
G1 X106.502 Y70.549 F4800
G92 E0.0000
G1 X106.273 Y71.101 E0.0216 F563
G1 X106.203 Y71.647 E0.0416
G1 X106.273 Y72.195 E0.0616
G1 X106.499 Y72.740 E0.0829
G1 X106.837 Y73.178 E0.1030
G1 X107.276 Y73.517 E0.1231
G1 X107.818 Y73.742 E0.1443
G1 X108.368 Y73.813 E0.1644
G1 X108.919 Y73.742 E0.1845
G1 X109.461 Y73.517 E0.2058
G1 X109.900 Y73.178 E0.2259
G1 X110.238 Y72.740 E0.2459
G1 X110.463 Y72.195 E0.2673
G1 X110.534 Y71.647 E0.2873
G1 X110.464 Y71.101 E0.3072
G1 X110.235 Y70.551 E0.3288
G1 X109.955 Y70.185 E0.3455
G1 X109.822 Y70.054 E0.3523
G1 X109.470 Y69.784 E0.3683
G1 X108.975 Y69.570 E0.3879
G1 X108.376 Y69.481 E0.4098
G1 X107.829 Y69.550 E0.4298
G1 X107.269 Y69.782 E0.4517
G1 X106.837 Y70.116 E0.4715
G1 X106.502 Y70.549 E0.4913
; feature outer perimeter
G1 X106.886 Y70.772 F4800
G92 E0.0000
G1 X106.702 Y71.215 E0.0174 F375
G1 X106.647 Y71.647 E0.0331
G1 X106.702 Y72.081 E0.0490
G1 X106.883 Y72.517 E0.0661
G1 X107.151 Y72.865 E0.0820
G1 X107.499 Y73.133 E0.0979
G1 X107.932 Y73.313 E0.1149
G1 X108.368 Y73.369 E0.1308
G1 X108.805 Y73.313 E0.1467
G1 X109.238 Y73.133 E0.1637
G1 X109.586 Y72.865 E0.1797
G1 X109.854 Y72.517 E0.1955
G1 X110.035 Y72.081 E0.2127
G1 X110.090 Y71.647 E0.2285
G1 X110.035 Y71.215 E0.2443
G1 X109.851 Y70.773 E0.2616
G1 X109.625 Y70.477 E0.2751
G1 X109.532 Y70.386 E0.2798
G1 X109.246 Y70.166 E0.2929
G1 X108.853 Y69.997 E0.3084
G1 X108.371 Y69.925 E0.3260
G1 X107.942 Y69.979 E0.3417
G1 X107.492 Y70.166 E0.3593
G1 X107.151 Y70.430 E0.3750
G1 X106.886 Y70.772 E0.3906
G92 E0.0000
G1 E-6.0000 F2400
; feature inner perimeter
G1 X108.369 Y140.811 F4800
G1 E0.0000 F2400
G92 E0.0000
G1 X107.829 Y140.880 E0.0197 F563
G1 X107.280 Y141.104 E0.0412
G1 X106.837 Y141.445 E0.0614
G1 X106.498 Y141.886 E0.0816
G1 X106.274 Y142.426 E0.1028
G1 X106.203 Y142.976 E0.1228
G1 X106.274 Y143.525 E0.1429
G1 X106.501 Y144.072 E0.1643
G1 X106.837 Y144.507 E0.1843
G1 X107.271 Y144.843 E0.2041
G1 X107.827 Y145.073 E0.2259
G1 X108.368 Y145.141 E0.2457
G1 X108.835 Y145.083 E0.2627
G1 X109.000 Y145.042 E0.2689
G1 X109.469 Y144.840 E0.2874
G1 X109.900 Y144.507 E0.3071
G1 X110.236 Y144.072 E0.3270
G1 X110.463 Y143.525 E0.3485
G1 X110.534 Y142.976 E0.3685
G1 X110.463 Y142.426 E0.3886
G1 X110.239 Y141.886 E0.4098
G1 X109.900 Y141.445 E0.4299
G1 X109.459 Y141.105 E0.4501
G1 X108.921 Y140.882 E0.4712
G1 X108.369 Y140.811 E0.4914
; feature outer perimeter
G1 X108.369 Y141.254 F4800
G92 E0.0000
G1 X107.942 Y141.309 E0.0156 F375
G1 X107.501 Y141.489 E0.0328
G1 X107.151 Y141.759 E0.0488
G1 X106.882 Y142.108 E0.0648
G1 X106.703 Y142.540 E0.0817
G1 X106.647 Y142.976 E0.0977
G1 X106.703 Y143.411 E0.1135
G1 X106.885 Y143.849 E0.1307
G1 X107.151 Y144.194 E0.1465
G1 X107.494 Y144.459 E0.1622
G1 X107.940 Y144.644 E0.1797
G1 X108.368 Y144.698 E0.1953
G1 X108.754 Y144.650 E0.2094
G1 X108.859 Y144.623 E0.2133
G1 X109.244 Y144.458 E0.2285
G1 X109.586 Y144.194 E0.2442
G1 X109.852 Y143.849 E0.2599
G1 X110.034 Y143.411 E0.2771
G1 X110.090 Y142.976 E0.2930
G1 X110.034 Y142.540 E0.3089
G1 X109.855 Y142.108 E0.3259
G1 X109.586 Y141.759 E0.3418
G1 X109.236 Y141.489 E0.3578
G1 X108.807 Y141.311 E0.3747
G1 X108.369 Y141.254 E0.3907
; feature solid layer
G1 X110.843 Y142.451 F4800
G92 E0.0000
G1 X112.334 Y143.943 E0.0764 F600
G1 X112.334 Y144.565 E0.0989
G1 X110.892 Y143.123 E0.1728
G1 X110.828 Y143.622 E0.1911
G1 X110.811 Y143.663 E0.1927
G1 X112.334 Y145.187 E0.2707
G1 X112.334 Y145.223 E0.2720
G1 X111.748 Y145.223 E0.2933
G1 X110.628 Y144.103 E0.3506
G1 X110.563 Y144.261 E0.3568
G1 X110.389 Y144.486 E0.3671
G1 X111.126 Y145.223 E0.4049
G1 X110.504 Y145.223 E0.4274
G1 X110.103 Y144.823 E0.4479
G1 X109.752 Y145.094 E0.4640
G1 X109.882 Y145.223 E0.4706
G1 X104.903 Y145.223 F4800
G92 E0.0000
G1 X104.402 Y144.722 E0.0257 F600
G1 X104.402 Y144.100 E0.0482
G1 X105.526 Y145.223 E0.1057
G1 X106.148 Y145.223 E0.1283
G1 X104.402 Y143.478 E0.2177
G1 X104.402 Y142.855 E0.2402
G1 X106.770 Y145.223 E0.3615
G1 X107.212 Y145.223 E0.3775
G1 X107.082 Y145.169 E0.3826
G1 X106.570 Y144.774 E0.4060
G1 X106.174 Y144.261 E0.4295
G1 X105.992 Y143.823 E0.4467
G1 X104.402 Y142.233 E0.5281
G1 X104.402 Y141.611 E0.5506
G1 X105.835 Y143.043 E0.6240
G1 X105.826 Y142.976 E0.6265
G1 X105.890 Y142.477 E0.6447
G1 X104.402 Y140.989 E0.7209
G1 X104.402 Y140.366 E0.7434
G1 X106.043 Y142.007 E0.8275
G1 X106.171 Y141.697 E0.8396
G1 X106.251 Y141.593 E0.8444
G1 X104.402 Y139.744 E0.9391
G1 X104.402 Y139.122 E0.9616
G1 X106.522 Y141.241 E1.0702
G1 X106.571 Y141.178 E1.0731
G1 X106.859 Y140.956 E1.0862
G1 X104.402 Y138.500 E1.2121
G1 X104.402 Y137.877 E1.2346
G1 X107.241 Y140.716 E1.3800
G1 X107.683 Y140.536 E1.3973
G1 X104.402 Y137.255 E1.5653
G1 X104.402 Y136.633 E1.5879
G1 X108.222 Y140.452 E1.7835
G1 X108.369 Y140.434 E1.7889
G1 X108.893 Y140.502 E1.8080
G1 X104.402 Y136.011 E2.0381
G1 X104.402 Y135.388 E2.0606
G1 X112.334 Y143.320 E2.4669
G1 X112.334 Y142.698 E2.4895
G1 X104.402 Y134.766 E2.8958
G1 X104.402 Y134.144 E2.9183
G1 X112.334 Y142.076 E3.3246
G1 X112.334 Y141.454 E3.3472
G1 X104.402 Y133.522 E3.7535
G1 X104.402 Y132.899 E3.7760
G1 X112.334 Y140.831 E4.1823
G1 X112.334 Y140.209 E4.2048
G1 X104.402 Y132.277 E4.6111
G1 X104.402 Y131.655 E4.6337
G1 X112.334 Y139.587 E5.0400
G1 X112.334 Y138.965 E5.0625
G1 X104.402 Y131.033 E5.4688
G1 X104.402 Y130.410 E5.4914
G1 X112.334 Y138.342 E5.8977
G1 X112.334 Y137.720 E5.9202
G1 X104.402 Y129.788 E6.3265
G1 X104.402 Y129.166 E6.3490
G1 X112.334 Y137.098 E6.7553
G1 X112.334 Y136.476 E6.7779
G1 X104.402 Y128.544 E7.1842
G1 X104.402 Y127.921 E7.2067
G1 X112.334 Y135.853 E7.6130
G1 X112.334 Y135.231 E7.6356
G1 X104.402 Y127.299 E8.0419
G1 X104.402 Y126.677 E8.0644
G1 X112.334 Y134.609 E8.4707
G1 X112.334 Y133.987 E8.4932
G1 X104.402 Y126.055 E8.8995
G1 X104.402 Y125.432 E8.9221
G1 X112.334 Y133.364 E9.3284
G1 X112.334 Y132.742 E9.3509
G1 X104.402 Y124.810 E9.7572
G1 X104.402 Y124.188 E9.7798
G1 X112.334 Y132.120 E10.1861
G1 X112.334 Y131.498 E10.2086
G1 X104.402 Y123.566 E10.6149
G1 X104.402 Y122.943 E10.6374
G1 X112.334 Y130.875 E11.0437
G1 X112.334 Y130.253 E11.0663
G1 X104.402 Y122.321 E11.4726
G1 X104.402 Y121.699 E11.4951
G1 X112.334 Y129.631 E11.9014
G1 X112.334 Y129.009 E11.9240
G1 X104.402 Y121.077 E12.3303
G1 X104.402 Y120.454 E12.3528
G1 X112.334 Y128.386 E12.7591
G1 X112.334 Y127.764 E12.7816
G1 X104.402 Y119.832 E13.1880
G1 X104.402 Y119.210 E13.2105
G1 X112.334 Y127.142 E13.6168
G1 X112.334 Y126.520 E13.6393
G1 X104.402 Y118.588 E14.0456
G1 X104.402 Y117.965 E14.0682
G1 X112.334 Y125.897 E14.4745
G1 X112.334 Y125.275 E14.4970
G1 X104.402 Y117.343 E14.9033
G1 X104.402 Y116.721 E14.9259
G1 X112.334 Y124.653 E15.3322
G1 X112.334 Y124.031 E15.3547
G1 X104.402 Y116.099 E15.7610
G1 X104.402 Y115.476 E15.7835
G1 X112.334 Y123.408 E16.1898
G1 X112.334 Y122.786 E16.2124
G1 X104.402 Y114.854 E16.6187
G1 X104.402 Y114.232 E16.6412
G1 X112.334 Y122.164 E17.0475
G1 X112.334 Y121.541 E17.0701
G1 X104.402 Y113.609 E17.4764
G1 X104.402 Y112.987 E17.4989
G1 X112.334 Y120.919 E17.9052
G1 X112.334 Y120.297 E17.9277
G1 X104.402 Y112.365 E18.3340
G1 X104.402 Y111.743 E18.3566
G1 X112.334 Y119.675 E18.7629
G1 X112.334 Y119.052 E18.7854
G1 X104.402 Y111.120 E19.1917
G1 X104.402 Y110.498 E19.2143
G1 X112.334 Y118.430 E19.6206
G1 X112.334 Y117.808 E19.6431
G1 X104.402 Y109.876 E20.0494
G1 X104.402 Y109.254 E20.0719
G1 X112.334 Y117.186 E20.4782
G1 X112.334 Y116.563 E20.5008
G1 X104.402 Y108.631 E20.9071
G1 X104.402 Y108.009 E20.9296
G1 X112.334 Y115.941 E21.3359
G1 X112.334 Y115.319 E21.3585
G1 X104.402 Y107.387 E21.7648
G1 X104.402 Y106.765 E21.7873
G1 X112.334 Y114.697 E22.1936
G1 X112.334 Y114.074 E22.2161
G1 X104.402 Y106.142 E22.6224
G1 X104.402 Y105.520 E22.6450
G1 X112.334 Y113.452 E23.0513
G1 X112.334 Y112.830 E23.0738
G1 X104.402 Y104.898 E23.4801
G1 X104.402 Y104.276 E23.5027
G1 X112.334 Y112.208 E23.9090
G1 X112.334 Y111.585 E23.9315
G1 X104.402 Y103.653 E24.3378
G1 X104.402 Y103.031 E24.3604
G1 X112.334 Y110.963 E24.7667
G1 X112.334 Y110.341 E24.7892
G1 X104.402 Y102.409 E25.1955
G1 X104.402 Y101.787 E25.2180
G1 X112.334 Y109.719 E25.6243
G1 X112.334 Y109.096 E25.6469
G1 X104.402 Y101.164 E26.0532
G1 X104.402 Y100.542 E26.0757
G1 X112.334 Y108.474 E26.4820
G1 X112.334 Y107.852 E26.5046
G1 X104.402 Y99.920 E26.9109
G1 X104.402 Y99.298 E26.9334
G1 X112.334 Y107.230 E27.3397
G1 X112.334 Y106.607 E27.3622
G1 X104.402 Y98.675 E27.7685
G1 X104.402 Y98.053 E27.7911
G1 X112.334 Y105.985 E28.1974
G1 X112.334 Y105.363 E28.2199
G1 X104.402 Y97.431 E28.6262
G1 X104.402 Y96.809 E28.6488
G1 X112.334 Y104.741 E29.0551
G1 X112.334 Y104.118 E29.0776
G1 X104.402 Y96.186 E29.4839
G1 X104.402 Y95.564 E29.5064
G1 X112.334 Y103.496 E29.9127
G1 X112.334 Y102.874 E29.9353
G1 X104.402 Y94.942 E30.3416
G1 X104.402 Y94.320 E30.3641
G1 X112.334 Y102.252 E30.7704
G1 X112.334 Y101.629 E30.7930
G1 X104.402 Y93.697 E31.1993
