; G-Code generated by Simplify3D(R) Version 4.1.2
; May 26, 2020 at 1:50:54 PM
; Settings Summary
;   processName,Process1
;   applyToModels,xyzCalibration_cube
;   profileName,Creality Ender 3 Pro (BLTouch)
;   profileVersion,2019-04-06 08:00:00
;   baseProfile,Creality Ender 3 Pro (modified)
;   printMaterial,PLA
;   printQuality,Medium - 72-220
;   printExtruders,
;   extruderName,Primary Extruder
;   extruderToolheadNumber,0
;   extruderDiameter,0.4
;   extruderAutoWidth,0
;   extruderWidth,0.4
;   extrusionMultiplier,0.9
;   extruderUseRetract,1
;   extruderRetractionDistance,6
;   extruderExtraRestartDistance,0
;   extruderRetractionZLift,0.2
;   extruderRetractionSpeed,2400
;   extruderUseCoasting,0
;   extruderCoastingDistance,0.2
;   extruderUseWipe,0
;   extruderWipeDistance,5
;   primaryExtruder,0
;   layerHeight,0.2
;   topSolidLayers,3
;   bottomSolidLayers,3
;   perimeterOutlines,2
;   printPerimetersInsideOut,1
;   startPointOption,2
;   startPointOriginX,0
;   startPointOriginY,0
;   sequentialIslands,0
;   spiralVaseMode,0
;   firstLayerHeightPercentage,120
;   firstLayerWidthPercentage,150
;   firstLayerUnderspeed,0.5
;   useRaft,0
;   raftExtruder,0
;   raftTopLayers,3
;   raftBaseLayers,2
;   raftOffset,3
;   raftSeparationDistance,0.14
;   raftTopInfill,100
;   aboveRaftSpeedMultiplier,0.3
;   useSkirt,1
;   skirtExtruder,0
;   skirtLayers,1
;   skirtOutlines,2
;   skirtOffset,4
;   usePrimePillar,0
;   primePillarExtruder,999
;   primePillarWidth,12
;   primePillarLocation,7
;   primePillarSpeedMultiplier,1
;   useOozeShield,0
;   oozeShieldExtruder,999
;   oozeShieldOffset,2
;   oozeShieldOutlines,1
;   oozeShieldSidewallShape,1
;   oozeShieldSidewallAngle,30
;   oozeShieldSpeedMultiplier,1
;   infillExtruder,0
;   internalInfillPattern,Rectilinear
;   externalInfillPattern,Rectilinear
;   infillPercentage,20
;   outlineOverlapPercentage,15
;   infillExtrusionWidthPercentage,100
;   minInfillLength,5
;   infillLayerInterval,1
;   internalInfillAngles,45,-45
;   overlapInternalInfillAngles,0
;   externalInfillAngles,45,-45
;   generateSupport,0
;   supportExtruder,0
;   supportInfillPercentage,30
;   supportExtraInflation,0
;   supportBaseLayers,0
;   denseSupportExtruder,0
;   denseSupportLayers,0
;   denseSupportInfillPercentage,70
;   supportLayerInterval,1
;   supportHorizontalPartOffset,0.3
;   supportUpperSeparationLayers,1
;   supportLowerSeparationLayers,1
;   supportType,0
;   supportGridSpacing,4
;   maxOverhangAngle,45
;   supportAngles,0
;   temperatureName,Primary Extruder,Heated Bed
;   temperatureNumber,0,0
;   temperatureSetpointCount,1,1
;   temperatureSetpointLayers,1,1
;   temperatureSetpointTemperatures,220,70
;   temperatureStabilizeAtStartup,1,1
;   temperatureHeatedBed,0,1
;   fanLayers,1,2
;   fanSpeeds,0,100
;   blipFanToFullPower,0
;   adjustSpeedForCooling,1
;   minSpeedLayerTime,15
;   minCoolingSpeedSlowdown,20
;   increaseFanForCooling,0
;   minFanLayerTime,45
;   maxCoolingFanSpeed,100
;   increaseFanForBridging,0
;   bridgingFanSpeed,100
;   use5D,1
;   relativeEdistances,0
;   allowEaxisZeroing,1
;   independentExtruderAxes,0
;   includeM10123,0
;   stickySupport,1
;   applyToolheadOffsets,0
;   gcodeXoffset,0
;   gcodeYoffset,0
;   gcodeZoffset,0
;   overrideMachineDefinition,1
;   machineTypeOverride,0
;   strokeXoverride,220
;   strokeYoverride,220
;   strokeZoverride,250
;   originOffsetXoverride,-5
;   originOffsetYoverride,-5
;   originOffsetZoverride,0
;   homeXdirOverride,-1
;   homeYdirOverride,-1
;   homeZdirOverride,-1
;   flipXoverride,1
;   flipYoverride,-1
;   flipZoverride,1
;   toolheadOffsets,0,0|0,0|0,0|0,0|0,0|0,0
;   overrideFirmwareConfiguration,1
;   firmwareTypeOverride,RepRap (Marlin/Repetier/Sprinter)
;   GPXconfigOverride,r2
;   baudRateOverride,115200
;   overridePrinterModels,1
;   printerModelsOverride
;   startingGcode,G28 ; home all axes,G29 ; Probe the Bed,G1 X5 Y10 Z0.2 F3000 ; get ready to prime,G92 E0 ; reset extrusion distance,G1 X160 E15 F600 ; prime nozzle,G1 X180 F5000 ; quick wipe
;   layerChangeGcode,
;   retractionGcode,
;   toolChangeGcode,
;   endingGcode,G28 X0 ; home X axis,M106 S0 ; turn off cooling fan,M104 S0 ; turn off extruder,M140 S0 ; turn off bed,M84 ; disable motors
;   exportFileFormat,gcode
;   celebration,0
;   celebrationSong,Random Song
;   postProcessing,
;   defaultSpeed,2400
;   outlineUnderspeed,0.5
;   solidInfillUnderspeed,0.8
;   supportUnderspeed,0.8
;   rapidXYspeed,4800
;   rapidZspeed,1000
;   minBridgingArea,50
;   bridgingExtraInflation,0
;   bridgingExtrusionMultiplier,1
;   bridgingSpeedMultiplier,1
;   useFixedBridgingAngle,0
;   fixedBridgingAngle,0
;   applyBridgingToPerimeters,0
;   filamentDiameters,1.75|1.75|1.75|1.75|1.75|1.75
;   filamentPricesPerKg,46|46|46|46|46|46
;   filamentDensities,1.25|1.25|1.25|1.25|1.25|1.25
;   useMinPrintHeight,0
;   minPrintHeight,0
;   useMaxPrintHeight,0
;   maxPrintHeight,0
;   useDiaphragm,0
;   diaphragmLayerInterval,20
;   robustSlicing,1
;   mergeAllIntoSolid,0
;   onlyRetractWhenCrossingOutline,0
;   retractBetweenLayers,1
;   useRetractionMinTravel,0
;   retractionMinTravel,3
;   retractWhileWiping,0
;   onlyWipeOutlines,1
;   avoidCrossingOutline,0
;   maxMovementDetourFactor,3
;   toolChangeRetractionDistance,12
;   toolChangeExtraRestartDistance,-0.5
;   toolChangeRetractionSpeed,600
;   externalThinWallType,0
;   internalThinWallType,2
;   thinWallAllowedOverlapPercentage,10
;   singleExtrusionMinLength,1
;   singleExtrusionMinPrintingWidthPercentage,50
;   singleExtrusionMaxPrintingWidthPercentage,200
;   singleExtrusionEndpointExtension,0.2
;   horizontalSizeCompensation,0
G90
M82
M106 S0
M140 S70
M190 S70
M104 S220 T0
M109 S220 T0
G28 ; home all axes
G29 ; Probe the Bed
G1 X5 Y10 Z0.2 F3000 ; get ready to prime
G92 E0 ; reset extrusion distance
G1 X160 E15 F600 ; prime nozzle
G1 X180 F5000 ; quick wipe
; process Process1
; layer 1, Z = 0.240
T0
G92 E0.0000
G1 E-6.0000 F2400
; feature skirt
; tool H0.240 W0.600
G1 Z0.240 F1000
G1 X100.100 Y102.970 F4800
G1 E0.0000 F2400
G92 E0.0000
G1 X102.970 Y100.100 E0.2187 F1200
G1 X127.030 Y100.100 E1.5151
G1 X129.900 Y102.970 E1.7338
G1 X129.900 Y127.030 E3.0301
G1 X127.030 Y129.900 E3.2489
G1 X102.970 Y129.900 E4.5452
G1 X100.100 Y127.030 E4.7639
G1 X100.100 Y102.970 E6.0603
G92 E0.0000
G1 E-6.0000 F2400
G1 Z0.440 F1000
G1 X100.700 Y103.219 F4800
G1 Z0.240 F1000
G1 E0.0000 F2400
G92 E0.0000
G1 X103.219 Y100.700 E0.1919 F1200
G1 X126.781 Y100.700 E1.4615
G1 X129.300 Y103.219 E1.6534
G1 X129.300 Y126.781 E2.9230
G1 X126.781 Y129.300 E3.1149
G1 X103.219 Y129.300 E4.3845
G1 X100.700 Y126.781 E4.5765
G1 X100.700 Y103.219 E5.8460
G92 E0.0000
G1 E-6.0000 F2400
; feature inner perimeter
G1 Z0.440 F1000
G1 X105.900 Y105.900 F4800
G1 Z0.240 F1000
G1 E0.0000 F2400
G92 E0.0000
G1 X124.100 Y105.900 E0.9806 F900
G1 X124.100 Y124.100 E1.9613
G1 X105.900 Y124.100 E2.9419
G1 X105.900 Y105.900 E3.9226
G92 E0.0000
G1 E-6.0000 F2400
; feature outer perimeter
G1 Z0.440 F1000
G1 X105.300 Y105.300 F4800
G1 Z0.240 F1000
G1 E0.0000 F2400
G92 E0.0000
G1 X124.700 Y105.300 E1.0453 F600
G1 X124.700 Y124.700 E2.0906
G1 X105.300 Y124.700 E3.1359
G1 X105.300 Y105.300 E4.1812
G92 E0.0000
G1 E-6.0000 F2400
; feature solid layer
G1 Z0.440 F1000
G1 X123.381 Y106.410 F4800
G1 Z0.240 F1000
G1 E0.0000 F2400
G92 E0.0000
G1 X123.590 Y106.619 E0.0160 F960
G1 X123.590 Y107.468 E0.0617
G1 X122.532 Y106.410 E0.1423
G1 X121.684 Y106.410 E0.1880
G1 X123.590 Y108.316 E0.3333
G1 X123.590 Y109.165 E0.3790
G1 X120.835 Y106.410 E0.5889
G1 X119.986 Y106.410 E0.6347
G1 X123.590 Y110.014 E0.9092
G1 X123.590 Y110.862 E0.9550
G1 X119.138 Y106.410 E1.2942
G1 X118.289 Y106.410 E1.3399
G1 X123.590 Y111.711 E1.7438
G1 X123.590 Y112.559 E1.7896
G1 X117.441 Y106.410 E2.2581
G1 X116.592 Y106.410 E2.3038
G1 X123.590 Y113.408 E2.8371
G1 X123.590 Y114.256 E2.8828
G1 X115.744 Y106.410 E3.4807
G1 X114.895 Y106.410 E3.5264
G1 X123.590 Y115.105 E4.1889
G1 X123.590 Y115.953 E4.2346
G1 X114.047 Y106.410 E4.9618
G1 X113.198 Y106.410 E5.0075
G1 X123.590 Y116.802 E5.7994
G1 X123.590 Y117.650 E5.8451
G1 X112.350 Y106.410 E6.7016
G1 X111.501 Y106.410 E6.7473
G1 X123.590 Y118.499 E7.6685
G1 X123.590 Y119.347 E7.7142
G1 X110.653 Y106.410 E8.7001
G1 X109.804 Y106.410 E8.7458
G1 X123.590 Y120.196 E9.7963
G1 X123.590 Y121.044 E9.8420
G1 X108.956 Y106.410 E10.9571
G1 X108.107 Y106.410 E11.0028
G1 X123.590 Y121.893 E12.1826
G1 X123.590 Y122.741 E12.2283
G1 X107.259 Y106.410 E13.4728
G1 X106.410 Y106.410 E13.5185
G1 X123.590 Y123.590 E14.8276
G1 X122.741 Y123.590 E14.8734
G1 X106.410 Y107.259 E16.1178
G1 X106.410 Y108.107 E16.1635
G1 X121.893 Y123.590 E17.3433
G1 X121.044 Y123.590 E17.3891
G1 X106.410 Y108.956 E18.5042
G1 X106.410 Y109.804 E18.5499
G1 X120.196 Y123.590 E19.6004
G1 X119.347 Y123.590 E19.6461
G1 X106.410 Y110.653 E20.6319
G1 X106.410 Y111.501 E20.6777
G1 X118.499 Y123.590 E21.5988
G1 X117.650 Y123.590 E21.6445
G1 X106.410 Y112.350 E22.5011
G1 X106.410 Y113.198 E22.5468
G1 X116.802 Y123.590 E23.3386
G1 X115.953 Y123.590 E23.3844
G1 X106.410 Y114.047 E24.1115
G1 X106.410 Y114.895 E24.1573
G1 X115.105 Y123.590 E24.8198
G1 X114.256 Y123.590 E24.8655
G1 X106.410 Y115.744 E25.4634
G1 X106.410 Y116.592 E25.5091
G1 X113.408 Y123.590 E26.0423
G1 X112.559 Y123.590 E26.0881
G1 X106.410 Y117.441 E26.5566
G1 X106.410 Y118.289 E26.6023
G1 X111.711 Y123.590 E27.0063
G1 X110.862 Y123.590 E27.0520
G1 X106.410 Y119.138 E27.3912
G1 X106.410 Y119.986 E27.4369
G1 X110.014 Y123.590 E27.7115
G1 X109.165 Y123.590 E27.7573
G1 X106.410 Y120.835 E27.9672
G1 X106.410 Y121.683 E28.0129
G1 X108.317 Y123.590 E28.1582
G1 X107.468 Y123.590 E28.2039
G1 X106.410 Y122.532 E28.2845
G1 X106.410 Y123.381 E28.3302
G1 X106.619 Y123.590 E28.3462
G92 E0.0000
G1 E-6.0000 F2400
; layer 2, Z = 0.440
M106 S255
; feature inner perimeter
; tool H0.200 W0.400
G1 Z0.440 F1000
G1 X105.600 Y124.400 F4800
G1 E0.0000 F2400
G92 E0.0000
G1 X105.600 Y105.600 E0.5628 F1800
G1 X124.400 Y105.600 E1.1255
G1 X124.400 Y124.400 E1.6883
G1 X105.600 Y124.400 E2.2510
G92 E0.0000
G1 E-6.0000 F2400
; feature outer perimeter
G1 Z0.640 F1000
G1 X105.200 Y124.800 F4800
G1 Z0.440 F1000
G1 E0.0000 F2400
G92 E0.0000
G1 X105.200 Y105.200 E0.5867 F1200
G1 X124.800 Y105.200 E1.1734
G1 X124.800 Y124.800 E1.7601
G1 X105.200 Y124.800 E2.3468
G92 E0.0000
G1 E-6.0000 F2400
; feature solid layer
G1 Z0.640 F1000
G1 X105.940 Y105.958 F4800
G1 Z0.440 F1000
G1 E0.0000 F2400
G92 E0.0000
G1 X105.958 Y105.940 E0.0008 F1920
G1 X106.524 Y105.940 E0.0177
G1 X105.940 Y106.524 E0.0424
G1 X105.940 Y107.089 E0.0593
G1 X107.089 Y105.940 E0.1080
G1 X107.655 Y105.940 E0.1249
G1 X105.940 Y107.655 E0.1975
G1 X105.940 Y108.221 E0.2145
G1 X108.221 Y105.940 E0.3110
G1 X108.787 Y105.940 E0.3280
G1 X105.940 Y108.787 E0.4485
G1 X105.940 Y109.352 E0.4654
G1 X109.352 Y105.940 E0.6099
G1 X109.918 Y105.940 E0.6268
G1 X105.940 Y109.918 E0.7952
G1 X105.940 Y110.484 E0.8121
G1 X110.484 Y105.940 E1.0045
G1 X111.049 Y105.940 E1.0214
G1 X105.940 Y111.049 E1.2377
G1 X105.940 Y111.615 E1.2546
G1 X111.615 Y105.940 E1.4949
G1 X112.181 Y105.940 E1.5118
G1 X105.940 Y112.181 E1.7760
G1 X105.940 Y112.746 E1.7929
G1 X112.746 Y105.940 E2.0810
G1 X113.312 Y105.940 E2.0980
G1 X105.940 Y113.312 E2.4101
G1 X105.940 Y113.878 E2.4270
G1 X113.878 Y105.940 E2.7630
G1 X114.443 Y105.940 E2.7800
G1 X105.940 Y114.443 E3.1399
G1 X105.940 Y115.009 E3.1569
G1 X115.009 Y105.940 E3.5408
G1 X115.575 Y105.940 E3.5577
G1 X105.940 Y115.575 E3.9656
G1 X105.940 Y116.140 E3.9825
G1 X116.140 Y105.940 E4.4143
G1 X116.706 Y105.940 E4.4313
G1 X105.940 Y116.706 E4.8870
G1 X105.940 Y117.272 E4.9040
G1 X117.272 Y105.940 E5.3837
G1 X117.837 Y105.940 E5.4006
G1 X105.940 Y117.837 E5.9043
G1 X105.940 Y118.403 E5.9212
G1 X118.403 Y105.940 E6.4488
G1 X118.969 Y105.940 E6.4658
G1 X105.940 Y118.969 E7.0173
G1 X105.940 Y119.535 E7.0342
G1 X119.535 Y105.940 E7.6097
G1 X120.100 Y105.940 E7.6267
G1 X105.940 Y120.100 E8.2261
G1 X105.940 Y120.666 E8.2431
G1 X120.666 Y105.940 E8.8665
G1 X121.232 Y105.940 E8.8834
G1 X105.940 Y121.232 E9.5307
G1 X105.940 Y121.797 E9.5477
G1 X121.797 Y105.940 E10.2190
G1 X122.363 Y105.940 E10.2359
G1 X105.940 Y122.363 E10.9311
G1 X105.940 Y122.929 E10.9481
G1 X122.929 Y105.940 E11.6672
G1 X123.494 Y105.940 E11.6842
G1 X105.940 Y123.494 E12.4273
G1 X105.940 Y124.060 E12.4442
G1 X124.060 Y105.940 E13.2113
G1 X124.060 Y106.506 E13.2283
G1 X106.506 Y124.060 E13.9714
G1 X107.071 Y124.060 E13.9883
G1 X124.060 Y107.071 E14.7075
G1 X124.060 Y107.637 E14.7244
G1 X107.637 Y124.060 E15.4197
G1 X108.203 Y124.060 E15.4366
G1 X124.060 Y108.203 E16.1079
G1 X124.060 Y108.768 E16.1248
G1 X108.768 Y124.060 E16.7722
G1 X109.334 Y124.060 E16.7891
G1 X124.060 Y109.334 E17.4125
G1 X124.060 Y109.900 E17.4294
G1 X109.900 Y124.060 E18.0289
G1 X110.466 Y124.060 E18.0458
G1 X124.060 Y110.466 E18.6213
G1 X124.060 Y111.031 E18.6382
G1 X111.031 Y124.060 E19.1898
G1 X111.597 Y124.060 E19.2067
G1 X124.060 Y111.597 E19.7343
G1 X124.060 Y112.163 E19.7513
G1 X112.163 Y124.060 E20.2549
G1 X112.728 Y124.060 E20.2718
G1 X124.060 Y112.728 E20.7516
G1 X124.060 Y113.294 E20.7685
G1 X113.294 Y124.060 E21.2242
G1 X113.860 Y124.060 E21.2412
G1 X124.060 Y113.860 E21.6730
G1 X124.060 Y114.425 E21.6899
G1 X114.425 Y124.060 E22.0978
G1 X114.991 Y124.060 E22.1147
G1 X124.060 Y114.991 E22.4987
G1 X124.060 Y115.557 E22.5156
G1 X115.557 Y124.060 E22.8756
G1 X116.122 Y124.060 E22.8925
G1 X124.060 Y116.122 E23.2285
G1 X124.060 Y116.688 E23.2455
G1 X116.688 Y124.060 E23.5575
G1 X117.254 Y124.060 E23.5745
G1 X124.060 Y117.254 E23.8626
G1 X124.060 Y117.819 E23.8795
G1 X117.819 Y124.060 E24.1437
G1 X118.385 Y124.060 E24.1606
G1 X124.060 Y118.385 E24.4009
G1 X124.060 Y118.951 E24.4178
G1 X118.951 Y124.060 E24.6341
G1 X119.516 Y124.060 E24.6510
G1 X124.060 Y119.516 E24.8434
G1 X124.060 Y120.082 E24.8603
G1 X120.082 Y124.060 E25.0287
G1 X120.648 Y124.060 E25.0456
G1 X124.060 Y120.648 E25.1901
G1 X124.060 Y121.214 E25.2070
G1 X121.214 Y124.060 E25.3275
G1 X121.779 Y124.060 E25.3445
G1 X124.060 Y121.779 E25.4410
G1 X124.060 Y122.345 E25.4579
G1 X122.345 Y124.060 E25.5305
G1 X122.911 Y124.060 E25.5475
G1 X124.060 Y122.911 E25.5961
G1 X124.060 Y123.476 E25.6131
G1 X123.476 Y124.060 E25.6378
G1 X124.042 Y124.060 E25.6547
G1 X124.060 Y124.042 E25.6555
G92 E0.0000
G1 E-6.0000 F2400
; layer 3, Z = 0.640
; feature inner perimeter
G1 Z0.640 F1000
G1 X124.400 Y124.400 F4800
G1 E0.0000 F2400
G92 E0.0000
G1 X105.600 Y124.400 E0.5628 F1800
G1 X105.600 Y105.600 E1.1255
G1 X124.400 Y105.600 E1.6883
G1 X124.400 Y124.400 E2.2510
G92 E0.0000
G1 E-6.0000 F2400
; feature outer perimeter
G1 Z0.840 F1000
G1 X124.800 Y124.800 F4800
G1 Z0.640 F1000
G1 E0.0000 F2400
G92 E0.0000
G1 X105.200 Y124.800 E0.5867 F1200
G1 X105.200 Y105.200 E1.1734
G1 X124.800 Y105.200 E1.7601
G1 X124.800 Y124.800 E2.3468
G92 E0.0000
G1 E-6.0000 F2400
; feature solid layer
G1 Z0.840 F1000
G1 X105.958 Y124.060 F4800
G1 Z0.640 F1000
G1 E0.0000 F2400
G92 E0.0000
G1 X105.940 Y124.042 E0.0008 F1920
G1 X105.940 Y123.476 E0.0177
G1 X106.524 Y124.060 E0.0424
G1 X107.089 Y124.060 E0.0593
G1 X105.940 Y122.911 E0.1080
G1 X105.940 Y122.345 E0.1249
G1 X107.655 Y124.060 E0.1975
G1 X108.221 Y124.060 E0.2145
G1 X105.940 Y121.779 E0.3110
G1 X105.940 Y121.213 E0.3280
G1 X108.787 Y124.060 E0.4485
G1 X109.352 Y124.060 E0.4654
G1 X105.940 Y120.648 E0.6099
G1 X105.940 Y120.082 E0.6268
G1 X109.918 Y124.060 E0.7952
G1 X110.484 Y124.060 E0.8121
G1 X105.940 Y119.516 E1.0045
G1 X105.940 Y118.951 E1.0214
G1 X111.049 Y124.060 E1.2377
G1 X111.615 Y124.060 E1.2546
G1 X105.940 Y118.385 E1.4949
G1 X105.940 Y117.819 E1.5118
G1 X112.181 Y124.060 E1.7760
G1 X112.746 Y124.060 E1.7929
G1 X105.940 Y117.254 E2.0810
G1 X105.940 Y116.688 E2.0980
G1 X113.312 Y124.060 E2.4101
G1 X113.878 Y124.060 E2.4270
G1 X105.940 Y116.122 E2.7630
G1 X105.940 Y115.557 E2.7799
G1 X114.443 Y124.060 E3.1399
G1 X115.009 Y124.060 E3.1569
G1 X105.940 Y114.991 E3.5408
G1 X105.940 Y114.425 E3.5577
G1 X115.575 Y124.060 E3.9656
G1 X116.140 Y124.060 E3.9825
