; G-Code generated by Simplify3D(R) Version 4.1.2
; Apr 10, 2020 at 8:44:30 PM
; Settings Summary
;   processName,Process1
;   applyToModels,dedent-nozzle,divot-nozzle
;   profileName,Creality Ender 3 Pro (Mask 2.3)
;   profileVersion,2020-04-10 20:01:48
;   baseProfile,Creality Ender 3 Pro (modified)
;   printMaterial,PLA
;   printQuality,MASK-2.3
;   printExtruders,
;   extruderName,Primary Extruder
;   extruderToolheadNumber,0
;   extruderDiameter,0.4
;   extruderAutoWidth,0
;   extruderWidth,0.6
;   extrusionMultiplier,0.9
;   extruderUseRetract,1
;   extruderRetractionDistance,6
;   extruderExtraRestartDistance,0
;   extruderRetractionZLift,0
;   extruderRetractionSpeed,1500
;   extruderUseCoasting,0
;   extruderCoastingDistance,0.2
;   extruderUseWipe,0
;   extruderWipeDistance,5
;   primaryExtruder,0
;   layerHeight,0.2
;   topSolidLayers,4
;   bottomSolidLayers,4
;   perimeterOutlines,3
;   printPerimetersInsideOut,0
;   startPointOption,2
;   startPointOriginX,0
;   startPointOriginY,0
;   sequentialIslands,0
;   spiralVaseMode,0
;   firstLayerHeightPercentage,120
;   firstLayerWidthPercentage,110
;   firstLayerUnderspeed,0.5
;   useRaft,0
;   raftExtruder,0
;   raftTopLayers,3
;   raftBaseLayers,2
;   raftOffset,3
;   raftSeparationDistance,0.14
;   raftTopInfill,100
;   aboveRaftSpeedMultiplier,0.3
;   useSkirt,0
;   skirtExtruder,0
;   skirtLayers,1
;   skirtOutlines,2
;   skirtOffset,4
;   usePrimePillar,0
;   primePillarExtruder,999
;   primePillarWidth,12
;   primePillarLocation,7
;   primePillarSpeedMultiplier,1
;   useOozeShield,0
;   oozeShieldExtruder,999
;   oozeShieldOffset,2
;   oozeShieldOutlines,1
;   oozeShieldSidewallShape,1
;   oozeShieldSidewallAngle,30
;   oozeShieldSpeedMultiplier,1
;   infillExtruder,0
;   internalInfillPattern,Rectilinear
;   externalInfillPattern,Rectilinear
;   infillPercentage,50
;   outlineOverlapPercentage,15
;   infillExtrusionWidthPercentage,100
;   minInfillLength,5
;   infillLayerInterval,1
;   internalInfillAngles,45,-45
;   overlapInternalInfillAngles,0
;   externalInfillAngles,45,-45
;   generateSupport,0
;   supportExtruder,0
;   supportInfillPercentage,25
;   supportExtraInflation,0
;   supportBaseLayers,0
;   denseSupportExtruder,0
;   denseSupportLayers,0
;   denseSupportInfillPercentage,70
;   supportLayerInterval,1
;   supportHorizontalPartOffset,0.3
;   supportUpperSeparationLayers,1
;   supportLowerSeparationLayers,1
;   supportType,0
;   supportGridSpacing,4
;   maxOverhangAngle,45
;   supportAngles,0
;   temperatureName,Primary Extruder,Heated Bed
;   temperatureNumber,0,0
;   temperatureSetpointCount,1,1
;   temperatureSetpointLayers,1,1
;   temperatureSetpointTemperatures,200,60
;   temperatureStabilizeAtStartup,1,1
;   temperatureHeatedBed,0,1
;   fanLayers,1,2
;   fanSpeeds,0,100
;   blipFanToFullPower,0
;   adjustSpeedForCooling,1
;   minSpeedLayerTime,15
;   minCoolingSpeedSlowdown,20
;   increaseFanForCooling,0
;   minFanLayerTime,45
;   maxCoolingFanSpeed,100
;   increaseFanForBridging,0
;   bridgingFanSpeed,100
;   use5D,1
;   relativeEdistances,0
;   allowEaxisZeroing,1
;   independentExtruderAxes,0
;   includeM10123,0
;   stickySupport,1
;   applyToolheadOffsets,0
;   gcodeXoffset,0
;   gcodeYoffset,0
;   gcodeZoffset,0
;   overrideMachineDefinition,1
;   machineTypeOverride,0
;   strokeXoverride,220
;   strokeYoverride,220
;   strokeZoverride,250
;   originOffsetXoverride,-5
;   originOffsetYoverride,-5
;   originOffsetZoverride,0
;   homeXdirOverride,-1
;   homeYdirOverride,-1
;   homeZdirOverride,-1
;   flipXoverride,1
;   flipYoverride,-1
;   flipZoverride,1
;   toolheadOffsets,0,0|0,0|0,0|0,0|0,0|0,0
;   overrideFirmwareConfiguration,1
;   firmwareTypeOverride,RepRap (Marlin/Repetier/Sprinter)
;   GPXconfigOverride,r2
;   baudRateOverride,115200
;   overridePrinterModels,1
;   printerModelsOverride
;   startingGcode,G28 ; home all axes,G1 X5 Y10 Z0.2 F3000 ; get ready to prime,G92 E0 ; reset extrusion distance,G1 X160 E15 F600 ; prime nozzle,G1 X180 F5000 ; quick wipe
;   layerChangeGcode,
;   retractionGcode,
;   toolChangeGcode,
;   endingGcode,G28 X0 ; home X axis,M106 S0 ; turn off cooling fan,M104 S0 ; turn off extruder,M140 S0 ; turn off bed,M84 ; disable motors
;   exportFileFormat,gcode
;   celebration,0
;   celebrationSong,Random Song
;   postProcessing,
;   defaultSpeed,3000
;   outlineUnderspeed,0.75
;   solidInfillUnderspeed,0.8
;   supportUnderspeed,0.8
;   rapidXYspeed,4800
;   rapidZspeed,1000
;   minBridgingArea,50
;   bridgingExtraInflation,0
;   bridgingExtrusionMultiplier,1
;   bridgingSpeedMultiplier,1
;   useFixedBridgingAngle,0
;   fixedBridgingAngle,0
;   applyBridgingToPerimeters,0
;   filamentDiameters,1.75|1.75|1.75|1.75|1.75|1.75
;   filamentPricesPerKg,25|46|46|46|46|46
;   filamentDensities,1.25|1.25|1.25|1.25|1.25|1.25
;   useMinPrintHeight,0
;   minPrintHeight,9
;   useMaxPrintHeight,0
;   maxPrintHeight,9
;   useDiaphragm,0
;   diaphragmLayerInterval,20
;   robustSlicing,1
;   mergeAllIntoSolid,0
;   onlyRetractWhenCrossingOutline,1
;   retractBetweenLayers,1
;   useRetractionMinTravel,0
;   retractionMinTravel,3
;   retractWhileWiping,0
;   onlyWipeOutlines,1
;   avoidCrossingOutline,0
;   maxMovementDetourFactor,3
;   toolChangeRetractionDistance,12
;   toolChangeExtraRestartDistance,-0.5
;   toolChangeRetractionSpeed,600
;   externalThinWallType,0
;   internalThinWallType,2
;   thinWallAllowedOverlapPercentage,10
;   singleExtrusionMinLength,1
;   singleExtrusionMinPrintingWidthPercentage,50
;   singleExtrusionMaxPrintingWidthPercentage,200
;   singleExtrusionEndpointExtension,0.2
;   horizontalSizeCompensation,0
G90
M82
M106 S0
M140 S60
M190 S60
M104 S200 T0
M109 S200 T0
G28 ; home all axes
G1 X5 Y10 Z0.2 F3000 ; get ready to prime
G92 E0 ; reset extrusion distance
G1 X160 E15 F600 ; prime nozzle
G1 X180 F5000 ; quick wipe
; process Process1
; layer 1, Z = 0.240
T0
G92 E0.0000
G1 E-6.0000 F1500
; feature outer perimeter
; tool H0.240 W0.660
G1 Z0.240 F1000
G1 X56.947 Y95.172 F4800
G1 E0.0000 F1500
G92 E0.0000
G1 X57.676 Y94.753 E0.0499 F1125
G1 X59.155 Y93.942 E0.1499
G1 X60.652 Y93.165 E0.2498
G1 X62.163 Y92.419 E0.3497
G1 X63.615 Y91.734 E0.4448
G1 X65.081 Y91.080 E0.5400
G1 X66.566 Y90.466 E0.6352
G1 X68.072 Y89.899 E0.7306
G1 X69.140 Y89.537 E0.7974
G1 X70.221 Y89.204 E0.8644
G1 X71.315 Y88.908 E0.9316
G1 X72.421 Y88.651 E0.9989
G1 X73.538 Y88.441 E1.0663
G1 X74.664 Y88.281 E1.1337
G1 X75.800 Y88.177 E1.2013
G1 X76.363 Y88.147 E1.2348
G1 X77.173 Y88.138 E1.2827
G1 X78.030 Y88.177 E1.3336
G1 X78.594 Y88.222 E1.3671
G1 X79.728 Y88.355 E1.4348
G1 X80.286 Y88.440 E1.4682
G1 X81.404 Y88.651 E1.5357
G1 X82.075 Y88.801 E1.5764
G1 X83.411 Y89.149 E1.6583
G1 X84.728 Y89.551 E1.7399
G1 X85.377 Y89.768 E1.7804
G1 X86.665 Y90.235 E1.8616
G1 X87.935 Y90.738 E1.9426
G1 X89.189 Y91.274 E2.0234
G1 X90.433 Y91.836 E2.1043
G1 X91.666 Y92.420 E2.1852
G1 X93.106 Y93.131 E2.2804
G1 X94.531 Y93.868 E2.3755
G1 X96.640 Y95.034 E2.5183
G1 X98.297 Y96.027 E2.6328
G1 X99.247 Y96.634 E2.6996
G1 X100.182 Y97.270 E2.7666
G1 X100.637 Y97.600 E2.8000
G1 X101.537 Y98.300 E2.8675
G1 X101.971 Y98.667 E2.9012
G1 X102.397 Y99.050 E2.9351
G1 X102.809 Y99.449 E2.9691
G1 X103.205 Y99.865 E3.0032
G1 X103.583 Y100.301 E3.0374
G1 X103.941 Y100.754 E3.0716
G1 X104.276 Y101.226 E3.1059
G1 X104.542 Y101.642 E3.1352
G1 X104.789 Y102.067 E3.1643
G1 X105.237 Y102.953 E3.2232
G1 X105.495 Y103.554 E3.2619
G1 X105.727 Y104.165 E3.3007
G1 X105.937 Y104.785 E3.3394
G1 X106.126 Y105.407 E3.3780
G1 X106.323 Y106.133 E3.4226
G1 X106.497 Y106.863 E3.4670
G1 X106.650 Y107.594 E3.5113
G1 X106.902 Y109.072 E3.6002
G1 X107.002 Y109.809 E3.6443
G1 X107.159 Y111.296 E3.7329
G1 X107.217 Y112.038 E3.7770
G1 X107.296 Y113.527 E3.8654
G1 X107.334 Y115.762 E3.9979
G1 X107.316 Y117.252 E4.0862
G1 X107.270 Y118.726 E4.1736
G1 X107.109 Y121.682 E4.3490
G1 X107.003 Y123.155 E4.4366
G1 X106.634 Y127.585 E4.7001
G1 X106.359 Y130.341 E4.8642
G1 X106.204 Y131.614 E4.9402
G1 X106.027 Y132.886 E5.0163
G1 X105.813 Y134.157 E5.0927
G1 X105.688 Y134.786 E5.1308
G1 X105.384 Y136.051 E5.2079
G1 X105.202 Y136.674 E5.2463
G1 X104.996 Y137.292 E5.2849
G1 X104.764 Y137.904 E5.3237
G1 X104.508 Y138.506 E5.3625
G1 X104.226 Y139.096 E5.4013
G1 X103.836 Y139.817 E5.4498
G1 X103.410 Y140.515 E5.4983
G1 X102.952 Y141.192 E5.5468
G1 X102.466 Y141.847 E5.5951
G1 X101.956 Y142.480 E5.6432
G1 X101.427 Y143.091 E5.6912
G1 X100.876 Y143.688 E5.7393
G1 X100.312 Y144.266 E5.7872
G1 X99.145 Y145.387 E5.8831
G1 X97.952 Y146.463 E5.9783
G1 X94.600 Y149.355 E6.2407
G1 X92.777 Y150.977 E6.3854
G1 X91.882 Y151.808 E6.4577
G1 X91.003 Y152.655 E6.5301
G1 X90.144 Y153.522 E6.6024
G1 X89.306 Y154.408 E6.6746
G1 X88.495 Y155.314 E6.7468
G1 X87.813 Y156.120 E6.8094
G1 X87.152 Y156.944 E6.8719
G1 X86.511 Y157.785 E6.9346
G1 X85.888 Y158.646 E6.9976
G1 X84.367 Y160.820 E7.1549
G1 X83.832 Y161.532 E7.2077
G1 X83.264 Y162.227 E7.2609
G1 X82.652 Y162.896 E7.3146
G1 X82.332 Y163.212 E7.3413
G1 X81.996 Y163.518 E7.3682
G1 X81.649 Y163.808 E7.3950
G1 X81.044 Y164.252 E7.4395
G1 X80.542 Y164.563 E7.4744
G1 X80.289 Y164.702 E7.4916
G1 X79.751 Y164.960 E7.5270
G1 X79.201 Y165.173 E7.5619
G1 X78.643 Y165.337 E7.5964
G1 X78.069 Y165.452 E7.6311
G1 X77.475 Y165.522 E7.6665
G1 X76.912 Y165.543 E7.6999
G1 X76.344 Y165.521 E7.7336
G1 X75.917 Y165.475 E7.7590
G1 X75.497 Y165.406 E7.7843
G1 X75.086 Y165.312 E7.8092
G1 X74.682 Y165.193 E7.8342
G1 X74.282 Y165.047 E7.8595
G1 X73.888 Y164.877 E7.8849
G1 X73.504 Y164.686 E7.9103
G1 X73.132 Y164.476 E7.9356
G1 X72.775 Y164.249 E7.9607
G1 X72.097 Y163.747 E8.0107
G1 X71.784 Y163.481 E8.0351
G1 X71.178 Y162.904 E8.0846
G1 X70.615 Y162.293 E8.1339
G1 X70.131 Y161.712 E8.1787
G1 X69.671 Y161.116 E8.2233
G1 X69.230 Y160.512 E8.2677
G1 X67.958 Y158.684 E8.3997
G1 X67.091 Y157.494 E8.4869
G1 X66.186 Y156.341 E8.5738
G1 X65.716 Y155.774 E8.6174
G1 X64.752 Y154.672 E8.7042
G1 X64.253 Y154.131 E8.7479
G1 X63.233 Y153.074 E8.8349
G1 X62.182 Y152.043 E8.9222
G1 X61.104 Y151.034 E9.0097
G1 X60.010 Y150.050 E9.0969
G1 X55.540 Y146.175 E9.4475
G1 X54.441 Y145.173 E9.5357
G1 X53.228 Y143.987 E9.6362
G1 X52.645 Y143.372 E9.6864
G1 X52.080 Y142.736 E9.7369
G1 X51.534 Y142.079 E9.7875
G1 X51.014 Y141.398 E9.8383
G1 X50.523 Y140.694 E9.8892
G1 X50.066 Y139.965 E9.9402
G1 X49.854 Y139.595 E9.9654
G1 X49.653 Y139.219 E9.9907
G1 X49.281 Y138.442 E10.0417
G1 X48.953 Y137.648 E10.0927
G1 X48.668 Y136.837 E10.1436
G1 X48.422 Y136.015 E10.1945
G1 X48.215 Y135.188 E10.2450
G1 X48.042 Y134.356 E10.2953
G1 X47.894 Y133.524 E10.3455
G1 X47.635 Y131.771 E10.4505
G1 X47.423 Y130.017 E10.5552
G1 X47.245 Y128.263 E10.6597
G1 X46.877 Y123.958 E10.9158
G1 X46.695 Y121.398 E11.0679
G1 X46.596 Y119.693 E11.1691
G1 X46.523 Y117.985 E11.2704
G1 X46.484 Y116.273 E11.3719
G1 X46.480 Y115.415 E11.4228
G1 X46.488 Y114.557 E11.4736
G1 X46.535 Y113.053 E11.5628
G1 X46.630 Y111.551 E11.6520
G1 X46.781 Y110.052 E11.7413
G1 X46.879 Y109.307 E11.7859
G1 X46.994 Y108.562 E11.8305
G1 X47.163 Y107.634 E11.8864
G1 X47.360 Y106.710 E11.9424
G1 X47.588 Y105.792 E11.9985
G1 X47.853 Y104.876 E12.0550
G1 X47.998 Y104.432 E12.0827
G1 X48.332 Y103.535 E12.1394
G1 X48.517 Y103.100 E12.1674
G1 X48.941 Y102.233 E12.2246
G1 X49.175 Y101.816 E12.2530
G1 X49.426 Y101.407 E12.2814
G1 X49.735 Y100.953 E12.3140
G1 X50.066 Y100.513 E12.3466
G1 X50.418 Y100.089 E12.3792
G1 X50.785 Y99.684 E12.4117
G1 X51.398 Y99.076 E12.4629
G1 X52.039 Y98.506 E12.5137
G1 X52.703 Y97.968 E12.5643
G1 X53.383 Y97.456 E12.6148
G1 X54.077 Y96.968 E12.6650
G1 X54.783 Y96.499 E12.7153
G1 X55.497 Y96.046 E12.7654
G1 X56.947 Y95.172 E12.8658
; feature inner perimeter
G1 X57.281 Y95.741 F4800
G92 E0.0000
G1 X58.000 Y95.328 E0.0491 F1313
G1 X59.466 Y94.524 E0.1483
G1 X60.949 Y93.754 E0.2473
G1 X62.450 Y93.013 E0.3465
G1 X63.890 Y92.334 E0.4409
G1 X65.342 Y91.686 E0.5351
G1 X66.808 Y91.080 E0.6291
G1 X68.294 Y90.521 E0.7232
G1 X69.343 Y90.165 E0.7889
G1 X70.405 Y89.838 E0.8547
G1 X71.476 Y89.548 E0.9205
G1 X72.557 Y89.298 E0.9862
G1 X73.646 Y89.092 E1.0519
G1 X74.741 Y88.937 E1.1175
G1 X75.847 Y88.835 E1.1833
G1 X76.385 Y88.807 E1.2152
G1 X77.162 Y88.798 E1.2613
G1 X77.989 Y88.836 E1.3104
G1 X78.530 Y88.879 E1.3425
G1 X79.640 Y89.009 E1.4088
G1 X80.174 Y89.091 E1.4408
G1 X81.271 Y89.298 E1.5070
G1 X81.919 Y89.443 E1.5463
G1 X83.232 Y89.785 E1.6267
G1 X84.527 Y90.180 E1.7070
G1 X85.159 Y90.391 E1.7465
G1 X86.430 Y90.852 E1.8266
G1 X87.683 Y91.349 E1.9065
G1 X88.924 Y91.878 E1.9865
G1 X90.156 Y92.435 E2.0666
G1 X91.378 Y93.015 E2.1468
G1 X92.808 Y93.720 E2.2413
G1 X94.220 Y94.450 E2.3355
G1 X96.311 Y95.606 E2.4771
G1 X97.950 Y96.588 E2.5904
G1 X98.884 Y97.185 E2.6560
G1 X99.802 Y97.811 E2.7219
G1 X100.241 Y98.128 E2.7540
G1 X101.121 Y98.813 E2.8201
G1 X101.538 Y99.165 E2.8524
G1 X101.946 Y99.532 E2.8850
G1 X102.340 Y99.913 E2.9175
G1 X102.717 Y100.309 E2.9499
G1 X103.075 Y100.722 E2.9822
G1 X103.412 Y101.150 E3.0146
G1 X103.728 Y101.595 E3.0469
G1 X103.979 Y101.986 E3.0744
G1 X104.209 Y102.382 E3.1015
G1 X104.638 Y103.232 E3.1580
G1 X104.883 Y103.801 E3.1947
G1 X105.106 Y104.389 E3.2320
G1 X105.308 Y104.987 E3.2694
G1 X105.492 Y105.590 E3.3068
G1 X105.684 Y106.296 E3.3501
G1 X105.853 Y107.007 E3.3934
G1 X106.001 Y107.716 E3.4364
G1 X106.249 Y109.172 E3.5239
G1 X106.347 Y109.888 E3.5668
G1 X106.502 Y111.357 E3.6543
G1 X106.558 Y112.080 E3.6973
G1 X106.636 Y113.550 E3.7846
G1 X106.674 Y115.764 E3.9158
G1 X106.656 Y117.237 E4.0031
G1 X106.610 Y118.698 E4.0897
G1 X106.450 Y121.640 E4.2644
G1 X106.345 Y123.105 E4.3514
G1 X105.977 Y127.525 E4.6143
G1 X105.703 Y130.268 E4.7776
G1 X105.550 Y131.529 E4.8530
G1 X105.375 Y132.786 E4.9281
G1 X105.164 Y134.038 E5.0034
G1 X105.043 Y134.645 E5.0401
G1 X104.746 Y135.882 E5.1155
G1 X104.572 Y136.476 E5.1522
G1 X104.374 Y137.071 E5.1893
G1 X104.152 Y137.658 E5.2265
G1 X103.906 Y138.234 E5.2637
G1 X103.637 Y138.797 E5.3006
G1 X103.263 Y139.488 E5.3472
G1 X102.855 Y140.158 E5.3938
G1 X102.413 Y140.811 E5.4404
G1 X101.944 Y141.443 E5.4871
G1 X101.450 Y142.056 E5.5338
G1 X100.954 Y142.629 E5.5787
G1 X100.526 Y142.372 E5.6082
G1 X100.660 Y142.025 E5.6303
G1 X100.795 Y141.520 E5.6613
G1 X100.876 Y141.004 E5.6922
G1 X100.902 Y140.508 E5.7216
G1 X100.902 Y102.456 E7.9770
G1 X100.876 Y101.961 E8.0064
G1 X100.795 Y101.445 E8.0374
G1 X100.660 Y100.940 E8.0683
G1 X100.472 Y100.452 E8.0993
G1 X100.235 Y99.987 E8.1302
G1 X99.951 Y99.549 E8.1612
G1 X99.622 Y99.143 E8.1922
G1 X99.252 Y98.773 E8.2231
G1 X98.846 Y98.444 E8.2541
G1 X98.408 Y98.160 E8.2851
G1 X97.943 Y97.923 E8.3160
G1 X97.455 Y97.735 E8.3470
G1 X96.950 Y97.600 E8.3780
G1 X96.434 Y97.518 E8.4089
G1 X95.938 Y97.492 E8.4384
G1 X57.886 Y97.492 E10.6937
G1 X57.391 Y97.518 E10.7231
G1 X56.875 Y97.600 E10.7541
G1 X56.370 Y97.735 E10.7850
G1 X55.882 Y97.923 E10.8160
G1 X55.417 Y98.160 E10.8470
G1 X54.979 Y98.444 E10.8779
G1 X54.573 Y98.773 E10.9089
G1 X54.203 Y99.143 E10.9399
G1 X53.874 Y99.549 E10.9708
G1 X53.590 Y99.987 E11.0018
G1 X53.353 Y100.452 E11.0328
G1 X53.165 Y100.940 E11.0637
G1 X53.030 Y101.445 E11.0947
G1 X52.948 Y101.968 E11.1261
G1 X52.922 Y102.456 E11.1551
G1 X52.922 Y140.508 E13.4104
G1 X52.948 Y141.004 E13.4398
G1 X53.030 Y141.520 E13.4708
G1 X53.165 Y142.025 E13.5018
G1 X53.304 Y142.386 E13.5247
G1 X52.881 Y142.644 E13.5541
G1 X52.580 Y142.306 E13.5809
G1 X52.051 Y141.668 E13.6300
G1 X51.547 Y141.009 E13.6792
G1 X51.073 Y140.330 E13.7283
G1 X50.632 Y139.626 E13.7775
G1 X50.431 Y139.275 E13.8015
G1 X50.242 Y138.920 E13.8253
G1 X49.884 Y138.174 E13.8744
G1 X49.570 Y137.412 E13.9232
G1 X49.296 Y136.633 E13.9722
G1 X49.059 Y135.840 E14.0212
G1 X48.859 Y135.040 E14.0701
G1 X48.690 Y134.231 E14.1191
G1 X48.546 Y133.418 E14.1680
G1 X48.289 Y131.683 E14.2720
G1 X48.079 Y129.944 E14.3758
G1 X47.902 Y128.202 E14.4796
G1 X47.535 Y123.907 E14.7351
G1 X47.354 Y121.356 E14.8866
G1 X47.255 Y119.660 E14.9873
G1 X47.183 Y117.964 E15.0879
G1 X47.144 Y116.263 E15.1888
G1 X47.140 Y115.417 E15.2389
G1 X47.148 Y114.571 E15.2891
G1 X47.195 Y113.084 E15.3772
