; G-Code generated by Simplify3D(R) Version 4.1.2
; Apr 27, 2020 at 5:20:49 PM
; Settings Summary
;   processName,Process1
;   applyToModels,Surgical_Mask_Strap_Remix_0
;   profileName,Creality Ender 3 Pro (Mask 2.1) (modified)
;   profileVersion,2020-04-09 09:08:56
;   baseProfile,Creality Ender 3 Pro (modified)
;   printMaterial,PLA
;   printQuality,MASK-2.1
;   printExtruders,
;   extruderName,Primary Extruder
;   extruderToolheadNumber,0
;   extruderDiameter,0.4
;   extruderAutoWidth,0
;   extruderWidth,0.5
;   extrusionMultiplier,0.9
;   extruderUseRetract,1
;   extruderRetractionDistance,3
;   extruderExtraRestartDistance,0
;   extruderRetractionZLift,0
;   extruderRetractionSpeed,1500
;   extruderUseCoasting,0
;   extruderCoastingDistance,0.2
;   extruderUseWipe,0
;   extruderWipeDistance,5
;   primaryExtruder,0
;   layerHeight,0.3
;   topSolidLayers,4
;   bottomSolidLayers,4
;   perimeterOutlines,3
;   printPerimetersInsideOut,0
;   startPointOption,2
;   startPointOriginX,0
;   startPointOriginY,0
;   sequentialIslands,0
;   spiralVaseMode,0
;   firstLayerHeightPercentage,100
;   firstLayerWidthPercentage,100
;   firstLayerUnderspeed,0.5
;   useRaft,0
;   raftExtruder,0
;   raftTopLayers,3
;   raftBaseLayers,2
;   raftOffset,3
;   raftSeparationDistance,0.14
;   raftTopInfill,100
;   aboveRaftSpeedMultiplier,0.3
;   useSkirt,0
;   skirtExtruder,0
;   skirtLayers,1
;   skirtOutlines,2
;   skirtOffset,4
;   usePrimePillar,0
;   primePillarExtruder,999
;   primePillarWidth,12
;   primePillarLocation,7
;   primePillarSpeedMultiplier,1
;   useOozeShield,0
;   oozeShieldExtruder,999
;   oozeShieldOffset,2
;   oozeShieldOutlines,1
;   oozeShieldSidewallShape,1
;   oozeShieldSidewallAngle,30
;   oozeShieldSpeedMultiplier,1
;   infillExtruder,0
;   internalInfillPattern,Rectilinear
;   externalInfillPattern,Rectilinear
;   infillPercentage,50
;   outlineOverlapPercentage,15
;   infillExtrusionWidthPercentage,100
;   minInfillLength,5
;   infillLayerInterval,1
;   internalInfillAngles,45,-45
;   overlapInternalInfillAngles,0
;   externalInfillAngles,45,-45
;   generateSupport,0
;   supportExtruder,0
;   supportInfillPercentage,25
;   supportExtraInflation,0
;   supportBaseLayers,0
;   denseSupportExtruder,0
;   denseSupportLayers,0
;   denseSupportInfillPercentage,70
;   supportLayerInterval,1
;   supportHorizontalPartOffset,0.3
;   supportUpperSeparationLayers,1
;   supportLowerSeparationLayers,1
;   supportType,0
;   supportGridSpacing,4
;   maxOverhangAngle,45
;   supportAngles,0
;   temperatureName,Primary Extruder,Heated Bed
;   temperatureNumber,0,0
;   temperatureSetpointCount,1,1
;   temperatureSetpointLayers,1,1
;   temperatureSetpointTemperatures,200,60
;   temperatureStabilizeAtStartup,1,1
;   temperatureHeatedBed,0,1
;   fanLayers,1,2
;   fanSpeeds,0,100
;   blipFanToFullPower,0
;   adjustSpeedForCooling,1
;   minSpeedLayerTime,15
;   minCoolingSpeedSlowdown,20
;   increaseFanForCooling,0
;   minFanLayerTime,45
;   maxCoolingFanSpeed,100
;   increaseFanForBridging,0
;   bridgingFanSpeed,100
;   use5D,1
;   relativeEdistances,0
;   allowEaxisZeroing,1
;   independentExtruderAxes,0
;   includeM10123,0
;   stickySupport,1
;   applyToolheadOffsets,0
;   gcodeXoffset,0
;   gcodeYoffset,0
;   gcodeZoffset,0
;   overrideMachineDefinition,1
;   machineTypeOverride,0
;   strokeXoverride,220
;   strokeYoverride,220
;   strokeZoverride,250
;   originOffsetXoverride,-5
;   originOffsetYoverride,-5
;   originOffsetZoverride,0
;   homeXdirOverride,-1
;   homeYdirOverride,-1
;   homeZdirOverride,-1
;   flipXoverride,1
;   flipYoverride,-1
;   flipZoverride,1
;   toolheadOffsets,0,0|0,0|0,0|0,0|0,0|0,0
;   overrideFirmwareConfiguration,1
;   firmwareTypeOverride,RepRap (Marlin/Repetier/Sprinter)
;   GPXconfigOverride,r2
;   baudRateOverride,115200
;   overridePrinterModels,1
;   printerModelsOverride
;   startingGcode,G28 ; home all axes,G1 X5 Y10 Z0.2 F3000 ; get ready to prime,G92 E0 ; reset extrusion distance,G1 X160 E15 F600 ; prime nozzle,G1 X180 F5000 ; quick wipe
;   layerChangeGcode,
;   retractionGcode,
;   toolChangeGcode,
;   endingGcode,G28 X0 ; home X axis,M106 S0 ; turn off cooling fan,M104 S0 ; turn off extruder,M140 S0 ; turn off bed,M84 ; disable motors
;   exportFileFormat,gcode
;   celebration,0
;   celebrationSong,Random Song
;   postProcessing,
;   defaultSpeed,3000
;   outlineUnderspeed,0.75
;   solidInfillUnderspeed,0.8
;   supportUnderspeed,0.8
;   rapidXYspeed,4800
;   rapidZspeed,1000
;   minBridgingArea,50
;   bridgingExtraInflation,0
;   bridgingExtrusionMultiplier,1
;   bridgingSpeedMultiplier,1
;   useFixedBridgingAngle,0
;   fixedBridgingAngle,0
;   applyBridgingToPerimeters,0
;   filamentDiameters,1.75|1.75|1.75|1.75|1.75|1.75
;   filamentPricesPerKg,25|46|46|46|46|46
;   filamentDensities,1.25|1.25|1.25|1.25|1.25|1.25
;   useMinPrintHeight,0
;   minPrintHeight,9
;   useMaxPrintHeight,0
;   maxPrintHeight,9
;   useDiaphragm,0
;   diaphragmLayerInterval,20
;   robustSlicing,1
;   mergeAllIntoSolid,0
;   onlyRetractWhenCrossingOutline,1
;   retractBetweenLayers,1
;   useRetractionMinTravel,1
;   retractionMinTravel,3
;   retractWhileWiping,0
;   onlyWipeOutlines,1
;   avoidCrossingOutline,1
;   maxMovementDetourFactor,3
;   toolChangeRetractionDistance,12
;   toolChangeExtraRestartDistance,-0.5
;   toolChangeRetractionSpeed,600
;   externalThinWallType,0
;   internalThinWallType,2
;   thinWallAllowedOverlapPercentage,10
;   singleExtrusionMinLength,1
;   singleExtrusionMinPrintingWidthPercentage,50
;   singleExtrusionMaxPrintingWidthPercentage,200
;   singleExtrusionEndpointExtension,0.2
;   horizontalSizeCompensation,0
G90
M82
M106 S0
M140 S60
M190 S60
M104 S200 T0
M109 S200 T0
G28 ; home all axes
G1 X5 Y10 Z0.2 F3000 ; get ready to prime
G92 E0 ; reset extrusion distance
G1 X160 E15 F600 ; prime nozzle
G1 X180 F5000 ; quick wipe
; process Process1
; layer 1, Z = 0.300
T0
G92 E0.0000
G1 E-3.0000 F1500
; feature outer perimeter
; tool H0.300 W0.500
G1 Z0.300 F1000
G1 X34.806 Y104.771 F4800
G1 E0.0000 F1500
G92 E0.0000
G1 X35.428 Y104.410 E0.0404 F1125
G1 X36.121 Y104.227 E0.0806
G1 X36.838 Y104.227 E0.1208
G1 X37.532 Y104.410 E0.1611
G1 X38.152 Y104.771 E0.2014
G1 X38.660 Y105.277 E0.2416
G1 X39.019 Y105.899 E0.2820
G1 X39.204 Y106.592 E0.3222
G1 X39.204 Y107.308 E0.3624
G1 X39.019 Y108.003 E0.4027
G1 X38.660 Y108.623 E0.4430
G1 X38.153 Y109.131 E0.4833
G1 X37.532 Y109.488 E0.5235
G1 X36.593 Y109.738 E0.5780
G1 X36.805 Y111.331 E0.6682
G1 X46.225 Y110.094 E1.2014
G1 X45.652 Y105.759 E1.4469
G1 X45.652 Y105.026 E1.4880
G1 X45.839 Y104.331 E1.5284
G1 X46.196 Y103.711 E1.5686
G1 X46.705 Y103.203 E1.6089
G1 X47.325 Y102.844 E1.6491
G1 X48.019 Y102.659 E1.6894
G1 X48.737 Y102.659 E1.7297
G1 X49.427 Y102.844 E1.7698
G1 X50.048 Y103.203 E1.8101
G1 X50.556 Y103.711 E1.8504
G1 X50.915 Y104.332 E1.8907
G1 X51.102 Y105.026 E1.9310
G1 X51.102 Y105.742 E1.9712
G1 X50.915 Y106.434 E2.0115
G1 X50.556 Y107.057 E2.0518
G1 X50.049 Y107.563 E2.0920
G1 X49.427 Y107.922 E2.1323
G1 X48.494 Y108.172 E2.1866
G1 X48.703 Y109.769 E2.2770
G1 X58.123 Y108.532 E2.8102
G1 X57.550 Y104.193 E3.0559
G1 X57.550 Y103.460 E3.0970
G1 X57.735 Y102.765 E3.1374
G1 X58.094 Y102.145 E3.1776
G1 X58.602 Y101.637 E3.2179
G1 X59.222 Y101.278 E3.2582
G1 X59.917 Y101.093 E3.2985
G1 X60.633 Y101.093 E3.3387
G1 X61.326 Y101.278 E3.3789
G1 X61.948 Y101.637 E3.4193
G1 X62.454 Y102.144 E3.4595
G1 X62.813 Y102.765 E3.4997
G1 X62.998 Y103.460 E3.5401
G1 X62.998 Y104.176 E3.5803
G1 X62.813 Y104.869 E3.6205
G1 X62.454 Y105.490 E3.6608
G1 X61.948 Y105.997 E3.7010
G1 X61.325 Y106.356 E3.7413
G1 X60.389 Y106.609 E3.7957
G1 X60.601 Y108.207 E3.8862
G1 X70.018 Y106.970 E4.4194
G1 X69.448 Y102.625 E4.6653
G1 X69.448 Y101.892 E4.7065
G1 X69.635 Y101.199 E4.7467
G1 X69.992 Y100.578 E4.7869
G1 X70.500 Y100.071 E4.8272
G1 X71.120 Y99.712 E4.8675
G1 X71.813 Y99.527 E4.9077
G1 X72.531 Y99.527 E4.9480
G1 X73.224 Y99.712 E4.9882
G1 X73.845 Y100.071 E5.0285
G1 X74.354 Y100.579 E5.0689
G1 X74.711 Y101.199 E5.1091
G1 X74.898 Y101.892 E5.1493
G1 X74.898 Y102.608 E5.1895
G1 X74.711 Y103.303 E5.2299
G1 X74.354 Y103.923 E5.2701
G1 X73.845 Y104.431 E5.3104
G1 X73.224 Y104.790 E5.3507
G1 X72.288 Y105.040 E5.4051
G1 X72.499 Y106.645 E5.4960
G1 X92.472 Y104.022 E6.6266
G1 X93.784 Y100.853 E6.8191
G1 X94.220 Y100.285 E6.8593
G1 X94.790 Y99.847 E6.8996
G1 X95.451 Y99.573 E6.9398
G1 X96.180 Y99.479 E6.9811
G1 X133.820 Y99.479 E9.0937
G1 X134.549 Y99.573 E9.1349
G1 X135.210 Y99.847 E9.1751
G1 X135.780 Y100.285 E9.2154
G1 X136.216 Y100.853 E9.2556
G1 X137.528 Y104.022 E9.4481
G1 X157.501 Y106.645 E10.5787
G1 X157.712 Y105.040 E10.6696
G1 X156.776 Y104.790 E10.7240
G1 X156.153 Y104.431 E10.7644
G1 X155.646 Y103.924 E10.8046
G1 X155.289 Y103.303 E10.8448
G1 X155.104 Y102.608 E10.8852
G1 X155.104 Y101.892 E10.9254
G1 X155.289 Y101.199 E10.9656
G1 X155.646 Y100.578 E11.0058
G1 X156.153 Y100.071 E11.0461
G1 X156.776 Y99.712 E11.0864
G1 X157.469 Y99.527 E11.1267
G1 X158.187 Y99.527 E11.1670
G1 X158.880 Y99.712 E11.2072
G1 X159.500 Y100.071 E11.2475
G1 X160.008 Y100.578 E11.2877
G1 X160.365 Y101.199 E11.3279
G1 X160.552 Y101.892 E11.3682
G1 X160.552 Y102.625 E11.4093
G1 X159.982 Y106.970 E11.6553
G1 X169.399 Y108.207 E12.1884
G1 X169.611 Y106.609 E12.2790
G1 X168.675 Y106.356 E12.3334
G1 X168.052 Y105.997 E12.3737
G1 X167.546 Y105.490 E12.4139
G1 X167.187 Y104.869 E12.4542
G1 X167.002 Y104.176 E12.4944
G1 X167.002 Y103.460 E12.5346
G1 X167.187 Y102.765 E12.5750
G1 X167.546 Y102.144 E12.6152
G1 X168.052 Y101.637 E12.6554
G1 X168.674 Y101.278 E12.6958
G1 X169.367 Y101.093 E12.7360
G1 X170.083 Y101.093 E12.7762
G1 X170.778 Y101.278 E12.8165
G1 X171.398 Y101.637 E12.8568
G1 X171.906 Y102.145 E12.8971
G1 X172.265 Y102.765 E12.9373
G1 X172.450 Y103.460 E12.9776
G1 X172.450 Y104.193 E13.0188
G1 X171.877 Y108.532 E13.2645
G1 X181.297 Y109.769 E13.7977
G1 X181.506 Y108.172 E13.8881
G1 X180.571 Y107.922 E13.9425
G1 X179.951 Y107.563 E13.9827
G1 X179.442 Y107.057 E14.0230
G1 X179.085 Y106.435 E14.0632
G1 X178.898 Y105.742 E14.1035
G1 X178.898 Y105.026 E14.1437
G1 X179.085 Y104.331 E14.1841
G1 X179.442 Y103.711 E14.2243
G1 X179.951 Y103.203 E14.2646
G1 X180.571 Y102.844 E14.3048
G1 X181.263 Y102.659 E14.3450
G1 X181.983 Y102.659 E14.3854
G1 X182.675 Y102.844 E14.4257
G1 X183.294 Y103.203 E14.4658
G1 X183.802 Y103.711 E14.5061
G1 X184.161 Y104.332 E14.5464
G1 X184.348 Y105.026 E14.5867
G1 X184.348 Y105.759 E14.6279
G1 X183.778 Y110.094 E14.8733
G1 X193.197 Y111.331 E15.4065
G1 X193.406 Y109.738 E15.4967
G1 X192.468 Y109.488 E15.5512
G1 X191.847 Y109.131 E15.5914
G1 X191.340 Y108.623 E15.6317
G1 X190.981 Y108.003 E15.6720
G1 X190.796 Y107.308 E15.7123
G1 X190.796 Y106.592 E15.7525
G1 X190.981 Y105.899 E15.7927
G1 X191.340 Y105.277 E15.8331
G1 X191.848 Y104.771 E15.8733
G1 X192.468 Y104.410 E15.9136
G1 X193.162 Y104.227 E15.9539
G1 X193.879 Y104.227 E15.9941
G1 X194.572 Y104.410 E16.0343
G1 X195.194 Y104.771 E16.0747
G1 X195.700 Y105.276 E16.1148
G1 X196.059 Y105.899 E16.1552
G1 X196.244 Y106.592 E16.1954
G1 X196.244 Y107.325 E16.2365
G1 X193.504 Y128.140 E17.4149
G1 X193.315 Y128.851 E17.4562
G1 X192.956 Y129.471 E17.4964
G1 X192.448 Y129.979 E17.5367
G1 X191.828 Y130.338 E17.5770
G1 X191.134 Y130.521 E17.6173
G1 X190.417 Y130.521 E17.6575
G1 X189.724 Y130.338 E17.6977
G1 X189.102 Y129.979 E17.7380
G1 X188.596 Y129.472 E17.7782
G1 X188.237 Y128.851 E17.8185
G1 X188.052 Y128.156 E17.8588
G1 X188.052 Y127.438 E17.8992
G1 X188.237 Y126.747 E17.9393
G1 X188.596 Y126.124 E17.9796
G1 X189.102 Y125.619 E18.0198
G1 X189.724 Y125.258 E18.0601
G1 X190.417 Y125.075 E18.1003
G1 X191.385 Y125.075 E18.1547
G1 X191.643 Y123.140 E18.2643
G1 X182.223 Y121.905 E18.7975
G1 X181.606 Y126.574 E19.0619
G1 X181.417 Y127.283 E19.1030
G1 X181.058 Y127.905 E19.1434
G1 X180.551 Y128.411 E19.1836
G1 X179.930 Y128.770 E19.2238
G1 X179.237 Y128.955 E19.2641
G1 X178.521 Y128.955 E19.3043
G1 X177.826 Y128.770 E19.3446
G1 X177.205 Y128.411 E19.3849
G1 X176.698 Y127.905 E19.4251
G1 X176.339 Y127.283 E19.4654
G1 X176.154 Y126.590 E19.5056
G1 X176.154 Y125.874 E19.5458
G1 X176.339 Y125.179 E19.5862
G1 X176.698 Y124.559 E19.6264
G1 X177.206 Y124.051 E19.6667
G1 X177.826 Y123.692 E19.7070
G1 X178.521 Y123.507 E19.7473
G1 X179.489 Y123.507 E19.8016
G1 X179.745 Y121.578 E19.9109
G1 X170.323 Y120.343 E20.4442
G1 X169.710 Y125.008 E20.7083
G1 X169.519 Y125.716 E20.7495
G1 X169.162 Y126.337 E20.7897
G1 X168.653 Y126.845 E20.8301
G1 X168.033 Y127.204 E20.8703
G1 X167.339 Y127.391 E20.9106
G1 X166.621 Y127.391 E20.9509
G1 X165.929 Y127.204 E20.9912
G1 X165.308 Y126.845 E21.0314
G1 X164.800 Y126.338 E21.0717
G1 X164.443 Y125.716 E21.1119
G1 X164.256 Y125.024 E21.1522
G1 X164.256 Y124.308 E21.1924
G1 X164.443 Y123.613 E21.2327
G1 X164.800 Y122.992 E21.2729
G1 X165.308 Y122.485 E21.3132
G1 X165.928 Y122.126 E21.3535
G1 X166.621 Y121.941 E21.3937
G1 X167.591 Y121.941 E21.4482
G1 X167.844 Y120.016 E21.5572
G1 X158.425 Y118.779 E22.0904
G1 X157.810 Y123.442 E22.3544
G1 X157.623 Y124.151 E22.3955
G1 X157.264 Y124.771 E22.4358
G1 X156.756 Y125.279 E22.4761
G1 X156.136 Y125.638 E22.5163
G1 X155.441 Y125.823 E22.5567
G1 X154.723 Y125.823 E22.5970
G1 X154.032 Y125.638 E22.6371
G1 X153.410 Y125.279 E22.6774
G1 X152.904 Y124.772 E22.7176
G1 X152.545 Y124.150 E22.7579
G1 X152.358 Y123.458 E22.7982
G1 X152.358 Y122.740 E22.8385
G1 X152.545 Y122.048 E22.8787
G1 X152.904 Y121.426 E22.9190
G1 X153.410 Y120.919 E22.9592
G1 X154.032 Y120.560 E22.9995
G1 X154.723 Y120.375 E23.0397
G1 X155.693 Y120.375 E23.0941
G1 X155.947 Y118.454 E23.2029
G1 X139.930 Y116.351 E24.1096
G1 X139.920 Y116.803 E24.1349
G1 X139.882 Y117.110 E24.1523
G1 X139.805 Y117.371 E24.1676
G1 X139.690 Y117.591 E24.1815
G1 X139.536 Y117.779 E24.1952
G1 X139.339 Y117.941 E24.2095
G1 X139.232 Y118.004 E24.2164
G1 X138.957 Y118.124 E24.2333
G1 X138.812 Y118.168 E24.2418
G1 X138.462 Y118.239 E24.2618
G1 X138.065 Y118.275 E24.2842
G1 X91.935 Y118.275 E26.8733
G1 X91.538 Y118.239 E26.8957
G1 X91.187 Y118.168 E26.9158
G1 X91.043 Y118.124 E26.9243
G1 X90.766 Y118.004 E26.9412
G1 X90.662 Y117.942 E26.9480
G1 X90.464 Y117.780 E26.9623
G1 X90.312 Y117.591 E26.9760
G1 X90.195 Y117.370 E26.9900
G1 X90.118 Y117.110 E27.0052
G1 X90.080 Y116.804 E27.0225
G1 X90.075 Y116.350 E27.0480
G1 X74.053 Y118.454 E27.9549
G1 X74.307 Y120.375 E28.0637
G1 X75.275 Y120.375 E28.1181
G1 X75.968 Y120.560 E28.1583
G1 X76.591 Y120.919 E28.1986
G1 X77.098 Y121.427 E28.2389
G1 X77.457 Y122.047 E28.2792
G1 X77.642 Y122.740 E28.3194
G1 X77.642 Y123.458 E28.3597
G1 X77.457 Y124.151 E28.3999
G1 X77.098 Y124.771 E28.4402
G1 X76.591 Y125.279 E28.4805
G1 X75.968 Y125.638 E28.5208
G1 X75.275 Y125.823 E28.5611
G1 X74.559 Y125.823 E28.6013
G1 X73.866 Y125.638 E28.6415
G1 X73.244 Y125.279 E28.6818
G1 X72.738 Y124.771 E28.7221
G1 X72.377 Y124.151 E28.7624
G1 X72.190 Y123.442 E28.8035
G1 X71.575 Y118.779 E29.0675
G1 X62.156 Y120.016 E29.6007
G1 X62.409 Y121.941 E29.7097
G1 X63.379 Y121.941 E29.7642
G1 X64.072 Y122.126 E29.8044
G1 X64.692 Y122.485 E29.8447
G1 X65.200 Y122.992 E29.8849
G1 X65.557 Y123.613 E29.9252
G1 X65.744 Y124.308 E29.9655
G1 X65.744 Y125.024 E30.0057
G1 X65.557 Y125.716 E30.0460
G1 X65.200 Y126.338 E30.0862
G1 X64.692 Y126.845 E30.1265
G1 X64.071 Y127.204 E30.1667
G1 X63.379 Y127.391 E30.2070
G1 X62.661 Y127.391 E30.2473
G1 X61.967 Y127.204 E30.2876
G1 X61.347 Y126.845 E30.3278
G1 X60.838 Y126.337 E30.3682
G1 X60.481 Y125.717 E30.4084
G1 X60.290 Y125.008 E30.4496
G1 X59.677 Y120.343 E30.7137
G1 X50.258 Y121.578 E31.2469
G1 X50.511 Y123.507 E31.3561
G1 X51.479 Y123.507 E31.4105
G1 X52.174 Y123.692 E31.4508
G1 X52.794 Y124.051 E31.4910
G1 X53.302 Y124.559 E31.5313
G1 X53.661 Y125.179 E31.5716
G1 X53.846 Y125.874 E31.6119
G1 X53.846 Y126.590 E31.6521
G1 X53.661 Y127.283 E31.6924
G1 X53.302 Y127.905 E31.7327
G1 X52.795 Y128.411 E31.7729
G1 X52.174 Y128.770 E31.8132
G1 X51.479 Y128.955 E31.8535
G1 X50.763 Y128.955 E31.8937
G1 X50.070 Y128.770 E31.9339
G1 X49.449 Y128.411 E31.9742
