; G-Code generated by Simplify3D(R) Version 4.1.2
; Apr 20, 2020 at 8:32:25 AM
; Settings Summary
;   processName,Process1
;   applyToModels,USE PLA OR ABS Simple Face Shield 2.0
;   profileName,Creality Ender 3 Pro (modified)
;   profileVersion,2020-04-11 07:39:05
;   baseProfile,
;   printMaterial,PLA
;   printQuality,VISOR 1.0
;   printExtruders,
;   extruderName,Primary Extruder
;   extruderToolheadNumber,0
;   extruderDiameter,0.4
;   extruderAutoWidth,0
;   extruderWidth,0.5
;   extrusionMultiplier,0.9
;   extruderUseRetract,1
;   extruderRetractionDistance,6
;   extruderExtraRestartDistance,0
;   extruderRetractionZLift,0
;   extruderRetractionSpeed,1500
;   extruderUseCoasting,0
;   extruderCoastingDistance,0.2
;   extruderUseWipe,0
;   extruderWipeDistance,5
;   primaryExtruder,0
;   layerHeight,0.25
;   topSolidLayers,4
;   bottomSolidLayers,4
;   perimeterOutlines,8
;   printPerimetersInsideOut,1
;   startPointOption,2
;   startPointOriginX,0
;   startPointOriginY,0
;   sequentialIslands,0
;   spiralVaseMode,0
;   firstLayerHeightPercentage,120
;   firstLayerWidthPercentage,150
;   firstLayerUnderspeed,0.5
;   useRaft,0
;   raftExtruder,0
;   raftTopLayers,3
;   raftBaseLayers,2
;   raftOffset,3
;   raftSeparationDistance,0.14
;   raftTopInfill,100
;   aboveRaftSpeedMultiplier,0.3
;   useSkirt,0
;   skirtExtruder,0
;   skirtLayers,2
;   skirtOutlines,2
;   skirtOffset,4
;   usePrimePillar,0
;   primePillarExtruder,999
;   primePillarWidth,12
;   primePillarLocation,7
;   primePillarSpeedMultiplier,1
;   useOozeShield,0
;   oozeShieldExtruder,999
;   oozeShieldOffset,2
;   oozeShieldOutlines,1
;   oozeShieldSidewallShape,1
;   oozeShieldSidewallAngle,30
;   oozeShieldSpeedMultiplier,1
;   infillExtruder,0
;   internalInfillPattern,Rectilinear
;   externalInfillPattern,Rectilinear
;   infillPercentage,100
;   outlineOverlapPercentage,15
;   infillExtrusionWidthPercentage,100
;   minInfillLength,5
;   infillLayerInterval,1
;   internalInfillAngles,45,-45
;   overlapInternalInfillAngles,0
;   externalInfillAngles,45,-45
;   generateSupport,0
;   supportExtruder,0
;   supportInfillPercentage,40
;   supportExtraInflation,0
;   supportBaseLayers,0
;   denseSupportExtruder,0
;   denseSupportLayers,0
;   denseSupportInfillPercentage,70
;   supportLayerInterval,1
;   supportHorizontalPartOffset,0.3
;   supportUpperSeparationLayers,1
;   supportLowerSeparationLayers,1
;   supportType,0
;   supportGridSpacing,4
;   maxOverhangAngle,45
;   supportAngles,0
;   temperatureName,Primary Extruder,Heated Bed
;   temperatureNumber,0,0
;   temperatureSetpointCount,1,1
;   temperatureSetpointLayers,1,1
;   temperatureSetpointTemperatures,200,60
;   temperatureStabilizeAtStartup,1,1
;   temperatureHeatedBed,0,1
;   fanLayers,1,2
;   fanSpeeds,0,100
;   blipFanToFullPower,0
;   adjustSpeedForCooling,1
;   minSpeedLayerTime,15
;   minCoolingSpeedSlowdown,20
;   increaseFanForCooling,0
;   minFanLayerTime,45
;   maxCoolingFanSpeed,100
;   increaseFanForBridging,0
;   bridgingFanSpeed,100
;   use5D,1
;   relativeEdistances,0
;   allowEaxisZeroing,1
;   independentExtruderAxes,0
;   includeM10123,0
;   stickySupport,1
;   applyToolheadOffsets,0
;   gcodeXoffset,0
;   gcodeYoffset,0
;   gcodeZoffset,0
;   overrideMachineDefinition,1
;   machineTypeOverride,0
;   strokeXoverride,220
;   strokeYoverride,220
;   strokeZoverride,250
;   originOffsetXoverride,-5
;   originOffsetYoverride,-5
;   originOffsetZoverride,0
;   homeXdirOverride,-1
;   homeYdirOverride,-1
;   homeZdirOverride,-1
;   flipXoverride,1
;   flipYoverride,-1
;   flipZoverride,1
;   toolheadOffsets,0,0|0,0|0,0|0,0|0,0|0,0
;   overrideFirmwareConfiguration,1
;   firmwareTypeOverride,RepRap (Marlin/Repetier/Sprinter)
;   GPXconfigOverride,r2
;   baudRateOverride,115200
;   overridePrinterModels,1
;   printerModelsOverride
;   startingGcode,G28 ; home all axes,G1 X5 Y10 Z0.2 F3000 ; get ready to prime,G92 E0 ; reset extrusion distance,G1 X160 E15 F600 ; prime nozzle,G1 X180 F5000 ; quick wipe
;   layerChangeGcode,
;   retractionGcode,
;   toolChangeGcode,
;   endingGcode,G28 X0 ; home X axis,M106 S0 ; turn off cooling fan,M104 S0 ; turn off extruder,M140 S0 ; turn off bed,M84 ; disable motors
;   exportFileFormat,gcode
;   celebration,0
;   celebrationSong,Random Song
;   postProcessing,
;   defaultSpeed,3000
;   outlineUnderspeed,0.5
;   solidInfillUnderspeed,0.8
;   supportUnderspeed,0.8
;   rapidXYspeed,4800
;   rapidZspeed,1000
;   minBridgingArea,50
;   bridgingExtraInflation,0
;   bridgingExtrusionMultiplier,1
;   bridgingSpeedMultiplier,1
;   useFixedBridgingAngle,0
;   fixedBridgingAngle,0
;   applyBridgingToPerimeters,0
;   filamentDiameters,1.75|1.75|1.75|1.75|1.75|1.75
;   filamentPricesPerKg,46|46|46|46|46|46
;   filamentDensities,1.25|1.25|1.25|1.25|1.25|1.25
;   useMinPrintHeight,0
;   minPrintHeight,0
;   useMaxPrintHeight,0
;   maxPrintHeight,0
;   useDiaphragm,0
;   diaphragmLayerInterval,20
;   robustSlicing,1
;   mergeAllIntoSolid,0
;   onlyRetractWhenCrossingOutline,1
;   retractBetweenLayers,1
;   useRetractionMinTravel,0
;   retractionMinTravel,3
;   retractWhileWiping,0
;   onlyWipeOutlines,1
;   avoidCrossingOutline,0
;   maxMovementDetourFactor,3
;   toolChangeRetractionDistance,12
;   toolChangeExtraRestartDistance,-0.5
;   toolChangeRetractionSpeed,600
;   externalThinWallType,0
;   internalThinWallType,2
;   thinWallAllowedOverlapPercentage,10
;   singleExtrusionMinLength,1
;   singleExtrusionMinPrintingWidthPercentage,50
;   singleExtrusionMaxPrintingWidthPercentage,200
;   singleExtrusionEndpointExtension,0.2
;   horizontalSizeCompensation,0
G90
M82
M106 S0
M140 S60
M190 S60
M104 S200 T0
M109 S200 T0
G28 ; home all axes
G1 X5 Y10 Z0.2 F3000 ; get ready to prime
G92 E0 ; reset extrusion distance
G1 X160 E15 F600 ; prime nozzle
G1 X180 F5000 ; quick wipe
; process Process1
; layer 1, Z = 0.300
T0
G92 E0.0000
G1 E-6.0000 F1500
; feature inner perimeter
; tool H0.300 W0.750
G1 Z0.300 F1000
G1 X70.138 Y185.552 F4800
G1 E0.0000 F1500
G92 E0.0000
G1 X73.187 Y187.135 E0.2892 F1125
G1 X75.980 Y188.470 E0.5499
G1 X78.815 Y189.713 E0.8105
G1 X81.690 Y190.861 E1.0711
G1 X84.602 Y191.913 E1.3318
G1 X87.546 Y192.869 E1.5924
G1 X90.520 Y193.727 E1.8530
G1 X93.522 Y194.486 E2.1136
G1 X96.546 Y195.146 E2.3743
G1 X98.758 Y195.552 E2.5636
G1 X98.666 Y196.194 E2.6182
G1 X96.097 Y195.933 E2.8356
G1 X92.399 Y195.475 E3.1493
G1 X89.372 Y195.033 E3.4069
G1 X88.719 Y194.936 E3.4624
G1 X85.044 Y194.315 E3.7762
G1 X81.385 Y193.613 E4.0898
G1 X77.746 Y192.831 E4.4033
G1 X74.120 Y191.968 E4.7170
G1 X71.036 Y191.162 E4.9854
G1 X70.885 Y190.418 E5.0493
G1 X69.926 Y188.285 E5.2462
G1 X70.138 Y185.552 E5.4770
G1 X131.242 Y195.552 F4800
G92 E0.0000
G1 X133.454 Y195.146 E0.1893 F1125
G1 X136.478 Y194.486 E0.4499
G1 X139.480 Y193.727 E0.7106
G1 X142.454 Y192.869 E0.9712
G1 X145.398 Y191.913 E1.2318
G1 X148.310 Y190.861 E1.4925
G1 X151.185 Y189.713 E1.7531
G1 X154.020 Y188.470 E2.0137
G1 X156.241 Y187.409 E2.2209
G1 X156.813 Y187.135 E2.2743
G1 X159.862 Y185.552 E2.5636
G1 X160.066 Y188.174 E2.7850
G1 X159.111 Y189.932 E2.9534
G1 X158.661 Y191.241 E3.0699
G1 X155.876 Y191.969 E3.3123
G1 X155.207 Y192.129 E3.3702
G1 X152.256 Y192.831 E3.6256
G1 X148.615 Y193.613 E3.9392
G1 X144.956 Y194.315 E4.2528
G1 X141.281 Y194.936 E4.5666
G1 X140.628 Y195.033 E4.6221
G1 X137.601 Y195.475 E4.8797
G1 X133.903 Y195.933 E5.1934
G1 X131.334 Y196.194 E5.4109
G1 X131.242 Y195.552 E5.4654
G1 X130.286 Y194.965 F4800
G92 E0.0000
G1 X133.306 Y194.410 E0.2585 F1125
G1 X136.307 Y193.756 E0.5171
G1 X139.284 Y193.003 E0.7756
G1 X142.234 Y192.152 E1.0342
G1 X145.155 Y191.204 E1.2927
G1 X148.043 Y190.160 E1.5513
G1 X150.895 Y189.021 E1.8098
G1 X153.708 Y187.788 E2.0683
G1 X155.917 Y186.732 E2.2745
G1 X156.479 Y186.464 E2.3269
G1 X159.204 Y185.048 E2.5854
G1 X160.518 Y184.310 E2.7123
G1 X160.831 Y188.337 E3.0524
G1 X159.800 Y190.235 E3.2342
G1 X159.326 Y191.616 E3.3572
G1 X159.333 Y191.840 E3.3761
G1 X156.058 Y192.697 E3.6611
G1 X155.381 Y192.858 E3.7196
G1 X152.421 Y193.562 E3.9758
G1 X148.764 Y194.348 E4.2907
G1 X145.089 Y195.053 E4.6057
G1 X141.398 Y195.677 E4.9209
G1 X140.738 Y195.774 E4.9771
G1 X137.702 Y196.218 E5.2354
G1 X133.987 Y196.678 E5.5505
G1 X127.347 Y197.353 E6.1124
G1 X120.655 Y197.651 E6.6764
G1 X117.523 Y197.721 E6.9401
G1 X116.889 Y197.735 E6.9935
G1 X113.113 Y197.735 E7.3114
G1 X109.345 Y197.651 E7.6287
G1 X102.653 Y197.353 E8.1927
G1 X96.013 Y196.678 E8.7546
G1 X92.298 Y196.218 E9.0697
G1 X89.262 Y195.774 E9.3281
G1 X88.602 Y195.677 E9.3843
G1 X84.911 Y195.053 E9.6994
G1 X81.236 Y194.348 E10.0144
G1 X77.580 Y193.563 E10.3292
G1 X73.939 Y192.696 E10.6444
G1 X70.393 Y191.769 E10.9529
G1 X70.167 Y190.649 E11.0491
G1 X69.163 Y188.418 E11.2551
G1 X69.482 Y184.310 E11.6020
G1 X70.796 Y185.048 E11.7289
G1 X73.521 Y186.464 E11.9875
G1 X76.292 Y187.788 E12.2460
G1 X79.105 Y189.021 E12.5046
G1 X81.957 Y190.160 E12.7631
G1 X84.845 Y191.204 E13.0217
G1 X87.766 Y192.152 E13.2802
G1 X90.716 Y193.003 E13.5387
G1 X93.693 Y193.756 E13.7972
G1 X96.694 Y194.410 E14.0558
G1 X99.714 Y194.965 E14.3143
G1 X102.751 Y195.420 E14.5729
G1 X105.802 Y195.775 E14.8314
G1 X108.862 Y196.028 E15.0900
G1 X111.930 Y196.180 E15.3485
G1 X115.000 Y196.231 E15.6071
G1 X118.070 Y196.180 E15.8656
G1 X121.138 Y196.028 E16.1241
G1 X124.198 Y195.775 E16.3827
G1 X127.249 Y195.420 E16.6412
G1 X130.286 Y194.965 E16.8998
G1 X130.163 Y194.225 F4800
G92 E0.0000
G1 X133.158 Y193.675 E0.2564 F1125
G1 X136.135 Y193.026 E0.5129
G1 X139.088 Y192.279 E0.7693
G1 X142.015 Y191.435 E1.0258
G1 X144.912 Y190.494 E1.2822
G1 X147.777 Y189.459 E1.5387
G1 X150.605 Y188.329 E1.7952
G1 X153.396 Y187.106 E2.0516
G1 X155.594 Y186.056 E2.2568
G1 X156.144 Y185.792 E2.3081
G1 X158.847 Y184.389 E2.5645
G1 X161.175 Y183.080 E2.7894
G1 X161.595 Y188.500 E3.2470
G1 X160.489 Y190.537 E3.4422
G1 X160.080 Y191.729 E3.5483
G1 X160.102 Y192.414 E3.6060
G1 X156.240 Y193.424 E3.9421
G1 X155.555 Y193.588 E4.0014
G1 X152.587 Y194.294 E4.2583
G1 X148.913 Y195.083 E4.5746
G1 X145.223 Y195.791 E4.8910
G1 X141.516 Y196.418 E5.2075
G1 X140.848 Y196.516 E5.2643
G1 X137.802 Y196.961 E5.5235
G1 X134.071 Y197.424 E5.8400
G1 X127.402 Y198.101 E6.4044
G1 X120.680 Y198.401 E6.9708
G1 X117.540 Y198.471 E7.2353
G1 X116.897 Y198.485 E7.2894
G1 X113.105 Y198.485 E7.6087
G1 X109.320 Y198.401 E7.9274
G1 X102.598 Y198.101 E8.4939
G1 X95.929 Y197.424 E9.0583
G1 X92.198 Y196.961 E9.3747
G1 X89.152 Y196.516 E9.6339
G1 X88.485 Y196.418 E9.6907
G1 X84.777 Y195.791 E10.0072
G1 X81.087 Y195.083 E10.3236
G1 X77.414 Y194.294 E10.6399
G1 X73.757 Y193.424 E10.9564
G1 X70.123 Y192.473 E11.2726
G1 X69.648 Y192.338 E11.3142
G1 X69.665 Y191.954 E11.3465
G1 X69.448 Y190.880 E11.4388
G1 X68.401 Y188.551 E11.6538
G1 X68.825 Y183.080 E12.1158
G1 X71.153 Y184.389 E12.3406
G1 X73.856 Y185.792 E12.5971
G1 X76.604 Y187.106 E12.8535
G1 X79.395 Y188.329 E13.1100
G1 X82.223 Y189.459 E13.3664
G1 X85.088 Y190.494 E13.6229
G1 X87.985 Y191.435 E13.8793
G1 X90.912 Y192.279 E14.1358
G1 X93.865 Y193.026 E14.3923
G1 X96.842 Y193.675 E14.6487
G1 X99.837 Y194.225 E14.9052
G1 X102.850 Y194.677 E15.1616
G1 X105.876 Y195.028 E15.4181
G1 X108.912 Y195.279 E15.6745
G1 X111.954 Y195.430 E15.9310
G1 X115.000 Y195.481 E16.1875
G1 X118.046 Y195.430 E16.4439
G1 X121.088 Y195.279 E16.7004
G1 X124.124 Y195.028 E16.9568
G1 X127.150 Y194.677 E17.2133
G1 X130.163 Y194.225 E17.4697
G1 X130.039 Y193.486 F4800
G92 E0.0000
G1 X133.010 Y192.940 E0.2543 F1125
G1 X135.963 Y192.296 E0.5087
G1 X138.892 Y191.555 E0.7631
G1 X141.795 Y190.717 E1.0175
G1 X144.668 Y189.785 E1.2718
G1 X147.510 Y188.757 E1.5262
G1 X150.316 Y187.637 E1.7806
G1 X153.083 Y186.425 E2.0349
G1 X155.270 Y185.379 E2.2390
G1 X155.809 Y185.121 E2.2893
G1 X158.490 Y183.729 E2.5437
G1 X161.125 Y182.248 E2.7981
G1 X161.830 Y181.821 E2.8675
G1 X162.360 Y188.663 E3.4453
G1 X161.178 Y190.840 E3.6539
G1 X160.834 Y191.842 E3.7431
G1 X160.871 Y192.970 E3.8380
G1 X160.075 Y193.197 E3.9077
G1 X156.422 Y194.152 E4.2256
G1 X156.005 Y194.252 E4.2617
G1 X152.753 Y195.025 E4.5432
G1 X149.063 Y195.818 E4.8609
G1 X145.356 Y196.529 E5.1787
G1 X141.633 Y197.158 E5.4966
G1 X140.958 Y197.258 E5.5540
G1 X137.902 Y197.705 E5.8140
G1 X134.155 Y198.169 E6.1319
G1 X127.457 Y198.850 E6.6987
G1 X120.706 Y199.150 E7.2677
G1 X117.557 Y199.221 E7.5328
G1 X116.905 Y199.235 E7.5877
G1 X113.097 Y199.235 E7.9083
G1 X109.295 Y199.150 E8.2285
G1 X102.543 Y198.850 E8.7975
G1 X95.845 Y198.169 E9.3643
G1 X92.098 Y197.705 E9.6822
G1 X89.042 Y197.258 E9.9422
G1 X88.367 Y197.158 E9.9996
G1 X84.644 Y196.529 E10.3175
G1 X80.937 Y195.818 E10.6353
G1 X77.249 Y195.026 E10.9529
G1 X73.575 Y194.151 E11.2708
G1 X69.926 Y193.197 E11.5884
G1 X68.871 Y192.896 E11.6807
G1 X68.912 Y192.012 E11.7552
G1 X68.730 Y191.111 E11.8326
G1 X67.638 Y188.684 E12.0567
G1 X68.170 Y181.820 E12.6362
G1 X68.876 Y182.248 E12.7057
G1 X71.510 Y183.729 E12.9600
G1 X74.191 Y185.121 E13.2144
G1 X76.917 Y186.425 E13.4688
G1 X79.684 Y187.637 E13.7232
G1 X82.490 Y188.757 E13.9775
G1 X85.332 Y189.785 E14.2319
G1 X88.205 Y190.717 E14.4862
G1 X91.108 Y191.555 E14.7406
G1 X94.037 Y192.296 E14.9950
G1 X96.990 Y192.940 E15.2494
G1 X99.961 Y193.486 E15.5037
G1 X102.949 Y193.933 E15.7581
G1 X105.950 Y194.282 E16.0125
G1 X108.961 Y194.531 E16.2668
G1 X111.979 Y194.681 E16.5212
G1 X115.000 Y194.731 E16.7756
G1 X118.021 Y194.681 E17.0299
G1 X121.039 Y194.531 E17.2843
G1 X124.050 Y194.282 E17.5387
G1 X127.051 Y193.933 E17.7931
G1 X130.039 Y193.486 E18.0475
G1 X129.916 Y192.746 F4800
G92 E0.0000
G1 X132.863 Y192.204 E0.2523 F1125
G1 X135.791 Y191.566 E0.5046
G1 X138.696 Y190.831 E0.7568
G1 X141.575 Y190.000 E1.0091
G1 X144.425 Y189.075 E1.2614
G1 X147.244 Y188.056 E1.5137
G1 X150.026 Y186.945 E1.7660
G1 X152.771 Y185.743 E2.0183
G1 X154.947 Y184.702 E2.2213
G1 X155.475 Y184.450 E2.2705
G1 X158.134 Y183.069 E2.5228
G1 X160.746 Y181.601 E2.7751
G1 X162.483 Y180.547 E2.9461
G1 X163.112 Y188.659 E3.6311
G1 X163.112 Y188.829 E3.6454
G1 X163.050 Y188.965 E3.6580
G1 X161.867 Y191.143 E3.8667
G1 X161.588 Y191.956 E3.9390
G1 X161.640 Y193.530 E4.0717
G1 X160.273 Y193.920 E4.1913
G1 X156.604 Y194.880 E4.5106
G1 X155.920 Y195.043 E4.5698
G1 X152.918 Y195.757 E4.8296
G1 X149.212 Y196.553 E5.1487
G1 X145.489 Y197.267 E5.4679
G1 X141.750 Y197.899 E5.7871
G1 X141.068 Y198.000 E5.8452
G1 X138.002 Y198.448 E6.1060
G1 X134.239 Y198.914 E6.4252
G1 X128.091 Y199.539 E6.9455
G1 X128.097 Y203.334 E7.2650
G1 X127.303 Y203.334 E7.3319
G1 X127.310 Y199.607 E7.6457
G1 X120.731 Y199.900 E8.2002
G1 X117.574 Y199.971 E8.4660
G1 X116.913 Y199.985 E8.5217
G1 X113.089 Y199.985 E8.8436
G1 X109.270 Y199.900 E9.1652
G1 X102.690 Y199.607 E9.7197
G1 X102.697 Y203.334 E10.0335
G1 X101.903 Y203.334 E10.1004
G1 X101.909 Y199.539 E10.4199
G1 X95.760 Y198.914 E10.9402
G1 X91.998 Y198.448 E11.2594
G1 X88.932 Y198.000 E11.5203
G1 X88.250 Y197.899 E11.5783
G1 X84.511 Y197.267 E11.8975
G1 X80.788 Y196.553 E12.2167
G1 X77.083 Y195.757 E12.5358
G1 X73.393 Y194.879 E12.8550
G1 X69.728 Y193.921 E13.1740
G1 X67.919 Y193.405 E13.3324
G1 X68.121 Y192.885 E13.3793
G1 X68.158 Y192.070 E13.4480
G1 X68.011 Y191.342 E13.5105
G1 X66.947 Y188.975 E13.7290
G1 X66.888 Y188.812 E13.7436
G1 X66.888 Y188.655 E13.7569
G1 X67.517 Y180.547 E14.4415
G1 X69.254 Y181.600 E14.6125
G1 X71.866 Y183.069 E14.8648
G1 X74.525 Y184.450 E15.1171
G1 X77.229 Y185.743 E15.3694
G1 X79.974 Y186.945 E15.6217
G1 X82.756 Y188.056 E15.8739
G1 X85.575 Y189.075 E16.1262
G1 X88.425 Y190.000 E16.3785
G1 X91.304 Y190.831 E16.6308
G1 X94.209 Y191.566 E16.8831
G1 X97.137 Y192.204 E17.1354
G1 X100.084 Y192.746 E17.3876
G1 X103.048 Y193.190 E17.6399
G1 X106.025 Y193.535 E17.8922
G1 X109.011 Y193.782 E18.1445
G1 X112.004 Y193.931 E18.3968
G1 X115.000 Y193.980 E18.6491
G1 X117.996 Y193.931 E18.9013
G1 X120.989 Y193.782 E19.1536
G1 X123.975 Y193.535 E19.4059
G1 X126.952 Y193.190 E19.6582
G1 X129.916 Y192.746 E19.9105
G92 E0.0000
G1 E-6.0000 F1500
G1 X188.792 Y160.487 F4800
G1 E0.0000 F1500
G92 E0.0000
G1 X188.858 Y159.496 E0.0836 F1125
