; G-Code generated by Simplify3D(R) Version 4.1.2
; Apr 9, 2020 at 11:48:09 AM
; Settings Summary
;   processName,9-end
;   applyToModels,MontanaMaskFilterFrameWithFlange
;   profileName,Creality Ender 3 Pro (modified)
;   profileVersion,2019-04-06 08:00:00
;   baseProfile,
;   printMaterial,PLA
;   printQuality,MASK-2.1
;   printExtruders,
;   extruderName,Primary Extruder
;   extruderToolheadNumber,0
;   extruderDiameter,0.4
;   extruderAutoWidth,0
;   extruderWidth,0.7
;   extrusionMultiplier,0.9
;   extruderUseRetract,1
;   extruderRetractionDistance,6
;   extruderExtraRestartDistance,0
;   extruderRetractionZLift,0
;   extruderRetractionSpeed,1500
;   extruderUseCoasting,0
;   extruderCoastingDistance,0.2
;   extruderUseWipe,0
;   extruderWipeDistance,5
;   primaryExtruder,0
;   layerHeight,0.2
;   topSolidLayers,4
;   bottomSolidLayers,4
;   perimeterOutlines,3
;   printPerimetersInsideOut,0
;   startPointOption,2
;   startPointOriginX,0
;   startPointOriginY,0
;   sequentialIslands,0
;   spiralVaseMode,0
;   firstLayerHeightPercentage,120
;   firstLayerWidthPercentage,110
;   firstLayerUnderspeed,0.5
;   useRaft,0
;   raftExtruder,0
;   raftTopLayers,3
;   raftBaseLayers,2
;   raftOffset,3
;   raftSeparationDistance,0.14
;   raftTopInfill,100
;   aboveRaftSpeedMultiplier,0.3
;   useSkirt,0
;   skirtExtruder,0
;   skirtLayers,1
;   skirtOutlines,2
;   skirtOffset,4
;   usePrimePillar,0
;   primePillarExtruder,999
;   primePillarWidth,12
;   primePillarLocation,7
;   primePillarSpeedMultiplier,1
;   useOozeShield,0
;   oozeShieldExtruder,999
;   oozeShieldOffset,2
;   oozeShieldOutlines,1
;   oozeShieldSidewallShape,1
;   oozeShieldSidewallAngle,30
;   oozeShieldSpeedMultiplier,1
;   infillExtruder,0
;   internalInfillPattern,Rectilinear
;   externalInfillPattern,Rectilinear
;   infillPercentage,50
;   outlineOverlapPercentage,15
;   infillExtrusionWidthPercentage,100
;   minInfillLength,5
;   infillLayerInterval,1
;   internalInfillAngles,45,-45
;   overlapInternalInfillAngles,0
;   externalInfillAngles,45,-45
;   generateSupport,0
;   supportExtruder,0
;   supportInfillPercentage,25
;   supportExtraInflation,0
;   supportBaseLayers,0
;   denseSupportExtruder,0
;   denseSupportLayers,0
;   denseSupportInfillPercentage,70
;   supportLayerInterval,1
;   supportHorizontalPartOffset,0.3
;   supportUpperSeparationLayers,1
;   supportLowerSeparationLayers,1
;   supportType,0
;   supportGridSpacing,4
;   maxOverhangAngle,45
;   supportAngles,0
;   temperatureName,Primary Extruder,Heated Bed
;   temperatureNumber,0,0
;   temperatureSetpointCount,1,1
;   temperatureSetpointLayers,1,1
;   temperatureSetpointTemperatures,200,60
;   temperatureStabilizeAtStartup,1,1
;   temperatureHeatedBed,0,1
;   fanLayers,1,2
;   fanSpeeds,0,100
;   blipFanToFullPower,0
;   adjustSpeedForCooling,1
;   minSpeedLayerTime,15
;   minCoolingSpeedSlowdown,20
;   increaseFanForCooling,0
;   minFanLayerTime,45
;   maxCoolingFanSpeed,100
;   increaseFanForBridging,0
;   bridgingFanSpeed,100
;   use5D,1
;   relativeEdistances,0
;   allowEaxisZeroing,1
;   independentExtruderAxes,0
;   includeM10123,0
;   stickySupport,1
;   applyToolheadOffsets,0
;   gcodeXoffset,0
;   gcodeYoffset,0
;   gcodeZoffset,0
;   overrideMachineDefinition,1
;   machineTypeOverride,0
;   strokeXoverride,220
;   strokeYoverride,220
;   strokeZoverride,250
;   originOffsetXoverride,-5
;   originOffsetYoverride,-5
;   originOffsetZoverride,0
;   homeXdirOverride,-1
;   homeYdirOverride,-1
;   homeZdirOverride,-1
;   flipXoverride,1
;   flipYoverride,-1
;   flipZoverride,1
;   toolheadOffsets,0,0|0,0|0,0|0,0|0,0|0,0
;   overrideFirmwareConfiguration,1
;   firmwareTypeOverride,RepRap (Marlin/Repetier/Sprinter)
;   GPXconfigOverride,r2
;   baudRateOverride,115200
;   overridePrinterModels,1
;   printerModelsOverride
;   startingGcode,G28 ; home all axes,G1 X5 Y10 Z0.2 F3000 ; get ready to prime,G92 E0 ; reset extrusion distance,G1 X160 E15 F600 ; prime nozzle,G1 X180 F5000 ; quick wipe
;   layerChangeGcode,
;   retractionGcode,
;   toolChangeGcode,
;   endingGcode,G28 X0 ; home X axis,M106 S0 ; turn off cooling fan,M104 S0 ; turn off extruder,M140 S0 ; turn off bed,M84 ; disable motors
;   exportFileFormat,gcode
;   celebration,0
;   celebrationSong,Random Song
;   postProcessing,
;   defaultSpeed,3000
;   outlineUnderspeed,0.75
;   solidInfillUnderspeed,0.8
;   supportUnderspeed,0.8
;   rapidXYspeed,4800
;   rapidZspeed,1000
;   minBridgingArea,50
;   bridgingExtraInflation,0
;   bridgingExtrusionMultiplier,1
;   bridgingSpeedMultiplier,1
;   useFixedBridgingAngle,0
;   fixedBridgingAngle,0
;   applyBridgingToPerimeters,0
;   filamentDiameters,1.75|1.75|1.75|1.75|1.75|1.75
;   filamentPricesPerKg,25|46|46|46|46|46
;   filamentDensities,1.25|1.25|1.25|1.25|1.25|1.25
;   useMinPrintHeight,0
;   minPrintHeight,9
;   useMaxPrintHeight,0
;   maxPrintHeight,9
;   useDiaphragm,0
;   diaphragmLayerInterval,20
;   robustSlicing,1
;   mergeAllIntoSolid,0
;   onlyRetractWhenCrossingOutline,1
;   retractBetweenLayers,1
;   useRetractionMinTravel,0
;   retractionMinTravel,3
;   retractWhileWiping,0
;   onlyWipeOutlines,1
;   avoidCrossingOutline,0
;   maxMovementDetourFactor,3
;   toolChangeRetractionDistance,12
;   toolChangeExtraRestartDistance,-0.5
;   toolChangeRetractionSpeed,600
;   externalThinWallType,0
;   internalThinWallType,2
;   thinWallAllowedOverlapPercentage,10
;   singleExtrusionMinLength,1
;   singleExtrusionMinPrintingWidthPercentage,50
;   singleExtrusionMaxPrintingWidthPercentage,200
;   singleExtrusionEndpointExtension,0.2
;   horizontalSizeCompensation,0
G90
M82
M106 S0
M140 S60
M190 S60
M104 S200 T0
M109 S200 T0
G28 ; home all axes
G1 X5 Y10 Z0.2 F3000 ; get ready to prime
G92 E0 ; reset extrusion distance
G1 X160 E15 F600 ; prime nozzle
G1 X180 F5000 ; quick wipe
; process 9-end
; layer 1, Z = 0.240
T0
G92 E0.0000
G1 E-6.0000 F1500
; feature outer perimeter
; tool H0.240 W0.770
G1 Z0.240 F1000
G1 X148.903 Y52.347 F4800
G1 E0.0000 F1500
G92 E0.0000
G1 X149.029 Y52.043 E0.0228 F1125
G1 X149.177 Y51.748 E0.0456
G1 X149.345 Y51.464 E0.0684
G1 X149.533 Y51.193 E0.0912
G1 X149.740 Y50.936 E0.1140
G1 X149.965 Y50.695 E0.1368
G1 X150.206 Y50.470 E0.1596
G1 X150.463 Y50.263 E0.1824
G1 X150.734 Y50.075 E0.2052
G1 X151.017 Y49.907 E0.2280
G1 X151.312 Y49.759 E0.2508
G1 X151.617 Y49.633 E0.2736
G1 X151.930 Y49.529 E0.2964
G1 X152.249 Y49.447 E0.3192
G1 X152.574 Y49.389 E0.3420
G1 X152.902 Y49.354 E0.3649
G1 X153.238 Y49.342 E0.3881
G1 X191.262 Y49.342 E3.0174
G1 X191.599 Y49.354 E3.0407
G1 X191.927 Y49.389 E3.0635
G1 X192.251 Y49.447 E3.0863
G1 X192.571 Y49.529 E3.1091
G1 X192.884 Y49.633 E3.1319
G1 X193.188 Y49.759 E3.1547
G1 X193.483 Y49.907 E3.1775
G1 X193.767 Y50.075 E3.2003
G1 X194.038 Y50.263 E3.2231
G1 X194.295 Y50.470 E3.2459
G1 X194.536 Y50.695 E3.2687
G1 X194.761 Y50.936 E3.2915
G1 X194.967 Y51.193 E3.3143
G1 X195.156 Y51.464 E3.3372
G1 X195.324 Y51.748 E3.3599
G1 X195.471 Y52.043 E3.3828
G1 X195.598 Y52.347 E3.4056
G1 X195.702 Y52.660 E3.4284
G1 X195.783 Y52.980 E3.4512
G1 X195.842 Y53.304 E3.4740
G1 X195.877 Y53.632 E3.4968
G1 X195.889 Y53.969 E3.5201
G1 X195.889 Y91.993 E6.1493
G1 X195.877 Y92.329 E6.1726
G1 X195.842 Y92.657 E6.1954
G1 X195.783 Y92.982 E6.2182
G1 X195.702 Y93.301 E6.2410
G1 X195.598 Y93.614 E6.2638
G1 X195.471 Y93.919 E6.2867
G1 X195.324 Y94.214 E6.3094
G1 X195.156 Y94.497 E6.3323
G1 X194.967 Y94.768 E6.3551
G1 X194.761 Y95.025 E6.3779
G1 X194.536 Y95.266 E6.4007
G1 X194.295 Y95.491 E6.4235
G1 X194.038 Y95.698 E6.4463
G1 X193.767 Y95.886 E6.4691
G1 X193.483 Y96.054 E6.4919
G1 X193.188 Y96.202 E6.5147
G1 X192.884 Y96.328 E6.5375
G1 X192.571 Y96.432 E6.5603
G1 X192.251 Y96.514 E6.5831
G1 X191.927 Y96.572 E6.6059
G1 X191.599 Y96.608 E6.6287
G1 X191.262 Y96.620 E6.6520
G1 X153.238 Y96.620 E9.2813
G1 X152.901 Y96.608 E9.3046
G1 X152.574 Y96.572 E9.3274
G1 X152.249 Y96.514 E9.3501
G1 X151.930 Y96.432 E9.3730
G1 X151.617 Y96.328 E9.3958
G1 X151.312 Y96.202 E9.4186
G1 X151.017 Y96.054 E9.4414
G1 X150.734 Y95.886 E9.4642
G1 X150.463 Y95.698 E9.4870
G1 X150.206 Y95.491 E9.5098
G1 X149.964 Y95.266 E9.5326
G1 X149.740 Y95.025 E9.5554
G1 X149.533 Y94.768 E9.5782
G1 X149.345 Y94.497 E9.6010
G1 X149.176 Y94.214 E9.6238
G1 X149.029 Y93.919 E9.6466
G1 X148.903 Y93.614 E9.6694
G1 X148.799 Y93.301 E9.6922
G1 X148.717 Y92.982 E9.7150
G1 X148.658 Y92.657 E9.7378
G1 X148.623 Y92.329 E9.7606
G1 X148.611 Y91.993 E9.7839
G1 X148.611 Y53.968 E12.4132
G1 X148.623 Y53.632 E12.4365
G1 X148.658 Y53.304 E12.4593
G1 X148.717 Y52.980 E12.4821
G1 X148.799 Y52.660 E12.5049
G1 X148.903 Y52.347 E12.5277
; feature inner perimeter
G1 X149.625 Y52.616 F4800
G92 E0.0000
G1 X149.730 Y52.363 E0.0190 F1313
G1 X149.853 Y52.117 E0.0380
G1 X149.993 Y51.881 E0.0570
G1 X150.150 Y51.655 E0.0760
G1 X150.322 Y51.441 E0.0950
G1 X150.509 Y51.240 E0.1140
G1 X150.710 Y51.053 E0.1330
G1 X150.924 Y50.880 E0.1520
G1 X151.150 Y50.723 E0.1710
G1 X151.386 Y50.583 E0.1900
G1 X151.632 Y50.460 E0.2090
G1 X151.886 Y50.355 E0.2280
G1 X152.147 Y50.268 E0.2470
G1 X152.413 Y50.200 E0.2660
G1 X152.683 Y50.152 E0.2850
G1 X152.957 Y50.122 E0.3040
G1 X153.252 Y50.112 E0.3244
G1 X191.249 Y50.112 E2.9518
G1 X191.544 Y50.122 E2.9723
G1 X191.817 Y50.152 E2.9913
G1 X192.087 Y50.200 E3.0103
G1 X192.354 Y50.268 E3.0293
G1 X192.614 Y50.355 E3.0482
G1 X192.868 Y50.460 E3.0673
G1 X193.114 Y50.583 E3.0863
G1 X193.350 Y50.723 E3.1052
G1 X193.576 Y50.880 E3.1243
G1 X193.790 Y51.052 E3.1432
G1 X193.991 Y51.240 E3.1622
G1 X194.178 Y51.441 E3.1813
G1 X194.351 Y51.655 E3.2003
G1 X194.507 Y51.881 E3.2193
G1 X194.648 Y52.117 E3.2383
G1 X194.770 Y52.362 E3.2572
G1 X194.876 Y52.617 E3.2763
G1 X194.963 Y52.877 E3.2953
G1 X195.030 Y53.143 E3.3143
G1 X195.079 Y53.414 E3.3333
G1 X195.109 Y53.687 E3.3523
G1 X195.119 Y53.982 E3.3727
G1 X195.119 Y91.979 E6.0001
G1 X195.109 Y92.274 E6.0205
G1 X195.079 Y92.547 E6.0395
G1 X195.030 Y92.818 E6.0585
G1 X194.963 Y93.084 E6.0775
G1 X194.876 Y93.345 E6.0965
G1 X194.771 Y93.599 E6.1155
G1 X194.648 Y93.844 E6.1345
G1 X194.507 Y94.081 E6.1535
G1 X194.351 Y94.306 E6.1725
G1 X194.178 Y94.520 E6.1915
G1 X193.991 Y94.721 E6.2105
G1 X193.790 Y94.909 E6.2295
G1 X193.576 Y95.081 E6.2485
G1 X193.350 Y95.238 E6.2675
G1 X193.114 Y95.378 E6.2865
G1 X192.868 Y95.501 E6.3055
G1 X192.614 Y95.606 E6.3245
G1 X192.354 Y95.693 E6.3435
G1 X192.087 Y95.761 E6.3625
G1 X191.817 Y95.810 E6.3815
G1 X191.544 Y95.839 E6.4005
G1 X191.249 Y95.850 E6.4209
G1 X153.252 Y95.850 E9.0483
G1 X152.957 Y95.839 E9.0687
G1 X152.683 Y95.810 E9.0878
G1 X152.413 Y95.761 E9.1068
G1 X152.147 Y95.693 E9.1258
G1 X151.886 Y95.606 E9.1448
G1 X151.632 Y95.501 E9.1638
G1 X151.386 Y95.378 E9.1828
G1 X151.150 Y95.238 E9.2018
G1 X150.924 Y95.081 E9.2208
G1 X150.710 Y94.909 E9.2398
G1 X150.509 Y94.721 E9.2588
G1 X150.322 Y94.520 E9.2778
G1 X150.150 Y94.306 E9.2968
G1 X149.993 Y94.081 E9.3158
G1 X149.853 Y93.844 E9.3348
G1 X149.730 Y93.599 E9.3538
G1 X149.625 Y93.345 E9.3728
G1 X149.538 Y93.084 E9.3918
G1 X149.470 Y92.818 E9.4108
G1 X149.421 Y92.547 E9.4298
G1 X149.392 Y92.274 E9.4488
G1 X149.381 Y91.979 E9.4692
G1 X149.381 Y53.982 E12.0966
G1 X149.392 Y53.687 E12.1170
G1 X149.421 Y53.414 E12.1360
G1 X149.470 Y53.143 E12.1550
G1 X149.538 Y52.877 E12.1740
G1 X149.625 Y52.616 E12.1930
; feature outer perimeter
G1 X152.299 Y53.623 F4800
G92 E0.0000
G1 X152.246 Y53.928 E0.0214 F1125
G1 X152.246 Y72.164 E1.2825
G1 X171.434 Y72.164 E2.6093
G1 X171.434 Y52.976 E3.9361
G1 X153.197 Y52.976 E5.1971
G1 X152.892 Y53.030 E5.2186
G1 X152.609 Y53.193 E5.2412
G1 X152.463 Y53.339 E5.2555
G1 X152.299 Y53.623 E5.2781
G1 X152.246 Y73.797 F4800
G92 E0.0000
G1 X152.246 Y92.033 E1.2610 F1125
G1 X152.299 Y92.339 E1.2825
G1 X152.472 Y92.637 E1.3063
G1 X152.722 Y92.847 E1.3289
G1 X152.909 Y92.934 E1.3431
G1 X153.197 Y92.985 E1.3634
G1 X171.434 Y92.985 E2.6244
G1 X171.434 Y73.797 E3.9512
G1 X152.246 Y73.797 E5.2781
G1 X173.066 Y73.797 F4800
G92 E0.0000
G1 X173.066 Y92.985 E1.3268 F1125
G1 X191.303 Y92.985 E2.5878
G1 X191.608 Y92.931 E2.6093
G1 X191.907 Y92.759 E2.6331
G1 X192.117 Y92.509 E2.6557
G1 X192.204 Y92.322 E2.6700
G1 X192.255 Y92.033 E2.6902
G1 X192.255 Y73.797 E3.9512
G1 X173.066 Y73.797 E5.2781
G1 X173.066 Y72.164 F4800
G92 E0.0000
G1 X192.255 Y72.164 E1.3268 F1125
G1 X192.255 Y53.928 E2.5879
G1 X192.201 Y53.622 E2.6093
G1 X192.037 Y53.339 E2.6319
G1 X191.892 Y53.193 E2.6462
G1 X191.608 Y53.030 E2.6688
G1 X191.303 Y52.976 E2.6902
G1 X173.066 Y52.976 E3.9513
G1 X173.066 Y72.164 E5.2781
G92 E0.0000
G1 E-6.0000 F1500
; feature inner perimeter
G1 X191.370 Y52.206 F4800
G1 E0.0000 F1500
G92 E0.0000
G1 X153.130 Y52.206 E2.6442 F1313
G1 X152.625 Y52.295 E2.6797
G1 X152.136 Y52.577 E2.7187
G1 X151.847 Y52.866 E2.7470
G1 X151.565 Y53.355 E2.7860
G1 X151.476 Y53.861 E2.8215
G1 X151.476 Y92.101 E5.4657
G1 X151.565 Y92.606 E5.5012
G1 X151.873 Y93.140 E5.5438
G1 X152.305 Y93.502 E5.5828
G1 X152.675 Y93.675 E5.6111
G1 X153.130 Y93.755 E5.6430
G1 X191.370 Y93.755 E8.2872
G1 X191.876 Y93.666 E8.3227
G1 X192.409 Y93.358 E8.3653
G1 X192.772 Y92.926 E8.4043
G1 X192.945 Y92.555 E8.4326
G1 X193.025 Y92.101 E8.4645
G1 X193.025 Y53.861 E11.1088
G1 X192.936 Y53.355 E11.1443
G1 X192.654 Y52.866 E11.1833
G1 X192.365 Y52.577 E11.2115
G1 X191.876 Y52.295 E11.2506
G1 X191.370 Y52.206 E11.2861
; feature gap fill
; tool H0.240 W0.700
G1 X193.252 Y51.415 F4800
G92 E0.0000
G1 X193.816 Y51.978 E0.0501 F1500
G1 X193.854 Y52.026 E0.0540
G1 X193.986 Y52.216 E0.0684
G1 X194.104 Y52.414 E0.0829
G1 X194.207 Y52.620 E0.0974
G1 X194.295 Y52.833 E0.1119
G1 X194.368 Y53.052 E0.1264
G1 X194.425 Y53.275 E0.1409
G1 X194.466 Y53.502 E0.1554
G1 X194.480 Y53.632 E0.1636
G1 X191.599 Y50.751 E0.4198
G1 X191.500 Y50.740 E0.4260
G1 X191.237 Y50.731 E0.4425
G1 X190.589 Y50.731 E0.4833
G1 X191.448 Y51.591 E0.5597
G1 X191.424 Y51.587 E0.5612
G1 X190.454 Y51.587 E0.6222
G1 X189.599 Y50.731 E0.6983
G1 X188.609 Y50.731 E0.7605
G1 X189.464 Y51.587 E0.8366
G1 X188.474 Y51.587 E0.8988
G1 X187.619 Y50.731 E0.9748
G1 X186.629 Y50.731 E1.0371
G1 X187.484 Y51.587 E1.1131
G1 X186.494 Y51.587 E1.1753
G1 X185.639 Y50.731 E1.2514
G1 X184.649 Y50.731 E1.3136
G1 X185.504 Y51.587 E1.3897
G1 X184.514 Y51.587 E1.4519
G1 X183.659 Y50.731 E1.5279
G1 X182.669 Y50.731 E1.5902
G1 X183.524 Y51.587 E1.6662
G1 X182.534 Y51.587 E1.7284
G1 X181.679 Y50.731 E1.8045
G1 X180.689 Y50.731 E1.8667
G1 X181.545 Y51.587 E1.9428
G1 X180.555 Y51.587 E2.0050
G1 X179.699 Y50.731 E2.0810
G1 X178.709 Y50.731 E2.1433
G1 X179.565 Y51.587 E2.2193
G1 X178.575 Y51.587 E2.2815
G1 X177.719 Y50.731 E2.3576
G1 X176.729 Y50.731 E2.4198
G1 X177.585 Y51.587 E2.4959
G1 X176.595 Y51.587 E2.5581
G1 X175.739 Y50.731 E2.6341
G1 X174.749 Y50.731 E2.6964
G1 X175.605 Y51.587 E2.7724
G1 X174.615 Y51.587 E2.8346
G1 X173.759 Y50.731 E2.9107
G1 X172.770 Y50.731 E2.9729
G1 X173.625 Y51.587 E3.0490
G1 X172.635 Y51.587 E3.1112
G1 X171.780 Y50.731 E3.1872
G1 X170.790 Y50.731 E3.2495
G1 X171.645 Y51.587 E3.3255
G1 X170.655 Y51.587 E3.3877
G1 X169.800 Y50.731 E3.4638
G1 X168.810 Y50.731 E3.5260
G1 X169.665 Y51.587 E3.6021
G1 X168.675 Y51.587 E3.6643
G1 X167.820 Y50.731 E3.7403
G1 X166.830 Y50.731 E3.8026
G1 X167.685 Y51.587 E3.8786
G1 X166.695 Y51.587 E3.9408
G1 X165.840 Y50.731 E4.0169
G1 X164.850 Y50.731 E4.0791
G1 X165.705 Y51.587 E4.1552
G1 X164.715 Y51.587 E4.2174
G1 X163.860 Y50.731 E4.2934
G1 X162.870 Y50.731 E4.3557
G1 X163.725 Y51.587 E4.4317
G1 X162.735 Y51.587 E4.4939
G1 X161.880 Y50.731 E4.5700
G1 X160.890 Y50.731 E4.6322
G1 X161.746 Y51.587 E4.7083
G1 X160.756 Y51.587 E4.7705
G1 X159.900 Y50.731 E4.8465
G1 X158.910 Y50.731 E4.9088
G1 X159.766 Y51.587 E4.9848
G1 X158.776 Y51.587 E5.0471
G1 X157.920 Y50.731 E5.1231
G1 X156.930 Y50.731 E5.1853
G1 X157.786 Y51.587 E5.2614
G1 X156.796 Y51.587 E5.3236
G1 X155.940 Y50.731 E5.3996
G1 X154.950 Y50.731 E5.4619
G1 X155.806 Y51.587 E5.5379
G1 X154.816 Y51.587 E5.6002
G1 X153.960 Y50.731 E5.6762
G1 X153.263 Y50.731 E5.7200
G1 X153.001 Y50.740 E5.7365
G1 X152.982 Y50.743 E5.7377
G1 X153.826 Y51.587 E5.8128
