; G-Code generated by Simplify3D(R) Version 4.1.2
; Apr 9, 2020 at 2:17:08 PM
; Settings Summary
;   processName,9-end
;   applyToModels,MontanaMaskFilterFrameWithFlange
;   profileName,Creality Ender 3 Pro (modified)
;   profileVersion,2019-04-06 08:00:00
;   baseProfile,
;   printMaterial,PLA
;   printQuality,MASK-2.1
;   printExtruders,
;   extruderName,Primary Extruder
;   extruderToolheadNumber,0
;   extruderDiameter,0.4
;   extruderAutoWidth,0
;   extruderWidth,0.7
;   extrusionMultiplier,0.9
;   extruderUseRetract,1
;   extruderRetractionDistance,6
;   extruderExtraRestartDistance,0
;   extruderRetractionZLift,0
;   extruderRetractionSpeed,1500
;   extruderUseCoasting,0
;   extruderCoastingDistance,0.2
;   extruderUseWipe,0
;   extruderWipeDistance,5
;   primaryExtruder,0
;   layerHeight,0.2
;   topSolidLayers,4
;   bottomSolidLayers,4
;   perimeterOutlines,3
;   printPerimetersInsideOut,0
;   startPointOption,2
;   startPointOriginX,0
;   startPointOriginY,0
;   sequentialIslands,0
;   spiralVaseMode,0
;   firstLayerHeightPercentage,120
;   firstLayerWidthPercentage,110
;   firstLayerUnderspeed,0.5
;   useRaft,0
;   raftExtruder,0
;   raftTopLayers,3
;   raftBaseLayers,2
;   raftOffset,3
;   raftSeparationDistance,0.14
;   raftTopInfill,100
;   aboveRaftSpeedMultiplier,0.3
;   useSkirt,0
;   skirtExtruder,0
;   skirtLayers,1
;   skirtOutlines,2
;   skirtOffset,4
;   usePrimePillar,0
;   primePillarExtruder,999
;   primePillarWidth,12
;   primePillarLocation,7
;   primePillarSpeedMultiplier,1
;   useOozeShield,0
;   oozeShieldExtruder,999
;   oozeShieldOffset,2
;   oozeShieldOutlines,1
;   oozeShieldSidewallShape,1
;   oozeShieldSidewallAngle,30
;   oozeShieldSpeedMultiplier,1
;   infillExtruder,0
;   internalInfillPattern,Rectilinear
;   externalInfillPattern,Rectilinear
;   infillPercentage,50
;   outlineOverlapPercentage,15
;   infillExtrusionWidthPercentage,100
;   minInfillLength,5
;   infillLayerInterval,1
;   internalInfillAngles,45,-45
;   overlapInternalInfillAngles,0
;   externalInfillAngles,45,-45
;   generateSupport,0
;   supportExtruder,0
;   supportInfillPercentage,25
;   supportExtraInflation,0
;   supportBaseLayers,0
;   denseSupportExtruder,0
;   denseSupportLayers,0
;   denseSupportInfillPercentage,70
;   supportLayerInterval,1
;   supportHorizontalPartOffset,0.3
;   supportUpperSeparationLayers,1
;   supportLowerSeparationLayers,1
;   supportType,0
;   supportGridSpacing,4
;   maxOverhangAngle,45
;   supportAngles,0
;   temperatureName,Primary Extruder,Heated Bed
;   temperatureNumber,0,0
;   temperatureSetpointCount,1,1
;   temperatureSetpointLayers,1,1
;   temperatureSetpointTemperatures,200,60
;   temperatureStabilizeAtStartup,1,1
;   temperatureHeatedBed,0,1
;   fanLayers,1,2
;   fanSpeeds,0,100
;   blipFanToFullPower,0
;   adjustSpeedForCooling,1
;   minSpeedLayerTime,15
;   minCoolingSpeedSlowdown,20
;   increaseFanForCooling,0
;   minFanLayerTime,45
;   maxCoolingFanSpeed,100
;   increaseFanForBridging,0
;   bridgingFanSpeed,100
;   use5D,1
;   relativeEdistances,0
;   allowEaxisZeroing,1
;   independentExtruderAxes,0
;   includeM10123,0
;   stickySupport,1
;   applyToolheadOffsets,0
;   gcodeXoffset,0
;   gcodeYoffset,0
;   gcodeZoffset,0
;   overrideMachineDefinition,1
;   machineTypeOverride,0
;   strokeXoverride,220
;   strokeYoverride,220
;   strokeZoverride,250
;   originOffsetXoverride,-5
;   originOffsetYoverride,-5
;   originOffsetZoverride,0
;   homeXdirOverride,-1
;   homeYdirOverride,-1
;   homeZdirOverride,-1
;   flipXoverride,1
;   flipYoverride,-1
;   flipZoverride,1
;   toolheadOffsets,0,0|0,0|0,0|0,0|0,0|0,0
;   overrideFirmwareConfiguration,1
;   firmwareTypeOverride,RepRap (Marlin/Repetier/Sprinter)
;   GPXconfigOverride,r2
;   baudRateOverride,115200
;   overridePrinterModels,1
;   printerModelsOverride
;   startingGcode,G28 ; home all axes,G1 X5 Y10 Z0.2 F3000 ; get ready to prime,G92 E0 ; reset extrusion distance,G1 X160 E15 F600 ; prime nozzle,G1 X180 F5000 ; quick wipe
;   layerChangeGcode,
;   retractionGcode,
;   toolChangeGcode,
;   endingGcode,G28 X0 ; home X axis,M106 S0 ; turn off cooling fan,M104 S0 ; turn off extruder,M140 S0 ; turn off bed,M84 ; disable motors
;   exportFileFormat,gcode
;   celebration,0
;   celebrationSong,Random Song
;   postProcessing,
;   defaultSpeed,3000
;   outlineUnderspeed,0.75
;   solidInfillUnderspeed,0.8
;   supportUnderspeed,0.8
;   rapidXYspeed,4800
;   rapidZspeed,1000
;   minBridgingArea,50
;   bridgingExtraInflation,0
;   bridgingExtrusionMultiplier,1
;   bridgingSpeedMultiplier,1
;   useFixedBridgingAngle,0
;   fixedBridgingAngle,0
;   applyBridgingToPerimeters,0
;   filamentDiameters,1.75|1.75|1.75|1.75|1.75|1.75
;   filamentPricesPerKg,25|46|46|46|46|46
;   filamentDensities,1.25|1.25|1.25|1.25|1.25|1.25
;   useMinPrintHeight,0
;   minPrintHeight,9
;   useMaxPrintHeight,0
;   maxPrintHeight,9
;   useDiaphragm,0
;   diaphragmLayerInterval,20
;   robustSlicing,1
;   mergeAllIntoSolid,0
;   onlyRetractWhenCrossingOutline,1
;   retractBetweenLayers,1
;   useRetractionMinTravel,0
;   retractionMinTravel,3
;   retractWhileWiping,0
;   onlyWipeOutlines,1
;   avoidCrossingOutline,0
;   maxMovementDetourFactor,3
;   toolChangeRetractionDistance,12
;   toolChangeExtraRestartDistance,-0.5
;   toolChangeRetractionSpeed,600
;   externalThinWallType,0
;   internalThinWallType,2
;   thinWallAllowedOverlapPercentage,10
;   singleExtrusionMinLength,1
;   singleExtrusionMinPrintingWidthPercentage,50
;   singleExtrusionMaxPrintingWidthPercentage,200
;   singleExtrusionEndpointExtension,0.2
;   horizontalSizeCompensation,0
G90
M82
M106 S0
M140 S60
M190 S60
M104 S200 T0
M109 S200 T0
G28 ; home all axes
G1 X5 Y10 Z0.2 F3000 ; get ready to prime
G92 E0 ; reset extrusion distance
G1 X160 E15 F600 ; prime nozzle
G1 X180 F5000 ; quick wipe
; process 9-end
; layer 1, Z = 0.240
T0
G92 E0.0000
G1 E-6.0000 F1500
; feature outer perimeter
; tool H0.240 W0.770
G1 Z0.240 F1000
G1 X148.690 Y52.160 F4800
G1 E0.0000 F1500
G92 E0.0000
G1 X148.817 Y51.853 E0.0230 F1125
G1 X148.966 Y51.555 E0.0460
G1 X149.136 Y51.269 E0.0691
G1 X149.326 Y50.995 E0.0921
G1 X149.535 Y50.736 E0.1151
G1 X149.762 Y50.492 E0.1382
G1 X150.005 Y50.265 E0.1612
G1 X150.265 Y50.056 E0.1842
G1 X150.538 Y49.866 E0.2072
G1 X150.825 Y49.697 E0.2302
G1 X151.122 Y49.547 E0.2533
G1 X151.430 Y49.420 E0.2763
G1 X151.746 Y49.315 E0.2993
G1 X152.069 Y49.232 E0.3224
G1 X152.396 Y49.173 E0.3454
G1 X152.727 Y49.138 E0.3684
G1 X153.067 Y49.126 E0.3919
G1 X191.433 Y49.126 E3.0449
G1 X191.773 Y49.138 E3.0684
G1 X192.104 Y49.173 E3.0914
G1 X192.432 Y49.232 E3.1144
G1 X192.754 Y49.315 E3.1374
G1 X193.070 Y49.420 E3.1605
G1 X193.378 Y49.547 E3.1835
G1 X193.676 Y49.697 E3.2065
G1 X193.962 Y49.866 E3.2295
G1 X194.236 Y50.056 E3.2526
G1 X194.495 Y50.265 E3.2756
G1 X194.739 Y50.492 E3.2986
G1 X194.965 Y50.736 E3.3216
G1 X195.175 Y50.995 E3.3447
G1 X195.364 Y51.269 E3.3677
G1 X195.534 Y51.555 E3.3907
G1 X195.683 Y51.853 E3.4137
G1 X195.811 Y52.160 E3.4368
G1 X195.916 Y52.476 E3.4598
G1 X195.998 Y52.799 E3.4828
G1 X196.057 Y53.127 E3.5058
G1 X196.093 Y53.458 E3.5289
G1 X196.105 Y53.798 E3.5524
G1 X196.105 Y92.164 E6.2053
G1 X196.093 Y92.504 E6.2288
G1 X196.057 Y92.834 E6.2518
G1 X195.998 Y93.162 E6.2749
G1 X195.916 Y93.485 E6.2979
G1 X195.811 Y93.801 E6.3209
G1 X195.683 Y94.108 E6.3439
G1 X195.534 Y94.406 E6.3670
G1 X195.364 Y94.693 E6.3900
G1 X195.175 Y94.966 E6.4130
G1 X194.966 Y95.225 E6.4360
G1 X194.739 Y95.469 E6.4591
G1 X194.495 Y95.696 E6.4821
G1 X194.236 Y95.905 E6.5051
G1 X193.962 Y96.095 E6.5281
G1 X193.676 Y96.265 E6.5512
G1 X193.378 Y96.414 E6.5742
G1 X193.070 Y96.541 E6.5972
G1 X192.754 Y96.646 E6.6202
G1 X192.432 Y96.729 E6.6433
G1 X192.104 Y96.788 E6.6663
G1 X191.773 Y96.823 E6.6893
G1 X191.433 Y96.836 E6.7128
G1 X153.067 Y96.836 E9.3658
G1 X152.727 Y96.823 E9.3893
G1 X152.396 Y96.788 E9.4123
G1 X152.068 Y96.729 E9.4353
G1 X151.746 Y96.646 E9.4583
G1 X151.430 Y96.541 E9.4814
G1 X151.122 Y96.414 E9.5044
G1 X150.825 Y96.265 E9.5274
G1 X150.538 Y96.095 E9.5504
G1 X150.265 Y95.905 E9.5735
G1 X150.005 Y95.696 E9.5965
G1 X149.762 Y95.469 E9.6195
G1 X149.535 Y95.225 E9.6426
G1 X149.326 Y94.966 E9.6656
G1 X149.136 Y94.693 E9.6886
G1 X148.966 Y94.406 E9.7116
G1 X148.817 Y94.108 E9.7347
G1 X148.690 Y93.801 E9.7577
G1 X148.584 Y93.485 E9.7807
G1 X148.502 Y93.162 E9.8037
G1 X148.443 Y92.834 E9.8268
G1 X148.407 Y92.503 E9.8498
G1 X148.395 Y92.164 E9.8733
G1 X148.395 Y53.797 E12.5262
G1 X148.407 Y53.458 E12.5497
G1 X148.443 Y53.127 E12.5728
G1 X148.502 Y52.799 E12.5958
G1 X148.584 Y52.476 E12.6188
G1 X148.690 Y52.160 E12.6418
; feature inner perimeter
G1 X149.411 Y52.430 F4800
G92 E0.0000
G1 X149.518 Y52.173 E0.0192 F1313
G1 X149.642 Y51.924 E0.0384
G1 X149.784 Y51.685 E0.0577
G1 X149.943 Y51.457 E0.0769
G1 X150.117 Y51.240 E0.0961
G1 X150.306 Y51.037 E0.1153
G1 X150.510 Y50.848 E0.1345
G1 X150.726 Y50.673 E0.1538
G1 X150.955 Y50.515 E0.1730
G1 X151.194 Y50.373 E0.1922
G1 X151.442 Y50.248 E0.2114
G1 X151.699 Y50.142 E0.2307
G1 X151.963 Y50.054 E0.2499
G1 X152.232 Y49.985 E0.2691
G1 X152.506 Y49.936 E0.2883
G1 X152.782 Y49.906 E0.3076
G1 X153.081 Y49.896 E0.3282
G1 X191.420 Y49.896 E2.9792
G1 X191.718 Y49.906 E2.9999
G1 X191.994 Y49.936 E3.0191
G1 X192.268 Y49.985 E3.0383
G1 X192.537 Y50.054 E3.0576
G1 X192.801 Y50.142 E3.0768
G1 X193.058 Y50.248 E3.0960
G1 X193.306 Y50.373 E3.1152
G1 X193.546 Y50.515 E3.1345
G1 X193.774 Y50.673 E3.1537
G1 X193.990 Y50.848 E3.1729
G1 X194.194 Y51.037 E3.1921
G1 X194.383 Y51.240 E3.2113
G1 X194.558 Y51.457 E3.2306
G1 X194.716 Y51.685 E3.2498
G1 X194.858 Y51.924 E3.2690
G1 X194.982 Y52.173 E3.2882
G1 X195.089 Y52.430 E3.3075
G1 X195.177 Y52.694 E3.3267
G1 X195.245 Y52.963 E3.3459
G1 X195.295 Y53.236 E3.3651
G1 X195.325 Y53.513 E3.3843
G1 X195.335 Y53.811 E3.4050
G1 X195.335 Y92.150 E6.0560
G1 X195.325 Y92.448 E6.0767
G1 X195.295 Y92.725 E6.0959
G1 X195.245 Y92.998 E6.1151
G1 X195.177 Y93.268 E6.1343
G1 X195.089 Y93.532 E6.1536
G1 X194.983 Y93.788 E6.1728
G1 X194.858 Y94.037 E6.1920
G1 X194.716 Y94.276 E6.2112
G1 X194.558 Y94.504 E6.2305
G1 X194.383 Y94.721 E6.2497
G1 X194.194 Y94.924 E6.2689
G1 X193.990 Y95.114 E6.2881
G1 X193.774 Y95.288 E6.3073
G1 X193.546 Y95.447 E6.3266
G1 X193.307 Y95.588 E6.3458
G1 X193.058 Y95.713 E6.3650
G1 X192.801 Y95.819 E6.3842
G1 X192.537 Y95.907 E6.4035
G1 X192.268 Y95.976 E6.4227
G1 X191.994 Y96.025 E6.4419
G1 X191.718 Y96.055 E6.4611
G1 X191.420 Y96.066 E6.4818
G1 X153.081 Y96.066 E9.1328
G1 X152.782 Y96.055 E9.1535
G1 X152.506 Y96.025 E9.1727
G1 X152.232 Y95.976 E9.1919
G1 X151.963 Y95.907 E9.2111
G1 X151.699 Y95.819 E9.2304
G1 X151.442 Y95.713 E9.2496
G1 X151.194 Y95.589 E9.2688
G1 X150.955 Y95.447 E9.2880
G1 X150.726 Y95.288 E9.3073
G1 X150.510 Y95.114 E9.3265
G1 X150.307 Y94.924 E9.3457
G1 X150.117 Y94.721 E9.3649
G1 X149.943 Y94.504 E9.3841
G1 X149.784 Y94.276 E9.4034
G1 X149.642 Y94.037 E9.4226
G1 X149.518 Y93.788 E9.4418
G1 X149.411 Y93.532 E9.4610
G1 X149.324 Y93.268 E9.4803
G1 X149.255 Y92.999 E9.4995
G1 X149.206 Y92.725 E9.5187
G1 X149.176 Y92.448 E9.5379
G1 X149.165 Y92.150 E9.5586
G1 X149.165 Y53.811 E12.2096
G1 X149.176 Y53.513 E12.2302
G1 X149.206 Y53.236 E12.2495
G1 X149.255 Y52.963 E12.2687
G1 X149.324 Y52.694 E12.2879
G1 X149.411 Y52.430 E12.3072
; feature outer perimeter
G1 X152.123 Y53.450 F4800
G92 E0.0000
G1 X152.069 Y53.757 E0.0216 F1125
G1 X152.069 Y72.154 E1.2937
G1 X171.423 Y72.154 E2.6320
G1 X171.423 Y52.800 E3.9702
G1 X153.026 Y52.800 E5.2423
G1 X152.736 Y52.851 E5.2627
G1 X152.548 Y52.938 E5.2770
G1 X152.296 Y53.150 E5.2998
G1 X152.123 Y53.450 E5.3237
G1 X152.069 Y73.808 F4800
G92 E0.0000
G1 X152.069 Y92.204 E1.2721 F1125
G1 X152.123 Y92.512 E1.2937
G1 X152.296 Y92.811 E1.3176
G1 X152.548 Y93.023 E1.3404
G1 X152.736 Y93.110 E1.3547
G1 X153.026 Y93.162 E1.3751
G1 X171.423 Y93.162 E2.6472
G1 X171.423 Y73.808 E3.9854
G1 X152.069 Y73.808 E5.3237
G1 X173.077 Y73.808 F4800
G92 E0.0000
G1 X173.077 Y93.162 E1.3383 F1125
G1 X191.474 Y93.162 E2.6104
G1 X191.781 Y93.107 E2.6320
G1 X192.081 Y92.934 E2.6559
G1 X192.304 Y92.669 E2.6798
G1 X192.416 Y92.360 E2.7026
G1 X192.431 Y92.187 E2.7146
G1 X192.431 Y73.808 E3.9855
G1 X173.077 Y73.808 E5.3238
G1 X173.077 Y72.154 F4800
G92 E0.0000
G1 X192.431 Y72.154 E1.3383 F1125
G1 X192.431 Y53.757 E2.6104
G1 X192.377 Y53.450 E2.6320
G1 X192.212 Y53.165 E2.6547
G1 X192.066 Y53.018 E2.6690
G1 X191.781 Y52.854 E2.6918
G1 X191.474 Y52.800 E2.7134
G1 X173.077 Y52.800 E3.9854
G1 X173.077 Y72.154 E5.3237
G92 E0.0000
G1 E-6.0000 F1500
; feature inner perimeter
G1 X191.541 Y52.030 F4800
G1 E0.0000 F1500
G92 E0.0000
G1 X152.959 Y52.030 E2.6679 F1313
G1 X152.503 Y52.110 E2.6999
G1 X152.131 Y52.283 E2.7283
G1 X151.697 Y52.647 E2.7674
G1 X151.389 Y53.182 E2.8101
G1 X151.299 Y53.690 E2.8457
G1 X151.299 Y92.272 E5.5136
G1 X151.389 Y92.779 E5.5492
G1 X151.698 Y93.314 E5.5920
G1 X152.131 Y93.678 E5.6311
G1 X152.503 Y93.851 E5.6594
G1 X152.959 Y93.932 E5.6915
G1 X191.541 Y93.932 E8.3594
G1 X192.049 Y93.842 E8.3950
G1 X192.584 Y93.533 E8.4377
G1 X192.981 Y93.060 E8.4804
G1 X193.174 Y92.528 E8.5196
G1 X193.201 Y92.221 E8.5409
G1 X193.201 Y53.690 E11.2052
G1 X193.112 Y53.182 E11.2409
G1 X192.829 Y52.692 E11.2800
G1 X192.539 Y52.402 E11.3083
G1 X192.049 Y52.119 E11.3475
G1 X191.541 Y52.030 E11.3831
; feature gap fill
; tool H0.240 W0.700
G1 X192.548 Y50.711 F4800
G92 E0.0000
G1 X194.520 Y52.683 E0.1753 F1500
G1 X194.582 Y52.868 E0.1876
G1 X194.640 Y53.094 E0.2023
G1 X194.681 Y53.325 E0.2170
G1 X194.706 Y53.557 E0.2317
G1 X194.716 Y53.822 E0.2484
G1 X194.716 Y53.868 E0.2513
G1 X193.550 Y52.703 E0.3549
G1 X193.324 Y52.312 E0.3833
G1 X192.919 Y51.906 E0.4193
G1 X192.528 Y51.680 E0.4477
G1 X191.363 Y50.515 E0.5513
G1 X190.373 Y50.515 E0.6135
G1 X191.268 Y51.410 E0.6931
G1 X190.278 Y51.410 E0.7553
G1 X189.383 Y50.515 E0.8349
G1 X188.393 Y50.515 E0.8971
G1 X189.288 Y51.410 E0.9767
G1 X188.298 Y51.410 E1.0389
G1 X187.403 Y50.515 E1.1185
G1 X186.413 Y50.515 E1.1807
G1 X187.308 Y51.410 E1.2603
G1 X186.318 Y51.410 E1.3225
G1 X185.423 Y50.515 E1.4021
G1 X184.433 Y50.515 E1.4643
G1 X185.328 Y51.410 E1.5439
G1 X184.338 Y51.410 E1.6061
G1 X183.443 Y50.515 E1.6857
G1 X182.453 Y50.515 E1.7479
G1 X183.348 Y51.410 E1.8274
G1 X182.358 Y51.410 E1.8897
G1 X181.463 Y50.515 E1.9692
G1 X180.473 Y50.515 E2.0315
G1 X181.368 Y51.410 E2.1110
G1 X180.378 Y51.410 E2.1733
G1 X179.483 Y50.515 E2.2528
G1 X178.493 Y50.515 E2.3151
G1 X179.388 Y51.410 E2.3946
G1 X178.398 Y51.410 E2.4569
G1 X177.503 Y50.515 E2.5364
G1 X176.513 Y50.515 E2.5987
G1 X177.408 Y51.410 E2.6782
G1 X176.418 Y51.410 E2.7404
G1 X175.523 Y50.515 E2.8200
G1 X174.533 Y50.515 E2.8822
G1 X175.428 Y51.410 E2.9618
G1 X174.438 Y51.410 E3.0240
G1 X173.543 Y50.515 E3.1036
G1 X172.553 Y50.515 E3.1658
G1 X173.448 Y51.410 E3.2454
G1 X172.459 Y51.410 E3.3076
G1 X171.564 Y50.515 E3.3872
G1 X170.574 Y50.515 E3.4494
G1 X171.469 Y51.410 E3.5290
G1 X170.479 Y51.410 E3.5912
G1 X169.584 Y50.515 E3.6708
G1 X168.594 Y50.515 E3.7330
G1 X169.489 Y51.410 E3.8126
G1 X168.499 Y51.410 E3.8748
G1 X167.604 Y50.515 E3.9544
G1 X166.614 Y50.515 E4.0166
G1 X167.509 Y51.410 E4.0962
G1 X166.519 Y51.410 E4.1584
G1 X165.624 Y50.515 E4.2380
G1 X164.634 Y50.515 E4.3002
G1 X165.529 Y51.410 E4.3798
G1 X164.539 Y51.410 E4.4420
G1 X163.644 Y50.515 E4.5216
G1 X162.654 Y50.515 E4.5838
G1 X163.549 Y51.410 E4.6634
G1 X162.559 Y51.410 E4.7256
G1 X161.664 Y50.515 E4.8051
G1 X160.674 Y50.515 E4.8674
G1 X161.569 Y51.410 E4.9469
G1 X160.579 Y51.410 E5.0092
G1 X159.684 Y50.515 E5.0887
G1 X158.694 Y50.515 E5.1510
G1 X159.589 Y51.410 E5.2305
G1 X158.599 Y51.410 E5.2928
G1 X157.704 Y50.515 E5.3723
G1 X156.714 Y50.515 E5.4346
G1 X157.609 Y51.410 E5.5141
G1 X156.619 Y51.410 E5.5764
G1 X155.724 Y50.515 E5.6559
G1 X154.734 Y50.515 E5.7181
G1 X155.629 Y51.410 E5.7977
G1 X154.639 Y51.410 E5.8599
G1 X153.744 Y50.515 E5.9395
G1 X153.092 Y50.515 E5.9805
G1 X152.826 Y50.525 E5.9972
G1 X152.770 Y50.531 E6.0008
G1 X153.650 Y51.410 E6.0790
G1 X152.905 Y51.410 E6.1258
G1 X152.696 Y51.447 E6.1391
