; G-Code generated by Simplify3D(R) Version 4.1.2
; Apr 8, 2020 at 4:44:14 PM
; Settings Summary
;   processName,Process1
;   applyToModels,MontanaMask-enclosed
;   profileName,Creality Ender 3 Pro (modified)
;   profileVersion,2019-04-06 08:00:00
;   baseProfile,
;   printMaterial,PLA
;   printQuality,Fast
;   printExtruders,
;   extruderName,Primary Extruder
;   extruderToolheadNumber,0
;   extruderDiameter,0.4
;   extruderAutoWidth,0
;   extruderWidth,0.7
;   extrusionMultiplier,0.9
;   extruderUseRetract,1
;   extruderRetractionDistance,6
;   extruderExtraRestartDistance,0
;   extruderRetractionZLift,0
;   extruderRetractionSpeed,1500
;   extruderUseCoasting,0
;   extruderCoastingDistance,0.2
;   extruderUseWipe,0
;   extruderWipeDistance,5
;   primaryExtruder,0
;   layerHeight,0.2
;   topSolidLayers,4
;   bottomSolidLayers,4
;   perimeterOutlines,2
;   printPerimetersInsideOut,0
;   startPointOption,2
;   startPointOriginX,0
;   startPointOriginY,0
;   sequentialIslands,0
;   spiralVaseMode,0
;   firstLayerHeightPercentage,120
;   firstLayerWidthPercentage,110
;   firstLayerUnderspeed,0.5
;   useRaft,0
;   raftExtruder,0
;   raftTopLayers,3
;   raftBaseLayers,2
;   raftOffset,3
;   raftSeparationDistance,0.14
;   raftTopInfill,100
;   aboveRaftSpeedMultiplier,0.3
;   useSkirt,0
;   skirtExtruder,0
;   skirtLayers,1
;   skirtOutlines,2
;   skirtOffset,4
;   usePrimePillar,0
;   primePillarExtruder,999
;   primePillarWidth,12
;   primePillarLocation,7
;   primePillarSpeedMultiplier,1
;   useOozeShield,0
;   oozeShieldExtruder,999
;   oozeShieldOffset,2
;   oozeShieldOutlines,1
;   oozeShieldSidewallShape,1
;   oozeShieldSidewallAngle,30
;   oozeShieldSpeedMultiplier,1
;   infillExtruder,0
;   internalInfillPattern,Rectilinear
;   externalInfillPattern,Rectilinear
;   infillPercentage,25
;   outlineOverlapPercentage,15
;   infillExtrusionWidthPercentage,100
;   minInfillLength,5
;   infillLayerInterval,1
;   internalInfillAngles,45,-45
;   overlapInternalInfillAngles,0
;   externalInfillAngles,45,-45
;   generateSupport,0
;   supportExtruder,0
;   supportInfillPercentage,25
;   supportExtraInflation,0
;   supportBaseLayers,0
;   denseSupportExtruder,0
;   denseSupportLayers,0
;   denseSupportInfillPercentage,70
;   supportLayerInterval,1
;   supportHorizontalPartOffset,0.3
;   supportUpperSeparationLayers,1
;   supportLowerSeparationLayers,1
;   supportType,0
;   supportGridSpacing,4
;   maxOverhangAngle,45
;   supportAngles,0
;   temperatureName,Primary Extruder,Heated Bed
;   temperatureNumber,0,0
;   temperatureSetpointCount,1,1
;   temperatureSetpointLayers,1,1
;   temperatureSetpointTemperatures,200,60
;   temperatureStabilizeAtStartup,1,1
;   temperatureHeatedBed,0,1
;   fanLayers,1,2
;   fanSpeeds,0,100
;   blipFanToFullPower,0
;   adjustSpeedForCooling,1
;   minSpeedLayerTime,15
;   minCoolingSpeedSlowdown,20
;   increaseFanForCooling,0
;   minFanLayerTime,45
;   maxCoolingFanSpeed,100
;   increaseFanForBridging,0
;   bridgingFanSpeed,100
;   use5D,1
;   relativeEdistances,0
;   allowEaxisZeroing,1
;   independentExtruderAxes,0
;   includeM10123,0
;   stickySupport,1
;   applyToolheadOffsets,0
;   gcodeXoffset,0
;   gcodeYoffset,0
;   gcodeZoffset,0
;   overrideMachineDefinition,1
;   machineTypeOverride,0
;   strokeXoverride,220
;   strokeYoverride,220
;   strokeZoverride,250
;   originOffsetXoverride,-5
;   originOffsetYoverride,-5
;   originOffsetZoverride,0
;   homeXdirOverride,-1
;   homeYdirOverride,-1
;   homeZdirOverride,-1
;   flipXoverride,1
;   flipYoverride,-1
;   flipZoverride,1
;   toolheadOffsets,0,0|0,0|0,0|0,0|0,0|0,0
;   overrideFirmwareConfiguration,1
;   firmwareTypeOverride,RepRap (Marlin/Repetier/Sprinter)
;   GPXconfigOverride,r2
;   baudRateOverride,115200
;   overridePrinterModels,1
;   printerModelsOverride
;   startingGcode,G28 ; home all axes,G1 X5 Y10 Z0.2 F3000 ; get ready to prime,G92 E0 ; reset extrusion distance,G1 X160 E15 F600 ; prime nozzle,G1 X180 F5000 ; quick wipe
;   layerChangeGcode,
;   retractionGcode,
;   toolChangeGcode,
;   endingGcode,G28 X0 ; home X axis,M106 S0 ; turn off cooling fan,M104 S0 ; turn off extruder,M140 S0 ; turn off bed,M84 ; disable motors
;   exportFileFormat,gcode
;   celebration,0
;   celebrationSong,Random Song
;   postProcessing,
;   defaultSpeed,3000
;   outlineUnderspeed,0.75
;   solidInfillUnderspeed,0.8
;   supportUnderspeed,0.8
;   rapidXYspeed,4800
;   rapidZspeed,1000
;   minBridgingArea,50
;   bridgingExtraInflation,0
;   bridgingExtrusionMultiplier,1
;   bridgingSpeedMultiplier,1
;   useFixedBridgingAngle,0
;   fixedBridgingAngle,0
;   applyBridgingToPerimeters,0
;   filamentDiameters,1.75|1.75|1.75|1.75|1.75|1.75
;   filamentPricesPerKg,25|46|46|46|46|46
;   filamentDensities,1.25|1.25|1.25|1.25|1.25|1.25
;   useMinPrintHeight,0
;   minPrintHeight,9
;   useMaxPrintHeight,0
;   maxPrintHeight,9
;   useDiaphragm,0
;   diaphragmLayerInterval,20
;   robustSlicing,1
;   mergeAllIntoSolid,0
;   onlyRetractWhenCrossingOutline,1
;   retractBetweenLayers,1
;   useRetractionMinTravel,0
;   retractionMinTravel,3
;   retractWhileWiping,0
;   onlyWipeOutlines,1
;   avoidCrossingOutline,0
;   maxMovementDetourFactor,3
;   toolChangeRetractionDistance,12
;   toolChangeExtraRestartDistance,-0.5
;   toolChangeRetractionSpeed,600
;   externalThinWallType,0
;   internalThinWallType,2
;   thinWallAllowedOverlapPercentage,10
;   singleExtrusionMinLength,1
;   singleExtrusionMinPrintingWidthPercentage,50
;   singleExtrusionMaxPrintingWidthPercentage,200
;   singleExtrusionEndpointExtension,0.2
;   horizontalSizeCompensation,0
G90
M82
M106 S0
M140 S60
M190 S60
M104 S200 T0
M109 S200 T0
G28 ; home all axes
G1 X5 Y10 Z0.2 F3000 ; get ready to prime
G92 E0 ; reset extrusion distance
G1 X160 E15 F600 ; prime nozzle
G1 X180 F5000 ; quick wipe
; process Process1
; layer 1, Z = 0.240
T0
G92 E0.0000
G1 E-6.0000 F1500
; feature outer perimeter
; tool H0.240 W0.770
G1 Z0.240 F1000
G1 X102.511 Y102.623 F4800
G1 E0.0000 F1500
G92 E0.0000
G1 X102.969 Y102.224 E0.0420 F1125
G1 X103.702 Y101.688 E0.1048
G1 X104.598 Y101.126 E0.1779
G1 X105.221 Y100.769 E0.2275
G1 X105.938 Y100.384 E0.2838
G1 X106.961 Y99.875 E0.3629
G1 X107.786 Y99.494 E0.4257
G1 X108.340 Y99.258 E0.4673
G1 X109.296 Y98.894 E0.5381
G1 X110.095 Y98.641 E0.5960
G1 X110.441 Y98.547 E0.6208
G1 X111.079 Y98.403 E0.6660
G1 X111.929 Y98.276 E0.7255
G1 X112.535 Y98.236 E0.7674
G1 X113.128 Y98.248 E0.8085
G1 X113.700 Y98.305 E0.8482
G1 X114.582 Y98.461 E0.9101
G1 X115.270 Y98.636 E0.9592
G1 X116.103 Y98.900 E1.0196
G1 X116.570 Y99.071 E1.0541
G1 X117.708 Y99.544 E1.1392
G1 X118.521 Y99.923 E1.2013
G1 X119.479 Y100.402 E1.2754
G1 X120.158 Y100.767 E1.3286
G1 X120.754 Y101.108 E1.3761
G1 X121.727 Y101.720 E1.4556
G1 X122.209 Y102.065 E1.4966
G1 X122.732 Y102.495 E1.5434
G1 X123.081 Y102.836 E1.5771
G1 X123.450 Y103.281 E1.6171
G1 X123.759 Y103.766 E1.6569
G1 X123.970 Y104.197 E1.6901
G1 X124.172 Y104.727 E1.7293
G1 X124.391 Y105.499 E1.7848
G1 X124.521 Y106.126 E1.8291
G1 X124.638 Y106.922 E1.8847
G1 X124.684 Y107.368 E1.9157
G1 X124.746 Y108.436 E1.9897
G1 X124.756 Y109.090 E2.0349
G1 X124.746 Y109.895 E2.0906
G1 X124.708 Y110.854 E2.1569
G1 X124.621 Y112.174 E2.2484
G1 X124.406 Y114.640 E2.4196
G1 X124.285 Y115.661 E2.4907
G1 X124.132 Y116.611 E2.5572
G1 X123.964 Y117.324 E2.6078
G1 X123.776 Y117.894 E2.6494
G1 X123.557 Y118.399 E2.6874
G1 X123.293 Y118.879 E2.7253
G1 X122.947 Y119.395 E2.7683
G1 X122.471 Y119.983 E2.8206
G1 X122.031 Y120.454 E2.8651
G1 X121.313 Y121.136 E2.9336
G1 X119.596 Y122.628 E3.0909
G1 X118.807 Y123.336 E3.1642
G1 X117.904 Y124.216 E3.2514
G1 X117.208 Y124.976 E3.3227
G1 X116.875 Y125.375 E3.3586
G1 X116.276 Y126.162 E3.4270
G1 X115.507 Y127.252 E3.5192
G1 X115.091 Y127.769 E3.5651
G1 X114.790 Y128.082 E3.5951
G1 X114.520 Y128.317 E3.6199
G1 X114.266 Y128.502 E3.6416
G1 X114.016 Y128.651 E3.6617
G1 X113.602 Y128.834 E3.6930
G1 X113.212 Y128.939 E3.7209
G1 X112.782 Y128.986 E3.7509
G1 X112.383 Y128.970 E3.7785
G1 X111.976 Y128.895 E3.8071
G1 X111.561 Y128.746 E3.8375
G1 X111.209 Y128.561 E3.8651
G1 X110.842 Y128.301 E3.8962
G1 X110.473 Y127.965 E3.9307
G1 X110.130 Y127.581 E3.9663
G1 X109.799 Y127.152 E4.0038
G1 X108.934 Y125.928 E4.1074
G1 X108.624 Y125.523 E4.1427
G1 X107.980 Y124.758 E4.2118
G1 X107.197 Y123.935 E4.2903
G1 X106.694 Y123.449 E4.3388
G1 X106.062 Y122.872 E4.3979
G1 X104.062 Y121.133 E4.5812
G1 X103.314 Y120.419 E4.6526
G1 X102.896 Y119.969 E4.6951
G1 X102.566 Y119.571 E4.7309
G1 X102.185 Y119.037 E4.7762
G1 X101.906 Y118.564 E4.8142
G1 X101.665 Y118.048 E4.8536
G1 X101.444 Y117.422 E4.8995
G1 X101.271 Y116.728 E4.9490
G1 X101.149 Y116.034 E4.9977
G1 X100.963 Y114.536 E5.1021
G1 X100.790 Y112.576 E5.2381
G1 X100.668 Y110.753 E5.3645
G1 X100.628 Y109.679 E5.4388
G1 X100.623 Y108.870 E5.4947
G1 X100.635 Y108.302 E5.5340
G1 X100.696 Y107.332 E5.6012
G1 X100.795 Y106.512 E5.6583
G1 X100.925 Y105.789 E5.7091
G1 X101.081 Y105.145 E5.7549
G1 X101.211 Y104.717 E5.7858
G1 X101.322 Y104.412 E5.8083
G1 X101.542 Y103.918 E5.8457
G1 X101.825 Y103.430 E5.8847
G1 X101.987 Y103.204 E5.9040
G1 X102.179 Y102.969 E5.9249
G1 X102.511 Y102.623 E5.9581
; feature inner perimeter
G1 X102.744 Y103.470 F4800
G92 E0.0000
G1 X103.848 Y104.502 E0.1045 F1313
G1 X104.834 Y103.515 E0.2010
G1 X106.069 Y102.872 E0.2973
G1 X105.426 Y101.532 E0.4000
G1 X106.292 Y101.068 E0.4680
G1 X107.294 Y100.569 E0.5454
G1 X108.099 Y100.198 E0.6067
G1 X108.628 Y99.972 E0.6464
G1 X109.550 Y99.622 E0.7146
G1 X110.312 Y99.380 E0.7699
G1 X110.626 Y99.295 E0.7924
G1 X111.221 Y99.161 E0.8346
G1 X112.012 Y99.042 E0.8899
G1 X112.552 Y99.006 E0.9273
G1 X113.082 Y99.018 E0.9640
G1 X113.595 Y99.068 E0.9996
G1 X114.420 Y99.215 E1.0576
G1 X115.059 Y99.377 E1.1031
G1 X115.854 Y99.629 E1.1608
G1 X116.290 Y99.788 E1.1929
G1 X117.397 Y100.249 E1.2758
G1 X118.186 Y100.616 E1.3360
G1 X119.220 Y101.133 E1.4159
G1 X119.052 Y103.318 E1.5675
G1 X120.391 Y103.435 E1.6604
G1 X120.574 Y103.516 E1.6742
G1 X120.671 Y103.648 E1.6855
G1 X120.704 Y103.723 E1.6912
G1 X120.735 Y103.900 E1.7036
G1 X120.736 Y119.070 E2.7526
G1 X120.721 Y119.157 E2.7587
G1 X120.663 Y119.297 E2.7691
G1 X120.599 Y119.384 E2.7766
G1 X120.535 Y119.433 E2.7822
G1 X120.502 Y119.452 E2.7848
G1 X120.468 Y119.470 E2.7875
G1 X120.357 Y119.510 E2.7956
G1 X119.110 Y119.540 E2.8819
G1 X119.166 Y121.978 E3.0506
G1 X118.281 Y122.773 E3.1329
G1 X117.351 Y123.680 E3.2226
G1 X116.628 Y124.469 E3.2967
G1 X116.272 Y124.895 E3.3350
G1 X115.654 Y125.707 E3.4056
G1 X114.892 Y126.788 E3.4971
G1 X114.512 Y127.259 E3.5389
G1 X114.258 Y127.524 E3.5643
G1 X114.040 Y127.714 E3.5843
G1 X113.841 Y127.858 E3.6013
G1 X113.662 Y127.965 E3.6158
G1 X113.345 Y128.106 E3.6397
G1 X113.070 Y128.180 E3.6594
G1 X112.755 Y128.214 E3.6813
G1 X112.469 Y128.203 E3.7011
G1 X112.177 Y128.149 E3.7216
G1 X111.872 Y128.040 E3.7440
G1 X111.613 Y127.903 E3.7643
G1 X111.325 Y127.700 E3.7886
G1 X111.021 Y127.422 E3.8171
G1 X110.722 Y127.088 E3.8481
G1 X110.418 Y126.694 E3.8825
G1 X109.554 Y125.472 E3.9860
G1 X109.224 Y125.041 E4.0236
G1 X108.554 Y124.244 E4.0956
G1 X107.744 Y123.392 E4.1768
G1 X107.221 Y122.887 E4.2271
G1 X106.574 Y122.297 E4.2876
G1 X104.780 Y120.738 E4.4520
G1 X105.354 Y120.397 E4.4981
G1 X104.696 Y119.261 E4.5889
G1 X104.195 Y118.051 E4.6795
G1 X102.822 Y118.602 E4.7818
G1 X102.588 Y118.205 E4.8136
G1 X102.378 Y117.756 E4.8479
G1 X102.182 Y117.201 E4.8887
G1 X102.024 Y116.568 E4.9338
G1 X101.911 Y115.920 E4.9793
G1 X101.729 Y114.454 E5.0814
G1 X101.558 Y112.516 E5.2159
G1 X101.437 Y110.713 E5.3409
G1 X101.398 Y109.662 E5.4136
G1 X101.393 Y108.876 E5.4679
G1 X101.405 Y108.335 E5.5054
G1 X101.463 Y107.402 E5.5700
G1 X101.557 Y106.627 E5.6240
G1 X101.679 Y105.948 E5.6717
G1 X101.824 Y105.348 E5.7144
G1 X101.942 Y104.961 E5.7424
G1 X102.036 Y104.701 E5.7615
G1 X102.228 Y104.269 E5.7942
G1 X102.473 Y103.849 E5.8278
G1 X102.744 Y103.470 E5.8600
G92 E0.0000
G1 E-6.0000 F1500
G1 X123.046 Y105.872 F4800
G1 E0.0000 F1500
G92 E0.0000
G1 X123.669 Y105.808 E0.0433 F1313
G1 X123.762 Y106.260 E0.0752
G1 X123.873 Y107.017 E0.1281
G1 X123.916 Y107.430 E0.1568
G1 X123.976 Y108.464 E0.2284
G1 X123.986 Y109.092 E0.2718
G1 X123.976 Y109.874 E0.3259
G1 X123.939 Y110.813 E0.3909
G1 X123.853 Y112.115 E0.4811
G1 X123.709 Y113.767 E0.5958
G1 X123.046 Y113.738 E0.6417
G1 X123.046 Y105.872 E1.1856
; feature outer perimeter
G1 X122.293 Y104.111 F4800
G92 E0.0000
G1 X122.276 Y103.854 E0.0178 F1125
G1 X122.275 Y103.832 E0.0193
G1 X122.275 Y103.766 E0.0239
G1 X122.268 Y103.726 E0.0267
G1 X122.260 Y103.612 E0.0346
G1 X122.324 Y103.583 E0.0395
G1 X122.185 Y103.266 E0.0635
G1 X122.111 Y102.935 E0.0869
G1 X122.045 Y102.948 E0.0916
G1 X122.026 Y102.905 E0.0948
G1 X122.012 Y102.872 E0.0973
G1 X121.992 Y102.846 E0.0996
G1 X121.599 Y102.309 E0.1456
G1 X121.601 Y102.304 E0.1460
G1 X121.592 Y102.299 E0.1467
G1 X121.555 Y102.249 E0.1510
G1 X121.528 Y102.268 E0.1533
G1 X121.296 Y102.151 E0.1714
G1 X121.255 Y102.133 E0.1745
G1 X121.205 Y102.108 E0.1784
G1 X121.211 Y102.087 E0.1799
G1 X121.089 Y102.045 E0.1888
G1 X121.094 Y102.024 E0.1904
G1 X120.972 Y101.994 E0.1990
G1 X120.974 Y101.983 E0.1998
G1 X120.805 Y101.949 E0.2117
G1 X120.579 Y101.872 E0.2282
G1 X120.570 Y101.895 E0.2300
G1 X120.472 Y101.871 E0.2369
G1 X120.469 Y101.882 E0.2377
G1 X120.342 Y101.857 E0.2466
G1 X120.336 Y101.884 E0.2485
G1 X120.322 Y101.883 E0.2496
G1 X120.211 Y101.876 E0.2574
G1 X119.936 Y101.858 E0.2764
G1 X119.878 Y102.618 E0.3291
G1 X120.487 Y102.671 E0.3713
G1 X120.553 Y102.684 E0.3760
G1 X120.630 Y102.703 E0.3815
G1 X120.664 Y102.714 E0.3840
G1 X121.073 Y102.895 E0.4149
G1 X121.341 Y103.261 E0.4463
G1 X121.446 Y103.498 E0.4642
G1 X121.502 Y103.819 E0.4867
G1 X121.505 Y103.858 E0.4894
G1 X121.506 Y119.137 E1.5459
G1 X121.468 Y119.356 E1.5613
G1 X121.454 Y119.398 E1.5644
G1 X121.348 Y119.656 E1.5837
G1 X121.331 Y119.687 E1.5861
G1 X121.155 Y119.928 E1.6067
G1 X120.964 Y120.075 E1.6234
G1 X120.873 Y120.127 E1.6307
G1 X120.779 Y120.176 E1.6380
G1 X120.501 Y120.277 E1.6584
G1 X119.897 Y120.291 E1.7002
G1 X119.915 Y121.061 E1.7534
G1 X120.303 Y121.052 E1.7802
G1 X120.450 Y121.049 E1.7904
G1 X120.468 Y121.100 E1.7942
G1 X120.631 Y121.044 E1.8061
G1 X120.757 Y121.041 E1.8148
G1 X120.757 Y121.004 E1.8174
G1 X120.833 Y120.976 E1.8231
G1 X120.889 Y120.957 E1.8271
G1 X120.902 Y120.980 E1.8290
G1 X121.054 Y120.901 E1.8408
G1 X121.059 Y120.909 E1.8414
G1 X121.243 Y120.802 E1.8562
G1 X121.432 Y120.704 E1.8709
G1 X121.428 Y120.696 E1.8715
G1 X121.502 Y120.653 E1.8775
G1 X121.544 Y120.685 E1.8811
G1 X121.710 Y120.469 E1.8999
G1 X121.912 Y120.306 E1.9178
G1 X121.891 Y120.280 E1.9202
G1 X121.978 Y120.112 E1.9332
G1 X121.987 Y120.095 E1.9346
G1 X122.015 Y120.057 E1.9378
G1 X122.031 Y120.018 E1.9408
G1 X122.046 Y119.982 E1.9435
G1 X122.087 Y119.903 E1.9496
G1 X122.101 Y119.907 E1.9506
G1 X122.126 Y119.828 E1.9563
G1 X122.165 Y119.753 E1.9622
G1 X122.152 Y119.745 E1.9632
G1 X122.179 Y119.661 E1.9693
G1 X122.209 Y119.589 E1.9747
G1 X122.217 Y119.539 E1.9782
G1 X122.245 Y119.452 E1.9845
G1 X122.276 Y119.452 E1.9867
G1 X122.276 Y119.352 E1.9936
G1 X122.295 Y119.294 E1.9978
G1 X122.276 Y119.287 E1.9992
G1 X122.276 Y119.203 E2.0050
G1 X122.282 Y119.158 E2.0083
G1 X122.323 Y118.886 E2.0273
G1 X122.276 Y118.878 E2.0306
G1 X122.276 Y104.113 E3.0516
G1 X122.293 Y104.111 E3.0528
G92 E0.0000
G1 E-6.0000 F1500
G1 X105.052 Y102.533 F4800
G1 E0.0000 F1500
G92 E0.0000
G1 X104.730 Y101.861 E0.0515 F1125
G1 X104.181 Y102.103 E0.0930
G1 X104.143 Y102.063 E0.0968
G1 X103.915 Y102.263 E0.1178
G1 X103.655 Y102.421 E0.1388
G1 X103.682 Y102.469 E0.1426
G1 X103.285 Y102.922 E0.1843
G1 X103.830 Y103.431 E0.2358
G1 X104.373 Y102.887 E0.2890
G1 X105.052 Y102.533 E0.3420
G1 X103.775 Y119.049 F4800
G92 E0.0000
G1 X103.068 Y119.333 E0.0527 F1125
G1 X103.165 Y119.588 E0.0717
G1 X103.209 Y119.694 E0.0796
G1 X103.293 Y119.910 E0.0957
G1 X103.312 Y119.944 E0.0984
G1 X103.328 Y119.981 E0.1011
G1 X103.450 Y120.181 E0.1174
G1 X103.508 Y120.277 E0.1253
G1 X103.651 Y120.512 E0.1443
