; G-Code generated by Simplify3D(R) Version 4.1.2
; Apr 21, 2020 at 9:19:10 AM
; Settings Summary
;   processName,Process1
;   applyToModels,Visor_Frame_NORTH_AMERICA_letter_6-hole_v5
;   profileName,Creality Ender 3 Pro (VISOR 1.0) (modified)
;   profileVersion,2019-04-06 08:00:00
;   baseProfile,Creality Ender 3 Pro (modified)
;   printMaterial,PLA
;   printQuality,Medium
;   printExtruders,
;   extruderName,Primary Extruder
;   extruderToolheadNumber,0
;   extruderDiameter,0.4
;   extruderAutoWidth,0
;   extruderWidth,0.4
;   extrusionMultiplier,0.9
;   extruderUseRetract,1
;   extruderRetractionDistance,4
;   extruderExtraRestartDistance,0
;   extruderRetractionZLift,0
;   extruderRetractionSpeed,2400
;   extruderUseCoasting,0
;   extruderCoastingDistance,0.2
;   extruderUseWipe,0
;   extruderWipeDistance,5
;   primaryExtruder,0
;   layerHeight,0.25
;   topSolidLayers,3
;   bottomSolidLayers,3
;   perimeterOutlines,8
;   printPerimetersInsideOut,1
;   startPointOption,2
;   startPointOriginX,0
;   startPointOriginY,0
;   sequentialIslands,0
;   spiralVaseMode,0
;   firstLayerHeightPercentage,120
;   firstLayerWidthPercentage,150
;   firstLayerUnderspeed,0.5
;   useRaft,0
;   raftExtruder,0
;   raftTopLayers,3
;   raftBaseLayers,2
;   raftOffset,3
;   raftSeparationDistance,0.14
;   raftTopInfill,100
;   aboveRaftSpeedMultiplier,0.3
;   useSkirt,0
;   skirtExtruder,0
;   skirtLayers,1
;   skirtOutlines,2
;   skirtOffset,4
;   usePrimePillar,0
;   primePillarExtruder,999
;   primePillarWidth,12
;   primePillarLocation,7
;   primePillarSpeedMultiplier,1
;   useOozeShield,0
;   oozeShieldExtruder,999
;   oozeShieldOffset,2
;   oozeShieldOutlines,1
;   oozeShieldSidewallShape,1
;   oozeShieldSidewallAngle,30
;   oozeShieldSpeedMultiplier,1
;   infillExtruder,0
;   internalInfillPattern,Rectilinear
;   externalInfillPattern,Rectilinear
;   infillPercentage,0
;   outlineOverlapPercentage,15
;   infillExtrusionWidthPercentage,100
;   minInfillLength,5
;   infillLayerInterval,1
;   internalInfillAngles,45,-45
;   overlapInternalInfillAngles,0
;   externalInfillAngles,45,-45
;   generateSupport,0
;   supportExtruder,0
;   supportInfillPercentage,30
;   supportExtraInflation,0
;   supportBaseLayers,0
;   denseSupportExtruder,0
;   denseSupportLayers,0
;   denseSupportInfillPercentage,70
;   supportLayerInterval,1
;   supportHorizontalPartOffset,0.3
;   supportUpperSeparationLayers,1
;   supportLowerSeparationLayers,1
;   supportType,0
;   supportGridSpacing,4
;   maxOverhangAngle,45
;   supportAngles,0
;   temperatureName,Primary Extruder,Heated Bed
;   temperatureNumber,0,0
;   temperatureSetpointCount,1,1
;   temperatureSetpointLayers,1,1
;   temperatureSetpointTemperatures,210,60
;   temperatureStabilizeAtStartup,1,1
;   temperatureHeatedBed,0,1
;   fanLayers,1,2
;   fanSpeeds,0,100
;   blipFanToFullPower,0
;   adjustSpeedForCooling,1
;   minSpeedLayerTime,15
;   minCoolingSpeedSlowdown,20
;   increaseFanForCooling,0
;   minFanLayerTime,45
;   maxCoolingFanSpeed,100
;   increaseFanForBridging,0
;   bridgingFanSpeed,100
;   use5D,1
;   relativeEdistances,0
;   allowEaxisZeroing,1
;   independentExtruderAxes,0
;   includeM10123,0
;   stickySupport,1
;   applyToolheadOffsets,0
;   gcodeXoffset,0
;   gcodeYoffset,0
;   gcodeZoffset,0
;   overrideMachineDefinition,1
;   machineTypeOverride,0
;   strokeXoverride,220
;   strokeYoverride,220
;   strokeZoverride,250
;   originOffsetXoverride,-5
;   originOffsetYoverride,-5
;   originOffsetZoverride,0
;   homeXdirOverride,-1
;   homeYdirOverride,-1
;   homeZdirOverride,-1
;   flipXoverride,1
;   flipYoverride,-1
;   flipZoverride,1
;   toolheadOffsets,0,0|0,0|0,0|0,0|0,0|0,0
;   overrideFirmwareConfiguration,1
;   firmwareTypeOverride,RepRap (Marlin/Repetier/Sprinter)
;   GPXconfigOverride,r2
;   baudRateOverride,115200
;   overridePrinterModels,1
;   printerModelsOverride
;   startingGcode,G28 ; home all axes,G1 X5 Y10 Z0.2 F3000 ; get ready to prime,G92 E0 ; reset extrusion distance,G1 X160 E15 F600 ; prime nozzle,G1 X180 F5000 ; quick wipe
;   layerChangeGcode,
;   retractionGcode,
;   toolChangeGcode,
;   endingGcode,G28 X0 ; home X axis,M106 S0 ; turn off cooling fan,M104 S0 ; turn off extruder,M140 S0 ; turn off bed,M84 ; disable motors
;   exportFileFormat,gcode
;   celebration,0
;   celebrationSong,Random Song
;   postProcessing,
;   defaultSpeed,3000
;   outlineUnderspeed,0.5
;   solidInfillUnderspeed,0.8
;   supportUnderspeed,0.8
;   rapidXYspeed,4800
;   rapidZspeed,1000
;   minBridgingArea,50
;   bridgingExtraInflation,0
;   bridgingExtrusionMultiplier,1
;   bridgingSpeedMultiplier,1
;   useFixedBridgingAngle,0
;   fixedBridgingAngle,0
;   applyBridgingToPerimeters,0
;   filamentDiameters,1.75|1.75|1.75|1.75|1.75|1.75
;   filamentPricesPerKg,46|46|46|46|46|46
;   filamentDensities,1.25|1.25|1.25|1.25|1.25|1.25
;   useMinPrintHeight,0
;   minPrintHeight,0
;   useMaxPrintHeight,0
;   maxPrintHeight,0
;   useDiaphragm,0
;   diaphragmLayerInterval,20
;   robustSlicing,1
;   mergeAllIntoSolid,0
;   onlyRetractWhenCrossingOutline,1
;   retractBetweenLayers,1
;   useRetractionMinTravel,0
;   retractionMinTravel,3
;   retractWhileWiping,0
;   onlyWipeOutlines,1
;   avoidCrossingOutline,0
;   maxMovementDetourFactor,3
;   toolChangeRetractionDistance,12
;   toolChangeExtraRestartDistance,-0.5
;   toolChangeRetractionSpeed,600
;   externalThinWallType,0
;   internalThinWallType,2
;   thinWallAllowedOverlapPercentage,10
;   singleExtrusionMinLength,1
;   singleExtrusionMinPrintingWidthPercentage,50
;   singleExtrusionMaxPrintingWidthPercentage,200
;   singleExtrusionEndpointExtension,0.2
;   horizontalSizeCompensation,0
G90
M82
M106 S0
M140 S60
M190 S60
M104 S210 T0
M109 S210 T0
G28 ; home all axes
G1 X5 Y10 Z0.2 F3000 ; get ready to prime
G92 E0 ; reset extrusion distance
G1 X160 E15 F600 ; prime nozzle
G1 X180 F5000 ; quick wipe
; process Process1
; layer 1, Z = 0.300
T0
G92 E0.0000
G1 E-4.0000 F2400
; feature inner perimeter
; tool H0.300 W0.600
G1 Z0.300 F1000
G1 X69.153 Y183.695 F4800
G1 E0.0000 F2400
G92 E0.0000
G1 X70.975 Y184.718 E0.1407 F1125
G1 X73.689 Y186.128 E0.3467
G1 X76.448 Y187.448 E0.5527
G1 X79.250 Y188.675 E0.7587
G1 X82.090 Y189.809 E0.9647
G1 X84.967 Y190.849 E1.1707
G1 X87.876 Y191.793 E1.3767
G1 X90.814 Y192.641 E1.5827
G1 X93.779 Y193.391 E1.7887
G1 X96.768 Y194.043 E1.9947
G1 X99.776 Y194.595 E2.2007
G1 X102.801 Y195.048 E2.4067
G1 X105.839 Y195.401 E2.6127
G1 X108.887 Y195.654 E2.8187
G1 X111.942 Y195.805 E3.0247
G1 X115.000 Y195.856 E3.2307
G1 X118.058 Y195.805 E3.4367
G1 X121.113 Y195.654 E3.6427
G1 X124.161 Y195.401 E3.8487
G1 X127.199 Y195.048 E4.0547
G1 X130.224 Y194.595 E4.2607
G1 X133.232 Y194.043 E4.4667
G1 X136.221 Y193.391 E4.6727
G1 X139.186 Y192.641 E4.8787
G1 X142.124 Y191.793 E5.0847
G1 X145.033 Y190.849 E5.2907
G1 X147.910 Y189.809 E5.4967
G1 X150.751 Y188.675 E5.7027
G1 X153.552 Y187.448 E5.9087
G1 X155.756 Y186.394 E6.0732
G1 X156.311 Y186.128 E6.1147
G1 X159.025 Y184.718 E6.3207
G1 X160.847 Y183.695 E6.4614
G1 X161.213 Y188.418 E6.7805
G1 X160.145 Y190.386 E6.9313
G1 X159.703 Y191.672 E7.0229
G1 X159.718 Y192.127 E7.0536
G1 X156.152 Y193.060 E7.3018
G1 X155.443 Y193.229 E7.3508
G1 X152.507 Y193.927 E7.5542
G1 X148.838 Y194.716 E7.8069
G1 X145.156 Y195.422 E8.0594
G1 X141.456 Y196.047 E8.3122
G1 X140.794 Y196.145 E8.3572
G1 X137.750 Y196.590 E8.5644
G1 X134.032 Y197.051 E8.8167
G1 X127.375 Y197.727 E9.2674
G1 X120.668 Y198.026 E9.7196
G1 X117.532 Y198.096 E9.9308
G1 X116.891 Y198.110 E9.9740
G1 X113.110 Y198.110 E10.2287
G1 X109.332 Y198.026 E10.4832
G1 X102.626 Y197.727 E10.9353
G1 X95.969 Y197.051 E11.3860
G1 X92.250 Y196.590 E11.6384
G1 X89.206 Y196.145 E11.8456
G1 X88.544 Y196.047 E11.8906
G1 X84.844 Y195.422 E12.1434
G1 X81.162 Y194.716 E12.3959
G1 X77.494 Y193.928 E12.6486
G1 X73.849 Y193.060 E12.9010
G1 X70.072 Y192.072 E13.1639
G1 X69.808 Y190.765 E13.2537
G1 X68.782 Y188.484 E13.4222
G1 X69.153 Y183.695 E13.7457
G1 X68.628 Y182.711 F4800
G92 E0.0000
G1 X71.260 Y184.191 E0.2034 F1125
G1 X73.956 Y185.591 E0.4080
G1 X76.698 Y186.902 E0.6127
G1 X79.481 Y188.121 E0.8173
G1 X82.303 Y189.248 E1.0220
G1 X85.161 Y190.281 E1.2267
G1 X88.051 Y191.220 E1.4313
G1 X90.971 Y192.062 E1.6360
G1 X93.917 Y192.807 E1.8407
G1 X96.886 Y193.454 E2.0453
G1 X99.875 Y194.004 E2.2500
G1 X102.880 Y194.454 E2.4547
G1 X105.898 Y194.804 E2.6593
G1 X108.927 Y195.055 E2.8640
G1 X111.962 Y195.205 E3.0687
G1 X115.000 Y195.256 E3.2733
G1 X118.038 Y195.205 E3.4780
G1 X121.073 Y195.055 E3.6826
G1 X124.102 Y194.804 E3.8873
G1 X127.120 Y194.454 E4.0920
G1 X130.125 Y194.004 E4.2966
G1 X133.114 Y193.454 E4.5013
G1 X136.083 Y192.807 E4.7060
G1 X139.029 Y192.062 E4.9106
G1 X141.949 Y191.220 E5.1153
G1 X144.839 Y190.281 E5.3199
G1 X147.697 Y189.248 E5.5246
G1 X150.519 Y188.121 E5.7293
G1 X153.302 Y186.902 E5.9339
G1 X155.497 Y185.853 E6.0978
G1 X156.044 Y185.591 E6.1386
G1 X158.740 Y184.191 E6.3433
G1 X161.372 Y182.711 E6.5466
G1 X161.825 Y188.549 E6.9410
G1 X160.696 Y190.628 E7.1004
G1 X160.306 Y191.763 E7.1812
G1 X160.333 Y192.577 E7.2360
G1 X159.936 Y192.691 E7.2638
G1 X156.297 Y193.642 E7.5172
G1 X155.812 Y193.758 E7.5508
G1 X152.639 Y194.513 E7.7705
G1 X148.957 Y195.304 E8.0240
G1 X145.263 Y196.012 E8.2774
G1 X141.550 Y196.640 E8.5311
G1 X140.882 Y196.739 E8.5765
G1 X137.831 Y197.184 E8.7842
G1 X134.099 Y197.647 E9.0375
G1 X127.419 Y198.326 E9.4897
G1 X120.688 Y198.625 E9.9435
G1 X117.545 Y198.696 E10.1552
G1 X116.898 Y198.710 E10.1988
G1 X113.103 Y198.710 E10.4544
G1 X109.312 Y198.625 E10.7098
G1 X102.582 Y198.326 E11.1635
G1 X95.902 Y197.647 E11.6158
G1 X92.170 Y197.184 E11.8691
G1 X89.118 Y196.739 E12.0768
G1 X88.450 Y196.640 E12.1222
G1 X84.737 Y196.012 E12.3759
G1 X81.043 Y195.304 E12.6292
G1 X77.362 Y194.513 E12.8828
G1 X73.703 Y193.642 E13.1361
G1 X70.064 Y192.691 E13.3894
G1 X69.415 Y192.505 E13.4349
G1 X69.439 Y191.972 E13.4709
G1 X69.233 Y190.949 E13.5411
G1 X68.172 Y188.591 E13.7153
G1 X68.628 Y182.711 E14.1125
G1 X68.913 Y182.183 F4800
G92 E0.0000
G1 X71.545 Y183.663 E0.2033 F1125
G1 X74.224 Y185.054 E0.4067
G1 X76.948 Y186.356 E0.6100
G1 X79.713 Y187.568 E0.8133
G1 X82.517 Y188.687 E1.0167
G1 X85.356 Y189.714 E1.2200
G1 X88.227 Y190.646 E1.4233
G1 X91.128 Y191.482 E1.6266
G1 X94.054 Y192.223 E1.8300
G1 X97.004 Y192.866 E2.0333
G1 X99.973 Y193.412 E2.2366
G1 X102.959 Y193.859 E2.4399
G1 X105.958 Y194.207 E2.6433
G1 X108.966 Y194.456 E2.8466
G1 X111.982 Y194.606 E3.0499
G1 X115.000 Y194.656 E3.2533
G1 X118.018 Y194.606 E3.4566
G1 X121.034 Y194.456 E3.6599
G1 X124.042 Y194.207 E3.8632
G1 X127.041 Y193.859 E4.0666
G1 X130.026 Y193.412 E4.2699
G1 X132.996 Y192.866 E4.4732
G1 X135.946 Y192.223 E4.6766
G1 X138.872 Y191.482 E4.8799
G1 X141.773 Y190.646 E5.0832
G1 X144.644 Y189.714 E5.2865
G1 X147.483 Y188.687 E5.4899
G1 X150.287 Y187.568 E5.6932
G1 X153.052 Y186.356 E5.8965
G1 X155.238 Y185.311 E6.0597
G1 X155.776 Y185.054 E6.0999
G1 X158.455 Y183.663 E6.3032
G1 X161.087 Y182.183 E6.5065
G1 X161.895 Y181.693 E6.5702
G1 X162.437 Y188.679 E7.0421
G1 X161.247 Y190.871 E7.2101
G1 X160.909 Y191.854 E7.2801
G1 X160.948 Y193.026 E7.3591
G1 X160.094 Y193.269 E7.4189
G1 X156.442 Y194.224 E7.6731
G1 X155.744 Y194.391 E7.7215
G1 X152.771 Y195.098 E7.9273
G1 X149.077 Y195.892 E8.1818
G1 X145.369 Y196.603 E8.4360
G1 X141.644 Y197.233 E8.6905
G1 X140.970 Y197.332 E8.7364
G1 X137.911 Y197.779 E8.9446
G1 X134.166 Y198.243 E9.1988
G1 X127.462 Y198.925 E9.6526
G1 X120.708 Y199.225 E10.1079
G1 X117.557 Y199.296 E10.3202
G1 X116.904 Y199.310 E10.3642
G1 X113.097 Y199.310 E10.6207
G1 X109.292 Y199.225 E10.8770
G1 X102.538 Y198.925 E11.3323
G1 X95.835 Y198.243 E11.7861
G1 X92.089 Y197.779 E12.0403
G1 X89.030 Y197.332 E12.2485
G1 X88.356 Y197.233 E12.2944
G1 X84.631 Y196.603 E12.5489
G1 X80.923 Y195.892 E12.8032
G1 X77.230 Y195.098 E13.0576
G1 X73.558 Y194.224 E13.3118
G1 X69.906 Y193.269 E13.5661
G1 X68.794 Y192.952 E13.6439
G1 X68.837 Y192.018 E13.7069
G1 X68.658 Y191.134 E13.7677
G1 X67.562 Y188.697 E13.9476
G1 X68.105 Y181.693 E14.4208
G1 X68.913 Y182.183 E14.4845
G1 X69.216 Y181.665 F4800
G92 E0.0000
G1 X71.831 Y183.135 E0.2020 F1125
G1 X74.492 Y184.517 E0.4040
G1 X77.198 Y185.811 E0.6060
G1 X79.944 Y187.014 E0.8080
G1 X82.730 Y188.127 E1.0100
G1 X85.550 Y189.146 E1.2120
G1 X88.403 Y190.072 E1.4140
G1 X91.285 Y190.903 E1.6160
G1 X94.192 Y191.639 E1.8179
G1 X97.122 Y192.278 E2.0199
G1 X100.072 Y192.820 E2.2220
G1 X103.038 Y193.264 E2.4239
G1 X106.017 Y193.610 E2.6259
G1 X109.006 Y193.857 E2.8279
G1 X112.001 Y194.006 E3.0299
G1 X115.000 Y194.055 E3.2319
G1 X117.999 Y194.006 E3.4339
G1 X120.994 Y193.857 E3.6359
G1 X123.983 Y193.610 E3.8379
G1 X126.962 Y193.264 E4.0399
G1 X129.928 Y192.820 E4.2419
G1 X132.878 Y192.278 E4.4439
G1 X135.808 Y191.639 E4.6459
G1 X138.715 Y190.903 E4.8479
G1 X141.597 Y190.072 E5.0498
G1 X144.450 Y189.146 E5.2518
G1 X147.270 Y188.127 E5.4538
G1 X150.056 Y187.014 E5.6558
G1 X152.802 Y185.811 E5.8578
G1 X154.979 Y184.770 E6.0203
G1 X155.508 Y184.517 E6.0598
G1 X158.169 Y183.135 E6.2618
G1 X160.784 Y181.665 E6.4638
G1 X162.418 Y180.674 E6.5925
G1 X163.037 Y188.661 E7.1321
G1 X163.037 Y188.813 E7.1422
G1 X162.983 Y188.931 E7.1510
G1 X161.798 Y191.113 E7.3182
G1 X161.513 Y191.944 E7.3774
G1 X161.563 Y193.474 E7.4806
G1 X160.252 Y193.848 E7.5723
G1 X156.587 Y194.806 E7.8275
G1 X156.108 Y194.921 E7.8607
G1 X152.903 Y195.683 E8.0826
G1 X149.197 Y196.480 E8.3379
G1 X145.476 Y197.193 E8.5931
G1 X141.738 Y197.825 E8.8484
G1 X141.058 Y197.926 E8.8947
G1 X137.991 Y198.374 E9.1034
G1 X134.232 Y198.840 E9.3585
G1 X128.016 Y199.471 E9.7794
G1 X128.022 Y203.259 E10.0345
G1 X127.378 Y203.259 E10.0779
G1 X127.385 Y199.529 E10.3291
G1 X120.728 Y199.825 E10.7779
G1 X117.570 Y199.896 E10.9907
G1 X116.911 Y199.910 E11.0351
G1 X113.090 Y199.910 E11.2925
G1 X109.272 Y199.825 E11.5497
G1 X102.615 Y199.529 E11.9985
G1 X102.622 Y203.259 E12.2498
G1 X101.978 Y203.259 E12.2931
G1 X101.984 Y199.471 E12.5482
G1 X95.768 Y198.840 E12.9691
G1 X92.009 Y198.374 E13.2242
G1 X88.942 Y197.926 E13.4329
G1 X88.262 Y197.825 E13.4792
G1 X84.524 Y197.193 E13.7346
G1 X80.803 Y196.480 E13.9897
G1 X77.097 Y195.683 E14.2450
G1 X73.413 Y194.806 E14.5001
G1 X69.748 Y193.848 E14.7553
G1 X68.019 Y193.355 E14.8764
G1 X68.195 Y192.901 E14.9092
G1 X68.234 Y192.064 E14.9656
G1 X68.083 Y191.319 E15.0168
G1 X67.016 Y188.947 E15.1920
G1 X66.963 Y188.799 E15.2025
G1 X66.963 Y188.657 E15.2121
G1 X67.582 Y180.674 E15.7514
G1 X69.216 Y181.665 E15.8801
G92 E0.0000
G1 E-4.0000 F2400
G1 X41.127 Y160.411 F4800
G1 E0.0000 F2400
G92 E0.0000
G1 X39.334 Y160.384 E0.1208 F1125
G1 X39.348 Y159.539 E0.1777
G1 X41.072 Y159.570 E0.2938
G1 X41.127 Y160.411 E0.3506
G92 E0.0000
G1 E-4.0000 F2400
G1 X188.873 Y160.411 F4800
G1 E0.0000 F2400
G92 E0.0000
G1 X188.928 Y159.570 E0.0568 F1125
G1 X190.652 Y159.539 E0.1729
G1 X190.666 Y160.384 E0.2298
G1 X188.873 Y160.411 E0.3506
G1 X188.277 Y160.327 F4800
G92 E0.0000
G1 X188.366 Y158.980 E0.0910 F1125
G1 X191.242 Y158.929 E0.2847
G1 X191.275 Y160.975 E0.4226
G1 X188.213 Y161.020 E0.6288
G1 X188.277 Y160.327 E0.6757
G1 X188.217 Y135.616 F4800
G92 E0.0000
G1 X188.127 Y134.549 E0.0721 F1125
G1 X190.848 Y134.505 E0.2555
G1 X190.866 Y135.578 E0.3277
G1 X188.217 Y135.616 E0.5062
G92 E0.0000
G1 E-4.0000 F2400
G1 X162.941 Y179.656 F4800
G1 E0.0000 F2400
G92 E0.0000
G1 X163.637 Y188.638 E0.6068 F1125
G1 X163.637 Y188.843 E0.6206
G1 X163.627 Y188.917 E0.6256
G1 X163.585 Y189.057 E0.6354
G1 X163.520 Y189.200 E0.6461
G1 X162.349 Y191.355 E0.8112
G1 X162.116 Y192.035 E0.8596
G1 X162.155 Y193.219 E0.9394
G1 X162.592 Y193.805 E0.9887
G1 X160.411 Y194.427 E1.1414
G1 X156.733 Y195.389 E1.3975
G1 X156.040 Y195.554 E1.4455
G1 X153.035 Y196.269 E1.6535
G1 X149.316 Y197.068 E1.9097
G1 X145.582 Y197.784 E2.1657
G1 X141.832 Y198.418 E2.4219
G1 X141.146 Y198.519 E2.4686
G1 X138.072 Y198.968 E2.6779
G1 X134.299 Y199.436 E2.9339
G1 X128.617 Y200.013 E3.3186
G1 X128.623 Y203.859 E3.5776
G1 X126.777 Y203.859 E3.7019
G1 X126.784 Y200.156 E3.9514
G1 X120.749 Y200.424 E4.3583
