; G-Code generated by Simplify3D(R) Version 4.1.2
; Apr 23, 2020 at 10:16:50 PM
; Settings Summary
;   processName,Process1
;   applyToModels,THICKER-USE PLA OR ABS Simple Face Shield 2.0
;   profileName,Creality Ender 3 Pro (VISOR 1.0) (modified)
;   profileVersion,2020-04-21 15:12:59
;   baseProfile,Creality Ender 3 Pro (modified)
;   printMaterial,PLA
;   printQuality,Fast
;   printExtruders,
;   extruderName,Primary Extruder
;   extruderToolheadNumber,0
;   extruderDiameter,0.4
;   extruderAutoWidth,0
;   extruderWidth,0.4
;   extrusionMultiplier,0.9
;   extruderUseRetract,1
;   extruderRetractionDistance,4
;   extruderExtraRestartDistance,0
;   extruderRetractionZLift,0
;   extruderRetractionSpeed,2400
;   extruderUseCoasting,0
;   extruderCoastingDistance,0.2
;   extruderUseWipe,0
;   extruderWipeDistance,5
;   primaryExtruder,0
;   layerHeight,0.3
;   topSolidLayers,3
;   bottomSolidLayers,3
;   perimeterOutlines,5
;   printPerimetersInsideOut,0
;   startPointOption,2
;   startPointOriginX,0
;   startPointOriginY,0
;   sequentialIslands,0
;   spiralVaseMode,0
;   firstLayerHeightPercentage,120
;   firstLayerWidthPercentage,150
;   firstLayerUnderspeed,0.5
;   useRaft,0
;   raftExtruder,0
;   raftTopLayers,3
;   raftBaseLayers,2
;   raftOffset,3
;   raftSeparationDistance,0.14
;   raftTopInfill,100
;   aboveRaftSpeedMultiplier,0.3
;   useSkirt,0
;   skirtExtruder,0
;   skirtLayers,1
;   skirtOutlines,2
;   skirtOffset,4
;   usePrimePillar,0
;   primePillarExtruder,999
;   primePillarWidth,12
;   primePillarLocation,7
;   primePillarSpeedMultiplier,1
;   useOozeShield,0
;   oozeShieldExtruder,999
;   oozeShieldOffset,2
;   oozeShieldOutlines,1
;   oozeShieldSidewallShape,1
;   oozeShieldSidewallAngle,30
;   oozeShieldSpeedMultiplier,1
;   infillExtruder,0
;   internalInfillPattern,Rectilinear
;   externalInfillPattern,Rectilinear
;   infillPercentage,15
;   outlineOverlapPercentage,15
;   infillExtrusionWidthPercentage,100
;   minInfillLength,5
;   infillLayerInterval,1
;   internalInfillAngles,45,-45
;   overlapInternalInfillAngles,0
;   externalInfillAngles,45,-45
;   generateSupport,0
;   supportExtruder,0
;   supportInfillPercentage,25
;   supportExtraInflation,0
;   supportBaseLayers,0
;   denseSupportExtruder,0
;   denseSupportLayers,0
;   denseSupportInfillPercentage,70
;   supportLayerInterval,1
;   supportHorizontalPartOffset,0.3
;   supportUpperSeparationLayers,1
;   supportLowerSeparationLayers,1
;   supportType,0
;   supportGridSpacing,4
;   maxOverhangAngle,45
;   supportAngles,0
;   temperatureName,Primary Extruder,Heated Bed
;   temperatureNumber,0,0
;   temperatureSetpointCount,1,1
;   temperatureSetpointLayers,1,1
;   temperatureSetpointTemperatures,210,60
;   temperatureStabilizeAtStartup,1,1
;   temperatureHeatedBed,0,1
;   fanLayers,1,2
;   fanSpeeds,0,100
;   blipFanToFullPower,0
;   adjustSpeedForCooling,1
;   minSpeedLayerTime,15
;   minCoolingSpeedSlowdown,20
;   increaseFanForCooling,0
;   minFanLayerTime,45
;   maxCoolingFanSpeed,100
;   increaseFanForBridging,0
;   bridgingFanSpeed,100
;   use5D,1
;   relativeEdistances,0
;   allowEaxisZeroing,1
;   independentExtruderAxes,0
;   includeM10123,0
;   stickySupport,1
;   applyToolheadOffsets,0
;   gcodeXoffset,0
;   gcodeYoffset,0
;   gcodeZoffset,0
;   overrideMachineDefinition,1
;   machineTypeOverride,0
;   strokeXoverride,220
;   strokeYoverride,220
;   strokeZoverride,250
;   originOffsetXoverride,-5
;   originOffsetYoverride,-5
;   originOffsetZoverride,0
;   homeXdirOverride,-1
;   homeYdirOverride,-1
;   homeZdirOverride,-1
;   flipXoverride,1
;   flipYoverride,-1
;   flipZoverride,1
;   toolheadOffsets,0,0|0,0|0,0|0,0|0,0|0,0
;   overrideFirmwareConfiguration,1
;   firmwareTypeOverride,RepRap (Marlin/Repetier/Sprinter)
;   GPXconfigOverride,r2
;   baudRateOverride,115200
;   overridePrinterModels,1
;   printerModelsOverride
;   startingGcode,G28 ; home all axes,G1 X5 Y10 Z0.2 F3000 ; get ready to prime,G92 E0 ; reset extrusion distance,G1 X160 E15 F600 ; prime nozzle,G1 X180 F5000 ; quick wipe
;   layerChangeGcode,
;   retractionGcode,
;   toolChangeGcode,
;   endingGcode,G28 X0 ; home X axis,M106 S0 ; turn off cooling fan,M104 S0 ; turn off extruder,M140 S0 ; turn off bed,M84 ; disable motors
;   exportFileFormat,gcode
;   celebration,0
;   celebrationSong,Random Song
;   postProcessing,
;   defaultSpeed,3000
;   outlineUnderspeed,1
;   solidInfillUnderspeed,0.8
;   supportUnderspeed,0.8
;   rapidXYspeed,4800
;   rapidZspeed,1000
;   minBridgingArea,50
;   bridgingExtraInflation,0
;   bridgingExtrusionMultiplier,1
;   bridgingSpeedMultiplier,1
;   useFixedBridgingAngle,0
;   fixedBridgingAngle,0
;   applyBridgingToPerimeters,0
;   filamentDiameters,1.75|1.75|1.75|1.75|1.75|1.75
;   filamentPricesPerKg,46|46|46|46|46|46
;   filamentDensities,1.25|1.25|1.25|1.25|1.25|1.25
;   useMinPrintHeight,0
;   minPrintHeight,0
;   useMaxPrintHeight,0
;   maxPrintHeight,0
;   useDiaphragm,0
;   diaphragmLayerInterval,20
;   robustSlicing,1
;   mergeAllIntoSolid,0
;   onlyRetractWhenCrossingOutline,1
;   retractBetweenLayers,1
;   useRetractionMinTravel,0
;   retractionMinTravel,3
;   retractWhileWiping,0
;   onlyWipeOutlines,1
;   avoidCrossingOutline,0
;   maxMovementDetourFactor,3
;   toolChangeRetractionDistance,12
;   toolChangeExtraRestartDistance,-0.5
;   toolChangeRetractionSpeed,600
;   externalThinWallType,0
;   internalThinWallType,2
;   thinWallAllowedOverlapPercentage,10
;   singleExtrusionMinLength,1
;   singleExtrusionMinPrintingWidthPercentage,50
;   singleExtrusionMaxPrintingWidthPercentage,200
;   singleExtrusionEndpointExtension,0.2
;   horizontalSizeCompensation,0
G90
M82
M106 S0
M140 S60
M190 S60
M104 S210 T0
M109 S210 T0
G28 ; home all axes
G1 X5 Y10 Z0.2 F3000 ; get ready to prime
G92 E0 ; reset extrusion distance
G1 X160 E15 F600 ; prime nozzle
G1 X180 F5000 ; quick wipe
; process Process1
; layer 1, Z = 0.360
T0
G92 E0.0000
G1 E-4.0000 F2400
; feature outer perimeter
; tool H0.360 W0.600
G1 Z0.360 F1000
G1 X73.829 Y30.215 F4800
G1 E0.0000 F2400
G92 E0.0000
G1 X74.179 Y29.353 E0.0751 F1500
G1 X74.266 Y29.171 E0.0915
G1 X74.719 Y28.361 E0.1665
G1 X75.248 Y27.606 E0.2410
G1 X75.851 Y26.908 E0.3155
G1 X76.522 Y26.276 E0.3901
G1 X77.254 Y25.714 E0.4646
G1 X78.039 Y25.230 E0.5391
G1 X78.869 Y24.828 E0.6137
G1 X79.735 Y24.513 E0.6882
G1 X80.629 Y24.286 E0.7627
G1 X81.542 Y24.152 E0.8373
G1 X82.463 Y24.111 E0.9118
G1 X83.384 Y24.164 E0.9864
G1 X84.294 Y24.310 E1.0609
G1 X85.185 Y24.547 E1.1354
G1 X86.048 Y24.874 E1.2100
G1 X86.873 Y25.286 E1.2845
G1 X87.651 Y25.781 E1.3590
G1 X88.376 Y26.351 E1.4336
G1 X89.038 Y26.992 E1.5081
G1 X89.633 Y27.697 E1.5826
G1 X90.153 Y28.459 E1.6571
G1 X90.595 Y29.274 E1.7321
G1 X90.680 Y29.458 E1.7485
G1 X91.018 Y30.323 E1.8235
G1 X91.265 Y31.211 E1.8980
G1 X91.420 Y32.120 E1.9726
G1 X91.483 Y33.040 E2.0471
G1 X91.451 Y33.961 E2.1216
G1 X91.327 Y34.875 E2.1961
G1 X91.110 Y35.771 E2.2707
G1 X90.803 Y36.641 E2.3452
G1 X90.410 Y37.476 E2.4198
G1 X90.043 Y38.089 E2.4775
G1 X89.935 Y38.264 E2.4942
G1 X89.381 Y39.003 E2.5688
G1 X88.749 Y39.688 E2.6441
G1 X86.075 Y42.370 E2.9502
G1 X83.462 Y45.125 E3.2571
G1 X80.919 Y47.945 E3.5640
G1 X78.447 Y50.828 E3.8709
G1 X76.048 Y53.771 E4.1778
G1 X73.724 Y56.773 E4.4847
G1 X71.475 Y59.833 E4.7916
G1 X69.303 Y62.948 E5.0985
G1 X67.210 Y66.116 E5.4053
G1 X65.197 Y69.335 E5.7122
G1 X63.265 Y72.604 E6.0191
G1 X61.415 Y75.920 E6.3260
G1 X60.045 Y78.526 E6.5640
G1 X59.648 Y79.281 E6.6329
G1 X57.966 Y82.685 E6.9398
G1 X56.370 Y86.130 E7.2467
G1 X54.860 Y89.614 E7.5536
G1 X53.758 Y92.344 E7.7915
G1 X53.438 Y93.135 E7.8604
G1 X52.104 Y96.690 E8.1673
G1 X50.860 Y100.278 E8.4742
G1 X49.965 Y103.082 E8.7122
G1 X49.706 Y103.895 E8.7811
G1 X48.642 Y107.540 E9.0880
G1 X47.670 Y111.210 E9.3949
G1 X46.789 Y114.904 E9.7018
G1 X46.002 Y118.619 E10.0087
G1 X45.307 Y122.352 E10.3156
G1 X44.706 Y126.101 E10.6224
G1 X44.199 Y129.864 E10.9293
G1 X43.786 Y133.638 E11.2362
G1 X43.468 Y137.422 E11.5431
G1 X43.244 Y141.213 E11.8500
G1 X43.115 Y145.008 E12.1569
G1 X43.081 Y148.804 E12.4638
G1 X43.142 Y152.601 E12.7707
G1 X43.297 Y156.395 E13.0775
G1 X43.548 Y160.184 E13.3844
G1 X43.815 Y163.116 E13.6224
G1 X43.893 Y163.965 E13.6913
G1 X44.333 Y167.744 E13.9988
G1 X44.475 Y168.473 E14.0588
G1 X44.710 Y169.184 E14.1194
G1 X44.956 Y169.710 E14.1663
G1 X45.035 Y169.865 E14.1803
G1 X45.440 Y170.492 E14.2406
G1 X45.921 Y171.064 E14.3011
G1 X46.350 Y171.471 E14.3489
G1 X46.947 Y171.921 E14.4093
G1 X47.598 Y172.294 E14.4699
G1 X48.291 Y172.581 E14.5305
G1 X49.016 Y172.779 E14.5913
G1 X50.830 Y173.008 E14.7391
G1 X51.893 Y173.222 E14.8267
G1 X52.932 Y173.524 E14.9142
G1 X53.943 Y173.911 E15.0016
G1 X54.918 Y174.380 E15.0891
G1 X55.852 Y174.927 E15.1766
G1 X56.737 Y175.551 E15.2641
G1 X57.567 Y176.245 E15.3515
G1 X58.337 Y177.005 E15.4390
G1 X59.042 Y177.827 E15.5265
G1 X59.676 Y178.704 E15.6140
G1 X60.108 Y179.418 E15.6814
G1 X60.236 Y179.630 E15.7015
G1 X60.717 Y180.600 E15.7889
G1 X61.116 Y181.606 E15.8764
G1 X61.431 Y182.641 E15.9639
G1 X61.659 Y183.699 E16.0513
G1 X61.799 Y184.773 E16.1388
G1 X61.850 Y185.854 E16.2263
G1 X61.807 Y187.064 E16.3242
G1 X61.806 Y187.752 E16.3798
G1 X61.888 Y188.447 E16.4364
G1 X62.027 Y189.036 E16.4853
G1 X62.284 Y189.753 E16.5468
G1 X62.614 Y190.400 E16.6055
G1 X62.718 Y190.561 E16.6211
G1 X63.023 Y191.006 E16.6647
G1 X63.520 Y191.573 E16.7255
G1 X64.084 Y192.071 E16.7864
G1 X64.706 Y192.493 E16.8471
G1 X64.962 Y192.625 E16.8704
G1 X65.184 Y192.698 E16.8893
G1 X65.478 Y192.688 E16.9131
G1 X65.682 Y192.529 E16.9340
G1 X65.763 Y192.303 E16.9534
G1 X65.725 Y192.000 E16.9781
G1 X64.761 Y189.857 E17.1680
G1 X64.612 Y189.440 E17.2038
G1 X64.536 Y189.016 E17.2386
G1 X64.534 Y188.940 E17.2448
G1 X64.533 Y188.566 E17.2750
G1 X65.212 Y179.815 E17.9844
G1 X65.264 Y179.479 E18.0118
G1 X65.366 Y179.167 E18.0383
G1 X65.515 Y178.876 E18.0648
G1 X65.708 Y178.611 E18.0913
G1 X65.940 Y178.379 E18.1178
G1 X66.206 Y178.188 E18.1443
G1 X66.498 Y178.040 E18.1708
G1 X66.810 Y177.940 E18.1973
G1 X67.134 Y177.890 E18.2238
G1 X67.462 Y177.892 E18.2502
G1 X67.631 Y177.920 E18.2641
G1 X67.794 Y177.975 E18.2780
G1 X67.958 Y178.061 E18.2930
G1 X70.442 Y179.567 E18.5277
G1 X72.986 Y180.997 E18.7636
G1 X75.576 Y182.342 E18.9995
G1 X78.210 Y183.601 E19.2354
G1 X80.883 Y184.773 E19.4713
G1 X83.594 Y185.855 E19.7072
G1 X86.339 Y186.847 E19.9431
G1 X89.115 Y187.748 E20.1790
G1 X91.919 Y188.557 E20.4149
G1 X94.749 Y189.273 E20.6508
G1 X97.601 Y189.895 E20.8867
G1 X100.472 Y190.422 E21.1227
G1 X103.358 Y190.855 E21.3586
G1 X106.258 Y191.192 E21.5945
G1 X109.166 Y191.432 E21.8304
G1 X112.082 Y191.577 E22.0663
G1 X115.000 Y191.625 E22.3022
G1 X117.918 Y191.577 E22.5381
G1 X120.834 Y191.432 E22.7740
G1 X123.742 Y191.192 E23.0099
G1 X126.642 Y190.855 E23.2458
G1 X129.528 Y190.422 E23.4817
G1 X132.399 Y189.895 E23.7176
G1 X135.251 Y189.273 E23.9535
G1 X138.081 Y188.557 E24.1894
G1 X140.885 Y187.748 E24.4253
G1 X143.661 Y186.847 E24.6612
G1 X146.406 Y185.855 E24.8971
G1 X149.117 Y184.773 E25.1330
G1 X151.790 Y183.601 E25.3689
G1 X153.833 Y182.625 E25.5519
G1 X154.424 Y182.342 E25.6048
G1 X157.014 Y180.997 E25.8407
G1 X159.558 Y179.567 E26.0766
G1 X162.042 Y178.061 E26.3114
G1 X162.206 Y177.975 E26.3264
G1 X162.369 Y177.920 E26.3402
G1 X162.538 Y177.892 E26.3541
G1 X162.866 Y177.890 E26.3806
G1 X163.190 Y177.940 E26.4071
G1 X163.502 Y178.040 E26.4335
G1 X163.794 Y178.188 E26.4600
G1 X164.060 Y178.379 E26.4865
G1 X164.292 Y178.611 E26.5130
G1 X164.485 Y178.876 E26.5395
G1 X164.634 Y179.167 E26.5660
G1 X164.736 Y179.479 E26.5925
G1 X164.788 Y179.815 E26.6199
G1 X165.467 Y188.566 E27.3293
G1 X165.467 Y188.976 E27.3625
G1 X165.420 Y189.306 E27.3895
G1 X165.300 Y189.709 E27.4234
G1 X165.156 Y190.021 E27.4512
G1 X164.073 Y192.016 E27.6347
G1 X163.997 Y192.237 E27.6535
G1 X163.999 Y192.528 E27.6771
G1 X164.137 Y192.720 E27.6962
G1 X164.286 Y192.802 E27.7099
G1 X164.507 Y192.824 E27.7279
G1 X164.749 Y192.764 E27.7481
G1 X165.024 Y192.643 E27.7723
G1 X165.692 Y192.237 E27.8355
G1 X166.300 Y191.746 E27.8987
G1 X166.840 Y191.178 E27.9620
G1 X167.303 Y190.538 E28.0258
G1 X167.637 Y189.928 E28.0820
G1 X167.946 Y189.126 E28.1515
G1 X168.103 Y188.496 E28.2040
G1 X168.201 Y187.661 E28.2719
G1 X168.150 Y185.855 E28.4180
G1 X168.201 Y184.773 E28.5055
G1 X168.341 Y183.699 E28.5930
G1 X168.569 Y182.641 E28.6805
G1 X168.884 Y181.606 E28.7680
G1 X169.283 Y180.600 E28.8554
G1 X169.764 Y179.630 E28.9429
G1 X170.324 Y178.704 E29.0304
G1 X170.958 Y177.827 E29.1179
G1 X171.663 Y177.005 E29.2053
G1 X172.433 Y176.245 E29.2928
G1 X173.263 Y175.551 E29.3803
G1 X174.148 Y174.927 E29.4678
G1 X175.082 Y174.380 E29.5553
G1 X176.057 Y173.911 E29.6427
G1 X177.068 Y173.524 E29.7302
G1 X178.107 Y173.222 E29.8177
G1 X179.170 Y173.008 E29.9053
G1 X180.984 Y172.779 E30.0531
G1 X181.709 Y172.581 E30.1138
G1 X182.401 Y172.294 E30.1743
G1 X182.909 Y172.010 E30.2214
G1 X183.057 Y171.918 E30.2355
G1 X183.650 Y171.471 E30.2955
G1 X184.079 Y171.064 E30.3433
G1 X184.560 Y170.492 E30.4037
G1 X184.967 Y169.862 E30.4643
G1 X185.289 Y169.187 E30.5248
G1 X185.346 Y169.023 E30.5388
G1 X185.525 Y168.472 E30.5856
G1 X185.667 Y167.744 E30.6455
G1 X186.107 Y163.965 E30.9530
G1 X186.452 Y160.184 E31.2599
G1 X186.703 Y156.395 E31.5668
G1 X186.858 Y152.601 E31.8737
G1 X186.919 Y148.804 E32.1806
G1 X186.885 Y145.008 E32.4875
G1 X186.756 Y141.213 E32.7944
G1 X186.532 Y137.422 E33.1013
G1 X186.214 Y133.638 E33.4082
G1 X185.801 Y129.864 E33.7150
G1 X185.294 Y126.101 E34.0219
G1 X184.693 Y122.352 E34.3288
G1 X183.998 Y118.619 E34.6357
G1 X183.211 Y114.904 E34.9426
G1 X182.330 Y111.210 E35.2495
G1 X181.358 Y107.540 E35.5564
G1 X180.294 Y103.895 E35.8633
G1 X179.140 Y100.278 E36.1701
G1 X177.896 Y96.690 E36.4770
G1 X176.562 Y93.135 E36.7839
G1 X175.140 Y89.614 E37.0908
G1 X173.630 Y86.130 E37.3977
G1 X172.034 Y82.685 E37.7046
G1 X170.352 Y79.281 E38.0115
G1 X168.982 Y76.675 E38.2494
G1 X168.585 Y75.920 E38.3184
G1 X166.735 Y72.604 E38.6253
G1 X164.803 Y69.335 E38.9321
G1 X162.790 Y66.116 E39.2390
G1 X160.697 Y62.948 E39.5459
G1 X158.525 Y59.833 E39.8528
G1 X156.276 Y56.773 E40.1597
G1 X153.952 Y53.771 E40.4666
G1 X151.553 Y50.828 E40.7735
G1 X149.081 Y47.945 E41.0804
G1 X146.538 Y45.125 E41.3872
G1 X143.925 Y42.370 E41.6941
G1 X141.251 Y39.688 E42.0003
G1 X140.619 Y39.003 E42.0756
G1 X140.066 Y38.265 E42.1501
G1 X139.590 Y37.475 E42.2246
G1 X139.197 Y36.641 E42.2992
G1 X138.890 Y35.771 E42.3737
G1 X138.673 Y34.875 E42.4482
G1 X138.548 Y33.958 E42.5231
G1 X138.536 Y33.753 E42.5396
G1 X138.517 Y33.041 E42.5972
G1 X138.580 Y32.120 E42.6718
G1 X138.735 Y31.211 E42.7464
G1 X138.982 Y30.323 E42.8209
G1 X139.320 Y29.458 E42.8959
G1 X139.405 Y29.274 E42.9123
G1 X139.848 Y28.458 E42.9874
G1 X140.244 Y27.866 E43.0449
G1 X140.364 Y27.701 E43.0614
G1 X140.961 Y26.992 E43.1363
G1 X141.625 Y26.350 E43.2109
G1 X142.182 Y25.906 E43.2685
G1 X142.346 Y25.782 E43.2851
G1 X143.127 Y25.286 E43.3599
G1 X143.952 Y24.874 E43.4344
G1 X144.815 Y24.547 E43.5090
G1 X145.506 Y24.361 E43.5669
G1 X145.705 Y24.310 E43.5834
G1 X146.616 Y24.164 E43.6580
G1 X147.537 Y24.111 E43.7326
G1 X148.459 Y24.152 E43.8072
G1 X148.663 Y24.181 E43.8238
G1 X149.371 Y24.286 E43.8816
G1 X150.265 Y24.513 E43.9562
G1 X151.131 Y24.828 E44.0307
G1 X151.964 Y25.232 E44.1055
G1 X152.140 Y25.336 E44.1221
G1 X152.745 Y25.714 E44.1797
G1 X153.478 Y26.276 E44.2543
G1 X154.149 Y26.908 E44.3289
G1 X154.752 Y27.606 E44.4034
G1 X155.281 Y28.361 E44.4779
G1 X155.731 Y29.166 E44.5524
G1 X156.100 Y30.017 E44.6274
G1 X156.169 Y30.208 E44.6438
G1 X156.428 Y31.099 E44.7188
G1 X156.596 Y32.007 E44.7934
G1 X156.659 Y32.716 E44.8510
G1 X156.670 Y32.920 E44.8675
G1 X156.650 Y33.846 E44.9424
G1 X156.537 Y34.762 E45.0169
G1 X156.332 Y35.661 E45.0915
G1 X156.036 Y36.535 E45.1660
G1 X155.742 Y37.186 E45.2238
G1 X155.654 Y37.372 E45.2404
G1 X155.188 Y38.169 E45.3151
G1 X154.643 Y38.914 E45.3896
G1 X154.030 Y39.595 E45.4637
G1 X153.882 Y39.720 E45.4793
G1 X153.719 Y39.814 E45.4945
G1 X153.543 Y39.879 E45.5097
