; G-Code generated by Simplify3D(R) Version 4.1.2
; Apr 4, 2020 at 3:28:22 PM
; Settings Summary
;   processName,Process1
;   applyToModels,ZAxis_knob,Creality_Extruder_Knob_-_Ender_3_Pro
;   profileName,Creality Ender 3 Pro (modified)
;   profileVersion,2020-04-04 15:17:02
;   baseProfile,
;   printMaterial,PLA
;   printQuality,Medium
;   printExtruders,
;   extruderName,Primary Extruder
;   extruderToolheadNumber,0
;   extruderDiameter,0.4
;   extruderAutoWidth,0
;   extruderWidth,0.4
;   extrusionMultiplier,0.9
;   extruderUseRetract,1
;   extruderRetractionDistance,6
;   extruderExtraRestartDistance,0
;   extruderRetractionZLift,0
;   extruderRetractionSpeed,1500
;   extruderUseCoasting,0
;   extruderCoastingDistance,0.2
;   extruderUseWipe,0
;   extruderWipeDistance,5
;   primaryExtruder,0
;   layerHeight,0.2
;   topSolidLayers,3
;   bottomSolidLayers,3
;   perimeterOutlines,2
;   printPerimetersInsideOut,1
;   startPointOption,2
;   startPointOriginX,0
;   startPointOriginY,0
;   sequentialIslands,0
;   spiralVaseMode,0
;   firstLayerHeightPercentage,120
;   firstLayerWidthPercentage,150
;   firstLayerUnderspeed,0.5
;   useRaft,0
;   raftExtruder,0
;   raftTopLayers,3
;   raftBaseLayers,2
;   raftOffset,3
;   raftSeparationDistance,0.14
;   raftTopInfill,100
;   aboveRaftSpeedMultiplier,0.3
;   useSkirt,1
;   skirtExtruder,0
;   skirtLayers,1
;   skirtOutlines,2
;   skirtOffset,4
;   usePrimePillar,0
;   primePillarExtruder,999
;   primePillarWidth,12
;   primePillarLocation,7
;   primePillarSpeedMultiplier,1
;   useOozeShield,0
;   oozeShieldExtruder,999
;   oozeShieldOffset,2
;   oozeShieldOutlines,1
;   oozeShieldSidewallShape,1
;   oozeShieldSidewallAngle,30
;   oozeShieldSpeedMultiplier,1
;   infillExtruder,0
;   internalInfillPattern,Rectilinear
;   externalInfillPattern,Rectilinear
;   infillPercentage,20
;   outlineOverlapPercentage,15
;   infillExtrusionWidthPercentage,100
;   minInfillLength,5
;   infillLayerInterval,1
;   internalInfillAngles,45,-45
;   overlapInternalInfillAngles,0
;   externalInfillAngles,45,-45
;   generateSupport,0
;   supportExtruder,0
;   supportInfillPercentage,30
;   supportExtraInflation,0
;   supportBaseLayers,0
;   denseSupportExtruder,0
;   denseSupportLayers,0
;   denseSupportInfillPercentage,70
;   supportLayerInterval,1
;   supportHorizontalPartOffset,0.3
;   supportUpperSeparationLayers,1
;   supportLowerSeparationLayers,1
;   supportType,0
;   supportGridSpacing,4
;   maxOverhangAngle,45
;   supportAngles,0
;   temperatureName,Primary Extruder,Heated Bed
;   temperatureNumber,0,0
;   temperatureSetpointCount,1,1
;   temperatureSetpointLayers,1,1
;   temperatureSetpointTemperatures,210,60
;   temperatureStabilizeAtStartup,1,1
;   temperatureHeatedBed,0,1
;   fanLayers,1,2
;   fanSpeeds,0,100
;   blipFanToFullPower,0
;   adjustSpeedForCooling,1
;   minSpeedLayerTime,15
;   minCoolingSpeedSlowdown,20
;   increaseFanForCooling,0
;   minFanLayerTime,45
;   maxCoolingFanSpeed,100
;   increaseFanForBridging,0
;   bridgingFanSpeed,100
;   use5D,1
;   relativeEdistances,0
;   allowEaxisZeroing,1
;   independentExtruderAxes,0
;   includeM10123,0
;   stickySupport,1
;   applyToolheadOffsets,0
;   gcodeXoffset,0
;   gcodeYoffset,0
;   gcodeZoffset,0
;   overrideMachineDefinition,1
;   machineTypeOverride,0
;   strokeXoverride,220
;   strokeYoverride,220
;   strokeZoverride,250
;   originOffsetXoverride,-5
;   originOffsetYoverride,-5
;   originOffsetZoverride,0
;   homeXdirOverride,-1
;   homeYdirOverride,-1
;   homeZdirOverride,-1
;   flipXoverride,1
;   flipYoverride,-1
;   flipZoverride,1
;   toolheadOffsets,0,0|0,0|0,0|0,0|0,0|0,0
;   overrideFirmwareConfiguration,1
;   firmwareTypeOverride,RepRap (Marlin/Repetier/Sprinter)
;   GPXconfigOverride,r2
;   baudRateOverride,115200
;   overridePrinterModels,1
;   printerModelsOverride
;   startingGcode,G28 ; home all axes,G1 X5 Y10 Z0.2 F3000 ; get ready to prime,G92 E0 ; reset extrusion distance,G1 X160 E15 F600 ; prime nozzle,G1 X180 F5000 ; quick wipe
;   layerChangeGcode,
;   retractionGcode,
;   toolChangeGcode,
;   endingGcode,G28 X0 ; home X axis,M106 S0 ; turn off cooling fan,M104 S0 ; turn off extruder,M140 S0 ; turn off bed,M84 ; disable motors
;   exportFileFormat,gcode
;   celebration,0
;   celebrationSong,Random Song
;   postProcessing,
;   defaultSpeed,2400
;   outlineUnderspeed,0.5
;   solidInfillUnderspeed,0.8
;   supportUnderspeed,0.8
;   rapidXYspeed,4800
;   rapidZspeed,1000
;   minBridgingArea,50
;   bridgingExtraInflation,0
;   bridgingExtrusionMultiplier,1
;   bridgingSpeedMultiplier,1
;   useFixedBridgingAngle,0
;   fixedBridgingAngle,0
;   applyBridgingToPerimeters,0
;   filamentDiameters,1.75|1.75|1.75|1.75|1.75|1.75
;   filamentPricesPerKg,25|46|46|46|46|46
;   filamentDensities,1.25|1.25|1.25|1.25|1.25|1.25
;   useMinPrintHeight,0
;   minPrintHeight,9
;   useMaxPrintHeight,0
;   maxPrintHeight,9
;   useDiaphragm,0
;   diaphragmLayerInterval,20
;   robustSlicing,1
;   mergeAllIntoSolid,0
;   onlyRetractWhenCrossingOutline,1
;   retractBetweenLayers,1
;   useRetractionMinTravel,0
;   retractionMinTravel,3
;   retractWhileWiping,0
;   onlyWipeOutlines,1
;   avoidCrossingOutline,0
;   maxMovementDetourFactor,3
;   toolChangeRetractionDistance,12
;   toolChangeExtraRestartDistance,-0.5
;   toolChangeRetractionSpeed,600
;   externalThinWallType,0
;   internalThinWallType,2
;   thinWallAllowedOverlapPercentage,10
;   singleExtrusionMinLength,1
;   singleExtrusionMinPrintingWidthPercentage,50
;   singleExtrusionMaxPrintingWidthPercentage,200
;   singleExtrusionEndpointExtension,0.2
;   horizontalSizeCompensation,0
G90
M82
M106 S0
M140 S60
M190 S60
M104 S210 T0
M109 S210 T0
G28 ; home all axes
G1 X5 Y10 Z0.2 F3000 ; get ready to prime
G92 E0 ; reset extrusion distance
G1 X160 E15 F600 ; prime nozzle
G1 X180 F5000 ; quick wipe
; process Process1
; layer 1, Z = 0.240
T0
G92 E0.0000
G1 E-6.0000 F1500
; feature skirt
; tool H0.240 W0.600
G1 Z0.240 F1000
G1 X69.700 Y69.339 F4800
G1 E0.0000 F1500
G92 E0.0000
G1 X70.425 Y68.322 E0.0673 F1200
G1 X70.870 Y67.847 E0.1024
G1 X72.061 Y66.872 E0.1853
G1 X72.121 Y66.825 E0.1894
G1 X72.827 Y66.283 E0.2374
G1 X73.279 Y66.008 E0.2659
G1 X74.288 Y65.534 E0.3259
G1 X75.270 Y65.301 E0.3803
G1 X76.641 Y65.262 E0.4542
G1 X77.668 Y65.453 E0.5105
G1 X78.670 Y65.873 E0.5690
G1 X78.962 Y66.018 E0.5866
G1 X79.593 Y66.388 E0.6260
G1 X79.630 Y66.400 E0.6281
G1 X79.670 Y66.395 E0.6303
G1 X79.689 Y66.388 E0.6314
G1 X79.707 Y66.377 E0.6325
G1 X79.734 Y66.349 E0.6346
G1 X79.748 Y66.312 E0.6367
G1 X79.843 Y65.636 E0.6735
G1 X79.886 Y65.410 E0.6859
G1 X80.109 Y64.471 E0.7380
G1 X80.538 Y63.557 E0.7923
G1 X81.361 Y62.460 E0.8662
G1 X82.150 Y61.775 E0.9225
G1 X83.244 Y61.174 E0.9898
G1 X83.851 Y60.939 E1.0249
G1 X85.347 Y60.578 E1.1078
G1 X85.422 Y60.561 E1.1119
G1 X86.294 Y60.379 E1.1599
G1 X86.820 Y60.327 E1.1884
G1 X87.934 Y60.338 E1.2484
G1 X88.920 Y60.554 E1.3028
G1 X90.172 Y61.114 E1.3767
G1 X91.014 Y61.732 E1.4330
G1 X91.736 Y62.544 E1.4915
G1 X91.936 Y62.803 E1.5091
G1 X92.344 Y63.409 E1.5485
G1 X92.372 Y63.436 E1.5507
G1 X92.410 Y63.449 E1.5528
G1 X92.430 Y63.451 E1.5539
G1 X92.451 Y63.449 E1.5550
G1 X92.488 Y63.436 E1.5571
G1 X92.517 Y63.409 E1.5592
G1 X92.895 Y62.841 E1.5960
G1 X93.032 Y62.655 E1.6085
G1 X93.661 Y61.880 E1.6623
G1 X94.504 Y61.212 E1.7202
G1 X95.833 Y60.568 E1.7998
G1 X96.880 Y60.320 E1.8577
G1 X98.052 Y60.303 E1.9209
G1 X98.630 Y60.363 E1.9522
G1 X100.962 Y60.890 E2.0810
G1 X101.595 Y61.129 E2.1175
G1 X102.704 Y61.731 E2.1855
G1 X103.495 Y62.412 E2.2417
G1 X104.323 Y63.506 E2.3156
G1 X104.756 Y64.418 E2.3700
G1 X104.983 Y65.356 E2.4220
G1 X105.026 Y65.582 E2.4344
G1 X105.124 Y66.258 E2.4712
G1 X105.138 Y66.295 E2.4733
G1 X105.166 Y66.322 E2.4755
G1 X105.184 Y66.333 E2.4766
G1 X105.203 Y66.340 E2.4777
G1 X105.243 Y66.345 E2.4798
G1 X105.280 Y66.333 E2.4819
G1 X105.868 Y65.985 E2.5187
G1 X106.072 Y65.877 E2.5312
G1 X106.975 Y65.452 E2.5849
G1 X108.024 Y65.216 E2.6429
G1 X109.501 Y65.212 E2.7225
G1 X110.551 Y65.442 E2.7804
G1 X111.616 Y65.936 E2.8436
G1 X112.109 Y66.241 E2.8749
G1 X113.982 Y67.728 E3.0037
G1 X114.449 Y68.217 E3.0402
G1 X115.186 Y69.241 E3.1081
G1 X115.604 Y70.198 E3.1644
G1 X115.875 Y71.543 E3.2383
G1 X115.869 Y72.552 E3.2927
G1 X115.667 Y73.496 E3.3447
G1 X115.608 Y73.718 E3.3571
G1 X115.403 Y74.370 E3.3939
G1 X115.400 Y74.409 E3.3961
G1 X115.413 Y74.446 E3.3982
G1 X115.424 Y74.464 E3.3993
G1 X115.439 Y74.478 E3.4004
G1 X115.472 Y74.499 E3.4025
G1 X115.511 Y74.505 E3.4046
G1 X116.191 Y74.447 E3.4414
G1 X116.422 Y74.438 E3.4539
G1 X117.420 Y74.447 E3.5076
G1 X118.468 Y74.689 E3.5656
G1 X119.800 Y75.326 E3.6452
G1 X120.646 Y75.990 E3.7031
G1 X121.391 Y76.896 E3.7663
G1 X121.704 Y77.385 E3.7976
G1 X122.746 Y79.537 E3.9264
G1 X122.954 Y80.181 E3.9629
G1 X123.174 Y81.423 E4.0309
G1 X123.135 Y82.467 E4.0871
G1 X122.797 Y83.796 E4.1610
G1 X122.353 Y84.703 E4.2154
G1 X121.761 Y85.465 E4.2674
G1 X121.612 Y85.640 E4.2798
G1 X121.144 Y86.138 E4.3166
G1 X121.124 Y86.172 E4.3187
G1 X121.120 Y86.211 E4.3209
G1 X121.122 Y86.232 E4.3220
G1 X121.129 Y86.251 E4.3231
G1 X121.150 Y86.285 E4.3252
G1 X121.183 Y86.307 E4.3273
G1 X121.821 Y86.549 E4.3641
G1 X122.033 Y86.641 E4.3766
G1 X122.928 Y87.083 E4.4304
G1 X123.767 Y87.756 E4.4883
G1 X124.684 Y88.899 E4.5673
G1 X125.153 Y89.842 E4.6240
G1 X125.425 Y90.917 E4.6837
G1 X125.500 Y91.499 E4.7154
G1 X125.519 Y93.909 E4.8452
G1 X125.452 Y94.501 E4.8773
G1 X125.178 Y95.649 E4.9409
G1 X124.707 Y96.616 E4.9989
G1 X123.788 Y97.772 E5.0784
G1 X122.953 Y98.449 E5.1364
G1 X122.059 Y98.894 E5.1902
G1 X121.848 Y98.986 E5.2026
G1 X121.211 Y99.232 E5.2394
G1 X121.178 Y99.254 E5.2415
G1 X121.157 Y99.288 E5.2436
G1 X121.151 Y99.307 E5.2447
G1 X121.148 Y99.328 E5.2459
G1 X121.153 Y99.367 E5.2480
G1 X121.173 Y99.401 E5.2501
G1 X121.642 Y99.897 E5.2869
G1 X121.793 Y100.071 E5.2993
G1 X122.388 Y100.831 E5.3513
G1 X122.835 Y101.736 E5.4057
G1 X123.179 Y103.063 E5.4796
G1 X123.223 Y104.107 E5.5359
G1 X123.008 Y105.350 E5.6039
G1 X122.802 Y105.995 E5.6403
G1 X121.770 Y108.151 E5.7691
G1 X121.459 Y108.641 E5.8004
G1 X120.719 Y109.551 E5.8636
G1 X119.875 Y110.218 E5.9216
G1 X118.545 Y110.861 E6.0011
G1 X117.499 Y111.108 E6.0591
G1 X116.501 Y111.121 E6.1129
G1 X116.270 Y111.113 E6.1253
G1 X115.590 Y111.058 E6.1621
G1 X115.551 Y111.064 E6.1642
G1 X115.517 Y111.085 E6.1663
G1 X115.503 Y111.100 E6.1674
G1 X115.492 Y111.117 E6.1686
G1 X115.479 Y111.154 E6.1707
G1 X115.482 Y111.194 E6.1728
G1 X115.690 Y111.844 E6.2096
G1 X115.750 Y112.067 E6.2220
G1 X115.956 Y113.010 E6.2740
G1 X115.967 Y114.019 E6.3284
G1 X115.701 Y115.364 E6.4023
G1 X115.287 Y116.323 E6.4586
G1 X114.562 Y117.340 E6.5259
G1 X114.117 Y117.815 E6.5609
G1 X112.926 Y118.790 E6.6439
G1 X112.866 Y118.837 E6.6480
G1 X112.159 Y119.379 E6.6960
G1 X111.708 Y119.654 E6.7245
G1 X110.699 Y120.128 E6.7845
G1 X109.717 Y120.361 E6.8389
G1 X108.346 Y120.400 E6.9128
G1 X107.319 Y120.209 E6.9691
G1 X106.317 Y119.789 E7.0276
G1 X106.025 Y119.644 E7.0452
G1 X105.394 Y119.274 E7.0846
G1 X105.356 Y119.262 E7.0867
G1 X105.317 Y119.267 E7.0888
G1 X105.297 Y119.274 E7.0900
G1 X105.280 Y119.285 E7.0911
G1 X105.252 Y119.313 E7.0932
G1 X105.238 Y119.350 E7.0953
G1 X105.137 Y120.074 E7.1347
G1 X105.070 Y120.393 E7.1523
G1 X104.778 Y121.440 E7.2108
G1 X104.291 Y122.364 E7.2671
G1 X103.417 Y123.407 E7.3404
G1 X102.645 Y124.022 E7.3936
G1 X101.718 Y124.495 E7.4497
G1 X101.232 Y124.681 E7.4777
G1 X100.257 Y124.941 E7.5321
G1 X100.152 Y124.966 E7.5379
G1 X98.682 Y125.288 E7.6190
G1 X98.035 Y125.342 E7.6540
G1 X96.788 Y125.281 E7.7213
G1 X95.779 Y125.011 E7.7775
G1 X94.559 Y124.385 E7.8514
G1 X93.773 Y123.751 E7.9058
G1 X93.162 Y123.004 E7.9578
G1 X93.024 Y122.819 E7.9702
G1 X92.643 Y122.253 E8.0070
G1 X92.614 Y122.226 E8.0092
G1 X92.577 Y122.213 E8.0113
G1 X92.556 Y122.211 E8.0124
G1 X92.536 Y122.213 E8.0135
G1 X92.499 Y122.226 E8.0156
G1 X92.470 Y122.253 E8.0178
G1 X92.065 Y122.861 E8.0571
G1 X91.866 Y123.120 E8.0747
G1 X91.148 Y123.936 E8.1333
G1 X90.644 Y124.310 E8.1671
G1 X90.725 Y124.334 E8.1716
G1 X91.516 Y124.746 E8.2197
G1 X92.459 Y125.480 E8.2841
G1 X92.937 Y125.974 E8.3211
G1 X93.658 Y126.966 E8.3872
G1 X93.753 Y127.033 E8.3935
G1 X95.562 Y127.381 E8.4927
G1 X95.997 Y127.507 E8.5171
G1 X97.059 Y127.925 E8.5786
G1 X97.896 Y128.470 E8.6325
G1 X100.587 Y131.138 E8.8366
G1 X101.137 Y131.962 E8.8900
G1 X101.611 Y133.125 E8.9577
G1 X101.781 Y133.809 E8.9956
G1 X101.905 Y135.049 E9.0628
G1 X101.953 Y135.154 E9.0690
G1 X103.373 Y136.366 E9.1696
G1 X103.691 Y136.692 E9.1941
G1 X104.415 Y137.590 E9.2563
G1 X104.876 Y138.490 E9.3108
G1 X105.860 Y142.079 E9.5113
G1 X105.920 Y143.105 E9.5666
G1 X105.715 Y144.458 E9.6404
G1 X105.444 Y145.266 E9.6863
G1 X105.003 Y146.078 E9.7361
G1 X104.969 Y146.229 E9.7444
G1 X105.011 Y146.633 E9.7663
G1 X105.486 Y147.644 E9.8265
G1 X105.668 Y148.190 E9.8575
G1 X105.942 Y149.516 E9.9305
G1 X105.913 Y150.647 E9.9915
G1 X104.983 Y154.209 E10.1898
G1 X104.516 Y155.136 E10.2458
G1 X103.644 Y156.220 E10.3207
G1 X102.987 Y156.792 E10.3676
G1 X102.026 Y157.366 E10.4279
G1 X101.959 Y157.427 E10.4328
G1 X101.908 Y157.498 E10.4375
G1 X101.874 Y157.576 E10.4421
G1 X101.855 Y157.665 E10.4470
G1 X101.846 Y158.809 E10.5086
G1 X101.678 Y159.684 E10.5567
G1 X101.177 Y160.972 E10.6311
G1 X100.617 Y161.829 E10.6863
G1 X97.854 Y164.581 E10.8964
G1 X96.417 Y165.291 E10.9828
G1 X93.730 Y165.656 E11.1289
G1 X93.713 Y165.669 E11.1301
G1 X93.650 Y165.738 E11.1351
G1 X93.096 Y166.692 E11.1945
G1 X92.596 Y167.302 E11.2370
G1 X91.645 Y168.142 E11.3054
G1 X90.739 Y168.651 E11.3614
G1 X88.805 Y169.251 E11.4705
G1 X88.612 Y169.302 E11.4812
G1 X86.837 Y169.697 E11.5792
G1 X85.817 Y169.709 E11.6342
G1 X84.573 Y169.463 E11.7025
G1 X83.822 Y169.181 E11.7457
G1 X82.939 Y168.673 E11.8006
G1 X82.424 Y168.675 E11.8284
G1 X81.545 Y169.180 E11.8830
G1 X80.795 Y169.461 E11.9262
G1 X79.551 Y169.708 E11.9945
G1 X78.529 Y169.695 E12.0495
G1 X76.754 Y169.298 E12.1476
G1 X76.562 Y169.247 E12.1583
G1 X74.632 Y168.648 E12.2672
G1 X73.730 Y168.141 E12.3229
G1 X72.776 Y167.302 E12.3914
G1 X72.272 Y166.687 E12.4342
G1 X71.718 Y165.731 E12.4938
G1 X71.656 Y165.662 E12.4987
G1 X71.586 Y165.611 E12.5034
G1 X71.509 Y165.577 E12.5080
G1 X71.419 Y165.557 E12.5129
G1 X70.337 Y165.550 E12.5712
G1 X69.575 Y165.424 E12.6128
G1 X68.320 Y165.006 E12.6841
G1 X67.351 Y164.408 E12.7454
G1 X64.755 Y161.819 E12.9430
G1 X64.194 Y160.961 E12.9982
G1 X63.695 Y159.672 E13.0727
G1 X63.527 Y158.798 E13.1206
G1 X63.518 Y157.654 E13.1823
G1 X63.499 Y157.562 E13.1874
G1 X63.465 Y157.486 E13.1919
G1 X63.415 Y157.417 E13.1965
G1 X63.349 Y157.355 E13.2013
G1 X62.386 Y156.779 E13.2618
G1 X61.728 Y156.205 E13.3089
G1 X60.858 Y155.121 E13.3837
G1 X60.394 Y154.197 E13.4394
G1 X59.463 Y150.635 E13.6378
G1 X59.435 Y149.500 E13.6990
G1 X59.706 Y148.204 E13.7703
G1 X59.861 Y147.719 E13.7978
G1 X59.864 Y147.711 E13.7982
G1 X60.311 Y145.944 E13.8964
G1 X59.936 Y145.253 E13.9388
G1 X59.663 Y144.439 E13.9851
G1 X59.462 Y143.083 E14.0589
G1 X59.524 Y142.062 E14.1140
G1 X60.509 Y138.479 E14.3142
G1 X60.967 Y137.584 E14.3684
G1 X61.690 Y136.686 E14.4305
G1 X62.011 Y136.356 E14.4553
G1 X63.434 Y135.143 E14.5561
G1 X63.482 Y135.037 E14.5623
G1 X63.607 Y133.798 E14.6294
G1 X63.777 Y133.117 E14.6673
G1 X64.251 Y131.953 E14.7350
G1 X64.801 Y131.129 E14.7884
G1 X67.494 Y128.462 E14.9926
G1 X68.330 Y127.917 E15.0464
G1 X69.393 Y127.499 E15.1079
G1 X69.829 Y127.373 E15.1324
G1 X71.638 Y127.027 E15.2316
G1 X71.733 Y126.960 E15.2379
G1 X72.456 Y125.967 E15.3040
G1 X72.937 Y125.471 E15.3413
G1 X73.880 Y124.740 E15.4055
G1 X74.668 Y124.331 E15.4534
G1 X76.430 Y123.789 E15.5527
G1 X76.597 Y123.744 E15.5621
G1 X78.621 Y123.276 E15.6740
G1 X79.522 Y123.236 E15.7226
G1 X80.677 Y123.399 E15.7854
G1 X81.285 Y123.566 E15.8194
G1 X81.293 Y123.569 E15.8198
G1 X82.043 Y123.724 E15.8611
G1 X81.492 Y123.250 E15.9003
G1 X80.663 Y122.156 E15.9742
G1 X80.231 Y121.244 E16.0286
G1 X80.004 Y120.306 E16.0806
G1 X79.960 Y120.080 E16.0930
G1 X79.862 Y119.404 E16.1298
G1 X79.848 Y119.367 E16.1319
