; G-Code generated by Simplify3D(R) Version 4.1.2
; Apr 21, 2020 at 9:11:53 AM
; Settings Summary
;   processName,Process1
;   applyToModels,Letter-spacer-6hole
;   profileName,Creality Ender 3 Pro (modified)
;   profileVersion,2019-04-06 08:00:00
;   baseProfile,
;   printMaterial,PLA
;   printQuality,Medium
;   printExtruders,
;   extruderName,Primary Extruder
;   extruderToolheadNumber,0
;   extruderDiameter,0.4
;   extruderAutoWidth,0
;   extruderWidth,0.4
;   extrusionMultiplier,0.9
;   extruderUseRetract,1
;   extruderRetractionDistance,4
;   extruderExtraRestartDistance,0
;   extruderRetractionZLift,0
;   extruderRetractionSpeed,2400
;   extruderUseCoasting,0
;   extruderCoastingDistance,0.2
;   extruderUseWipe,0
;   extruderWipeDistance,5
;   primaryExtruder,0
;   layerHeight,0.2
;   topSolidLayers,3
;   bottomSolidLayers,3
;   perimeterOutlines,2
;   printPerimetersInsideOut,1
;   startPointOption,2
;   startPointOriginX,0
;   startPointOriginY,0
;   sequentialIslands,0
;   spiralVaseMode,0
;   firstLayerHeightPercentage,120
;   firstLayerWidthPercentage,150
;   firstLayerUnderspeed,0.5
;   useRaft,0
;   raftExtruder,0
;   raftTopLayers,3
;   raftBaseLayers,2
;   raftOffset,3
;   raftSeparationDistance,0.14
;   raftTopInfill,100
;   aboveRaftSpeedMultiplier,0.3
;   useSkirt,0
;   skirtExtruder,0
;   skirtLayers,1
;   skirtOutlines,2
;   skirtOffset,4
;   usePrimePillar,0
;   primePillarExtruder,999
;   primePillarWidth,12
;   primePillarLocation,7
;   primePillarSpeedMultiplier,1
;   useOozeShield,0
;   oozeShieldExtruder,999
;   oozeShieldOffset,2
;   oozeShieldOutlines,1
;   oozeShieldSidewallShape,1
;   oozeShieldSidewallAngle,30
;   oozeShieldSpeedMultiplier,1
;   infillExtruder,0
;   internalInfillPattern,Rectilinear
;   externalInfillPattern,Rectilinear
;   infillPercentage,20
;   outlineOverlapPercentage,15
;   infillExtrusionWidthPercentage,100
;   minInfillLength,5
;   infillLayerInterval,1
;   internalInfillAngles,45,-45
;   overlapInternalInfillAngles,0
;   externalInfillAngles,45,-45
;   generateSupport,0
;   supportExtruder,0
;   supportInfillPercentage,30
;   supportExtraInflation,0
;   supportBaseLayers,0
;   denseSupportExtruder,0
;   denseSupportLayers,0
;   denseSupportInfillPercentage,70
;   supportLayerInterval,1
;   supportHorizontalPartOffset,0.3
;   supportUpperSeparationLayers,1
;   supportLowerSeparationLayers,1
;   supportType,0
;   supportGridSpacing,4
;   maxOverhangAngle,45
;   supportAngles,0
;   temperatureName,Primary Extruder,Heated Bed
;   temperatureNumber,0,0
;   temperatureSetpointCount,1,1
;   temperatureSetpointLayers,1,1
;   temperatureSetpointTemperatures,210,60
;   temperatureStabilizeAtStartup,1,1
;   temperatureHeatedBed,0,1
;   fanLayers,1,2
;   fanSpeeds,0,100
;   blipFanToFullPower,0
;   adjustSpeedForCooling,1
;   minSpeedLayerTime,15
;   minCoolingSpeedSlowdown,20
;   increaseFanForCooling,0
;   minFanLayerTime,45
;   maxCoolingFanSpeed,100
;   increaseFanForBridging,0
;   bridgingFanSpeed,100
;   use5D,1
;   relativeEdistances,0
;   allowEaxisZeroing,1
;   independentExtruderAxes,0
;   includeM10123,0
;   stickySupport,1
;   applyToolheadOffsets,0
;   gcodeXoffset,0
;   gcodeYoffset,0
;   gcodeZoffset,0
;   overrideMachineDefinition,1
;   machineTypeOverride,0
;   strokeXoverride,220
;   strokeYoverride,220
;   strokeZoverride,250
;   originOffsetXoverride,-5
;   originOffsetYoverride,-5
;   originOffsetZoverride,0
;   homeXdirOverride,-1
;   homeYdirOverride,-1
;   homeZdirOverride,-1
;   flipXoverride,1
;   flipYoverride,-1
;   flipZoverride,1
;   toolheadOffsets,0,0|0,0|0,0|0,0|0,0|0,0
;   overrideFirmwareConfiguration,1
;   firmwareTypeOverride,RepRap (Marlin/Repetier/Sprinter)
;   GPXconfigOverride,r2
;   baudRateOverride,115200
;   overridePrinterModels,1
;   printerModelsOverride
;   startingGcode,G28 ; home all axes,G1 X5 Y10 Z0.2 F3000 ; get ready to prime,G92 E0 ; reset extrusion distance,G1 X160 E15 F600 ; prime nozzle,G1 X180 F5000 ; quick wipe
;   layerChangeGcode,
;   retractionGcode,
;   toolChangeGcode,
;   endingGcode,G28 X0 ; home X axis,M106 S0 ; turn off cooling fan,M104 S0 ; turn off extruder,M140 S0 ; turn off bed,M84 ; disable motors
;   exportFileFormat,gcode
;   celebration,0
;   celebrationSong,Random Song
;   postProcessing,
;   defaultSpeed,2400
;   outlineUnderspeed,0.5
;   solidInfillUnderspeed,0.8
;   supportUnderspeed,0.8
;   rapidXYspeed,4800
;   rapidZspeed,1000
;   minBridgingArea,50
;   bridgingExtraInflation,0
;   bridgingExtrusionMultiplier,1
;   bridgingSpeedMultiplier,1
;   useFixedBridgingAngle,0
;   fixedBridgingAngle,0
;   applyBridgingToPerimeters,0
;   filamentDiameters,1.75|1.75|1.75|1.75|1.75|1.75
;   filamentPricesPerKg,46|46|46|46|46|46
;   filamentDensities,1.25|1.25|1.25|1.25|1.25|1.25
;   useMinPrintHeight,0
;   minPrintHeight,0
;   useMaxPrintHeight,0
;   maxPrintHeight,0
;   useDiaphragm,0
;   diaphragmLayerInterval,20
;   robustSlicing,1
;   mergeAllIntoSolid,0
;   onlyRetractWhenCrossingOutline,1
;   retractBetweenLayers,1
;   useRetractionMinTravel,0
;   retractionMinTravel,3
;   retractWhileWiping,0
;   onlyWipeOutlines,1
;   avoidCrossingOutline,0
;   maxMovementDetourFactor,3
;   toolChangeRetractionDistance,12
;   toolChangeExtraRestartDistance,-0.5
;   toolChangeRetractionSpeed,600
;   externalThinWallType,0
;   internalThinWallType,2
;   thinWallAllowedOverlapPercentage,10
;   singleExtrusionMinLength,1
;   singleExtrusionMinPrintingWidthPercentage,50
;   singleExtrusionMaxPrintingWidthPercentage,200
;   singleExtrusionEndpointExtension,0.2
;   horizontalSizeCompensation,0
G90
M82
M106 S0
M140 S60
M190 S60
M104 S210 T0
M109 S210 T0
G28 ; home all axes
G1 X5 Y10 Z0.2 F3000 ; get ready to prime
G92 E0 ; reset extrusion distance
G1 X160 E15 F600 ; prime nozzle
G1 X180 F5000 ; quick wipe
; process Process1
; layer 1, Z = 0.240
T0
G92 E0.0000
G1 E-4.0000 F2400
; feature inner perimeter
; tool H0.240 W0.600
G1 Z0.240 F1000
G1 X106.550 Y109.550 F4800
G1 E0.0000 F2400
G92 E0.0000
G1 X123.450 Y109.550 E0.9106 F900
G1 X123.450 Y120.450 E1.4979
G1 X106.550 Y120.450 E2.4085
G1 X106.550 Y109.550 E2.9958
; feature outer perimeter
G1 X105.950 Y108.950 F4800
G92 E0.0000
G1 X124.050 Y108.950 E0.9753 F600
G1 X124.050 Y121.050 E1.6272
G1 X105.950 Y121.050 E2.6025
G1 X105.950 Y108.950 E3.2544
; feature solid layer
G1 X107.212 Y119.940 F4800
G92 E0.0000
G1 X107.060 Y119.788 E0.0116 F960
G1 X107.060 Y118.939 E0.0573
G1 X108.061 Y119.940 E0.1336
G1 X108.909 Y119.940 E0.1793
G1 X107.060 Y118.091 E0.3202
G1 X107.060 Y117.242 E0.3659
G1 X109.758 Y119.940 E0.5715
G1 X110.606 Y119.940 E0.6172
G1 X107.060 Y116.394 E0.8874
G1 X107.060 Y115.545 E0.9331
G1 X111.455 Y119.940 E1.2680
G1 X112.303 Y119.940 E1.3137
G1 X107.060 Y114.697 E1.7133
G1 X107.060 Y113.848 E1.7590
G1 X113.152 Y119.940 E2.2232
G1 X114.000 Y119.940 E2.2689
G1 X107.060 Y113.000 E2.7977
G1 X107.060 Y112.151 E2.8435
G1 X114.849 Y119.940 E3.4370
G1 X115.697 Y119.940 E3.4827
G1 X107.060 Y111.303 E4.1408
G1 X107.060 Y110.454 E4.1866
G1 X116.546 Y119.940 E4.9094
G1 X117.394 Y119.940 E4.9551
G1 X107.514 Y110.060 E5.7080
G1 X108.363 Y110.060 E5.7537
G1 X118.243 Y119.940 E6.5065
G1 X119.091 Y119.940 E6.5523
G1 X109.211 Y110.060 E7.3051
G1 X110.060 Y110.060 E7.3508
G1 X119.940 Y119.940 E8.1037
G1 X120.789 Y119.940 E8.1494
G1 X110.909 Y110.060 E8.9023
G1 X111.757 Y110.060 E8.9480
G1 X121.637 Y119.940 E9.7008
G1 X122.486 Y119.940 E9.7465
G1 X112.606 Y110.060 E10.4994
G1 X113.454 Y110.060 E10.5451
G1 X122.940 Y119.546 E11.2679
G1 X122.940 Y118.697 E11.3137
G1 X114.303 Y110.060 E11.9718
G1 X115.151 Y110.060 E12.0175
G1 X122.940 Y117.849 E12.6111
G1 X122.940 Y117.000 E12.6568
G1 X116.000 Y110.060 E13.1856
G1 X116.848 Y110.060 E13.2313
G1 X122.940 Y116.152 E13.6955
G1 X122.940 Y115.303 E13.7413
G1 X117.697 Y110.060 E14.1408
G1 X118.545 Y110.060 E14.1865
G1 X122.940 Y114.455 E14.5214
G1 X122.940 Y113.606 E14.5671
G1 X119.394 Y110.060 E14.8373
G1 X120.242 Y110.060 E14.8830
G1 X122.940 Y112.758 E15.0886
G1 X122.940 Y111.909 E15.1343
G1 X121.091 Y110.060 E15.2752
G1 X121.939 Y110.060 E15.3209
G1 X122.940 Y111.061 E15.3972
G1 X122.940 Y110.212 E15.4429
G1 X122.788 Y110.060 E15.4545
G92 E0.0000
G1 E-4.0000 F2400
; layer 2, Z = 0.440
M106 S255
; feature inner perimeter
; tool H0.200 W0.400
G1 Z0.440 F1000
G1 X123.750 Y109.250 F4800
G1 E0.0000 F2400
G92 E0.0000
G1 X123.750 Y120.750 E0.3442 F1800
G1 X106.250 Y120.750 E0.8681
G1 X106.250 Y109.250 E1.2123
G1 X123.750 Y109.250 E1.7362
; feature outer perimeter
G1 X124.150 Y108.850 F4800
G92 E0.0000
G1 X124.150 Y121.150 E0.3682 F1200
G1 X105.850 Y121.150 E0.9160
G1 X105.850 Y108.850 E1.2842
G1 X124.150 Y108.850 E1.8320
; feature solid layer
G1 X123.410 Y120.166 F4800
G92 E0.0000
G1 X123.166 Y120.410 E0.0103 F1920
G1 X122.601 Y120.410 E0.0272
G1 X123.410 Y119.601 E0.0615
G1 X123.410 Y119.035 E0.0784
G1 X122.035 Y120.410 E0.1366
G1 X121.469 Y120.410 E0.1536
G1 X123.410 Y118.469 E0.2357
G1 X123.410 Y117.904 E0.2526
G1 X120.904 Y120.410 E0.3587
G1 X120.338 Y120.410 E0.3757
G1 X123.410 Y117.338 E0.5057
G1 X123.410 Y116.772 E0.5227
G1 X119.772 Y120.410 E0.6766
G1 X119.207 Y120.410 E0.6936
G1 X123.410 Y116.207 E0.8715
G1 X123.410 Y115.641 E0.8885
G1 X118.641 Y120.410 E1.0903
G1 X118.075 Y120.410 E1.1073
G1 X123.410 Y115.075 E1.3331
G1 X123.410 Y114.510 E1.3500
G1 X117.510 Y120.410 E1.5998
G1 X116.944 Y120.410 E1.6168
G1 X123.410 Y113.944 E1.8905
G1 X123.410 Y113.378 E1.9074
G1 X116.378 Y120.410 E2.2051
G1 X115.813 Y120.410 E2.2220
G1 X123.410 Y112.813 E2.5436
G1 X123.410 Y112.247 E2.5606
G1 X115.247 Y120.410 E2.9062
G1 X114.681 Y120.410 E2.9231
G1 X123.410 Y111.681 E3.2926
G1 X123.410 Y111.116 E3.3095
G1 X114.116 Y120.410 E3.7030
G1 X113.550 Y120.410 E3.7199
G1 X123.410 Y110.550 E4.1373
G1 X123.410 Y109.984 E4.1543
G1 X112.984 Y120.410 E4.5956
G1 X112.418 Y120.410 E4.6126
G1 X123.238 Y109.590 E5.0706
G1 X122.673 Y109.590 E5.0876
G1 X111.853 Y120.410 E5.5456
G1 X111.287 Y120.410 E5.5625
G1 X122.107 Y109.590 E6.0206
G1 X121.541 Y109.590 E6.0375
G1 X110.721 Y120.410 E6.4956
G1 X110.156 Y120.410 E6.5125
G1 X120.976 Y109.590 E6.9705
G1 X120.410 Y109.590 E6.9875
G1 X109.590 Y120.410 E7.4455
G1 X109.024 Y120.410 E7.4624
G1 X119.844 Y109.590 E7.9205
G1 X119.279 Y109.590 E7.9374
G1 X108.459 Y120.410 E8.3955
G1 X107.893 Y120.410 E8.4124
G1 X118.713 Y109.590 E8.8704
G1 X118.147 Y109.590 E8.8874
G1 X107.327 Y120.410 E9.3454
G1 X106.762 Y120.410 E9.3624
G1 X117.582 Y109.590 E9.8204
G1 X117.016 Y109.590 E9.8373
G1 X106.590 Y120.016 E10.2787
G1 X106.590 Y119.450 E10.2956
G1 X116.450 Y109.590 E10.7130
G1 X115.885 Y109.590 E10.7300
G1 X106.590 Y118.885 E11.1235
G1 X106.590 Y118.319 E11.1404
G1 X115.319 Y109.590 E11.5099
G1 X114.753 Y109.590 E11.5268
G1 X106.590 Y117.753 E11.8724
G1 X106.590 Y117.187 E11.8893
G1 X114.187 Y109.590 E12.2110
G1 X113.622 Y109.590 E12.2279
G1 X106.590 Y116.622 E12.5256
G1 X106.590 Y116.056 E12.5425
G1 X113.056 Y109.590 E12.8162
G1 X112.490 Y109.590 E12.8332
G1 X106.590 Y115.490 E13.0830
G1 X106.590 Y114.925 E13.0999
G1 X111.925 Y109.590 E13.3257
G1 X111.359 Y109.590 E13.3427
G1 X106.590 Y114.359 E13.5446
G1 X106.590 Y113.793 E13.5615
G1 X110.793 Y109.590 E13.7394
G1 X110.228 Y109.590 E13.7564
G1 X106.590 Y113.228 E13.9104
G1 X106.590 Y112.662 E13.9273
G1 X109.662 Y109.590 E14.0573
G1 X109.096 Y109.590 E14.0743
G1 X106.590 Y112.096 E14.1804
G1 X106.590 Y111.531 E14.1973
G1 X108.531 Y109.590 E14.2795
G1 X107.965 Y109.590 E14.2964
G1 X106.590 Y110.965 E14.3546
G1 X106.590 Y110.399 E14.3715
G1 X107.399 Y109.590 E14.4058
G1 X106.834 Y109.590 E14.4227
G1 X106.590 Y109.834 E14.4330
G92 E0.0000
G1 E-4.0000 F2400
; layer 3, Z = 0.640
; feature inner perimeter
G1 Z0.640 F1000
G1 X106.250 Y109.250 F4800
G1 E0.0000 F2400
G92 E0.0000
G1 X123.750 Y109.250 E0.5238 F1800
G1 X123.750 Y120.750 E0.8681
G1 X106.250 Y120.750 E1.3919
G1 X106.250 Y109.250 E1.7362
; feature outer perimeter
G1 X105.850 Y108.850 F4800
G92 E0.0000
G1 X124.150 Y108.850 E0.5478 F1200
G1 X124.150 Y121.150 E0.9160
G1 X105.850 Y121.150 E1.4638
G1 X105.850 Y108.850 E1.8320
; feature solid layer
G1 X106.834 Y120.410 F4800
G92 E0.0000
G1 X106.590 Y120.166 E0.0103 F1920
G1 X106.590 Y119.601 E0.0272
G1 X107.399 Y120.410 E0.0615
G1 X107.965 Y120.410 E0.0784
G1 X106.590 Y119.035 E0.1366
G1 X106.590 Y118.469 E0.1536
G1 X108.531 Y120.410 E0.2357
G1 X109.096 Y120.410 E0.2527
G1 X106.590 Y117.904 E0.3588
G1 X106.590 Y117.338 E0.3757
G1 X109.662 Y120.410 E0.5057
G1 X110.228 Y120.410 E0.5227
G1 X106.590 Y116.772 E0.6767
G1 X106.590 Y116.207 E0.6936
G1 X110.793 Y120.410 E0.8715
G1 X111.359 Y120.410 E0.8885
G1 X106.590 Y115.641 E1.0904
G1 X106.590 Y115.075 E1.1073
G1 X111.925 Y120.410 E1.3331
G1 X112.490 Y120.410 E1.3501
G1 X106.590 Y114.510 E1.5998
G1 X106.590 Y113.944 E1.6168
G1 X113.056 Y120.410 E1.8905
G1 X113.622 Y120.410 E1.9074
G1 X106.590 Y113.378 E2.2051
G1 X106.590 Y112.813 E2.2221
G1 X114.187 Y120.410 E2.5437
G1 X114.753 Y120.410 E2.5606
G1 X106.590 Y112.247 E2.9062
G1 X106.590 Y111.681 E2.9231
G1 X115.319 Y120.410 E3.2926
G1 X115.885 Y120.410 E3.3096
G1 X106.590 Y111.115 E3.7030
G1 X106.590 Y110.550 E3.7200
G1 X116.450 Y120.410 E4.1374
G1 X117.016 Y120.410 E4.1543
G1 X106.590 Y109.984 E4.5957
G1 X106.590 Y109.590 E4.6075
G1 X106.762 Y109.590 E4.6126
G1 X117.582 Y120.410 E5.0707
G1 X118.147 Y120.410 E5.0876
G1 X107.327 Y109.590 E5.5456
G1 X107.893 Y109.590 E5.5626
G1 X118.713 Y120.410 E6.0206
G1 X119.279 Y120.410 E6.0376
G1 X108.459 Y109.590 E6.4956
G1 X109.024 Y109.590 E6.5125
G1 X119.844 Y120.410 E6.9706
G1 X120.410 Y120.410 E6.9875
G1 X109.590 Y109.590 E7.4456
G1 X110.156 Y109.590 E7.4625
G1 X120.976 Y120.410 E7.9205
G1 X121.541 Y120.410 E7.9375
G1 X110.721 Y109.590 E8.3955
G1 X111.287 Y109.590 E8.4124
G1 X122.107 Y120.410 E8.8705
G1 X122.673 Y120.410 E8.8874
G1 X111.853 Y109.590 E9.3455
G1 X112.418 Y109.590 E9.3624
G1 X123.238 Y120.410 E9.8204
G1 X123.410 Y120.410 E9.8256
G1 X123.410 Y120.016 E9.8374
G1 X112.984 Y109.590 E10.2787
G1 X113.550 Y109.590 E10.2957
G1 X123.410 Y119.450 E10.7131
G1 X123.410 Y118.884 E10.7300
G1 X114.115 Y109.590 E11.1235
G1 X114.681 Y109.590 E11.1404
G1 X123.410 Y118.319 E11.5099
G1 X123.410 Y117.753 E11.5269
G1 X115.247 Y109.590 E11.8724
G1 X115.813 Y109.590 E11.8894
G1 X123.410 Y117.187 E12.2110
G1 X123.410 Y116.622 E12.2279
G1 X116.378 Y109.590 E12.5256
G1 X116.944 Y109.590 E12.5425
G1 X123.410 Y116.056 E12.8163
G1 X123.410 Y115.490 E12.8332
G1 X117.510 Y109.590 E13.0830
G1 X118.075 Y109.590 E13.0999
G1 X123.410 Y114.925 E13.3258
G1 X123.410 Y114.359 E13.3427
G1 X118.641 Y109.590 E13.5446
G1 X119.207 Y109.590 E13.5615
G1 X123.410 Y113.793 E13.7395
G1 X123.410 Y113.228 E13.7564
G1 X119.772 Y109.590 E13.9104
G1 X120.338 Y109.590 E13.9273
G1 X123.410 Y112.662 E14.0574
G1 X123.410 Y112.096 E14.0743
G1 X120.904 Y109.590 E14.1804
G1 X121.469 Y109.590 E14.1973
G1 X123.410 Y111.531 E14.2795
G1 X123.410 Y110.965 E14.2964
G1 X122.035 Y109.590 E14.3546
G1 X122.601 Y109.590 E14.3715
G1 X123.410 Y110.399 E14.4058
G1 X123.410 Y109.834 E14.4227
G1 X123.166 Y109.590 E14.4330
G92 E0.0000
G1 E-4.0000 F2400
; layer 4, Z = 0.840
; feature inner perimeter
G1 Z0.840 F1000
G1 X123.750 Y109.250 F4800
G1 E0.0000 F2400
G92 E0.0000
G1 X123.750 Y120.750 E0.3442 F941
G1 X106.250 Y120.750 E0.8681
G1 X106.250 Y109.250 E1.2123
G1 X123.750 Y109.250 E1.7362
; feature outer perimeter
G1 X124.150 Y108.850 F4800
G92 E0.0000
G1 X124.150 Y121.150 E0.3682 F627
G1 X105.850 Y121.150 E0.9160
G1 X105.850 Y108.850 E1.2842
G1 X124.150 Y108.850 E1.8320
; feature infill
G1 X123.410 Y117.904 F4800
G92 E0.0000
G1 X120.904 Y120.410 E0.1061 F1254
G1 X118.075 Y120.410 E0.1908
G1 X123.410 Y115.075 E0.4166
G1 X123.410 Y112.247 E0.5013
G1 X115.247 Y120.410 E0.8468
G1 X112.418 Y120.410 E0.9315
G1 X123.238 Y109.590 E1.3895
G1 X120.410 Y109.590 E1.4742
G1 X109.590 Y120.410 E1.9323
G1 X106.762 Y120.410 E2.0169
G1 X117.582 Y109.590 E2.4750
G1 X114.753 Y109.590 E2.5596
G1 X106.590 Y117.753 E2.9052
G1 X106.590 Y114.925 E2.9899
G1 X111.925 Y109.590 E3.2157
G1 X109.096 Y109.590 E3.3004
