; G-Code generated by Simplify3D(R) Version 4.1.2
; Apr 21, 2020 at 8:46:58 PM
; Settings Summary
;   processName,Process1
;   applyToModels,Z-Stepper_1mm_Spacer,Z-Stepper_1mm_Spacer(2),Z-Stepper_1mm_Spacer(3),Z-Stepper_1mm_Spacer(4),Z-Stepper_1mm_Spacer(5),Ender-3_Extruder_PTFE_Cable_Clip_0.8mm_Leo_N,Ender-3_Extruder_PTFE_Cable_Clip_1.8mm_Leo_N,filament_guide_-_updated,filament_guide_-_updated(2)
;   profileName,Creality Ender 3 Pro (modified)
;   profileVersion,2019-04-06 08:00:00
;   baseProfile,
;   printMaterial,PLA
;   printQuality,Medium
;   printExtruders,
;   extruderName,Primary Extruder
;   extruderToolheadNumber,0
;   extruderDiameter,0.4
;   extruderAutoWidth,0
;   extruderWidth,0.4
;   extrusionMultiplier,0.9
;   extruderUseRetract,1
;   extruderRetractionDistance,4
;   extruderExtraRestartDistance,0
;   extruderRetractionZLift,0
;   extruderRetractionSpeed,2400
;   extruderUseCoasting,0
;   extruderCoastingDistance,0.2
;   extruderUseWipe,0
;   extruderWipeDistance,5
;   primaryExtruder,0
;   layerHeight,0.2
;   topSolidLayers,3
;   bottomSolidLayers,3
;   perimeterOutlines,2
;   printPerimetersInsideOut,1
;   startPointOption,2
;   startPointOriginX,0
;   startPointOriginY,0
;   sequentialIslands,0
;   spiralVaseMode,0
;   firstLayerHeightPercentage,120
;   firstLayerWidthPercentage,150
;   firstLayerUnderspeed,0.5
;   useRaft,0
;   raftExtruder,0
;   raftTopLayers,3
;   raftBaseLayers,2
;   raftOffset,3
;   raftSeparationDistance,0.14
;   raftTopInfill,100
;   aboveRaftSpeedMultiplier,0.3
;   useSkirt,0
;   skirtExtruder,0
;   skirtLayers,1
;   skirtOutlines,2
;   skirtOffset,4
;   usePrimePillar,0
;   primePillarExtruder,999
;   primePillarWidth,12
;   primePillarLocation,7
;   primePillarSpeedMultiplier,1
;   useOozeShield,0
;   oozeShieldExtruder,999
;   oozeShieldOffset,2
;   oozeShieldOutlines,1
;   oozeShieldSidewallShape,1
;   oozeShieldSidewallAngle,30
;   oozeShieldSpeedMultiplier,1
;   infillExtruder,0
;   internalInfillPattern,Rectilinear
;   externalInfillPattern,Rectilinear
;   infillPercentage,20
;   outlineOverlapPercentage,15
;   infillExtrusionWidthPercentage,100
;   minInfillLength,5
;   infillLayerInterval,1
;   internalInfillAngles,45,-45
;   overlapInternalInfillAngles,0
;   externalInfillAngles,45,-45
;   generateSupport,0
;   supportExtruder,0
;   supportInfillPercentage,30
;   supportExtraInflation,0
;   supportBaseLayers,0
;   denseSupportExtruder,0
;   denseSupportLayers,0
;   denseSupportInfillPercentage,70
;   supportLayerInterval,1
;   supportHorizontalPartOffset,0.3
;   supportUpperSeparationLayers,1
;   supportLowerSeparationLayers,1
;   supportType,0
;   supportGridSpacing,4
;   maxOverhangAngle,45
;   supportAngles,0
;   temperatureName,Primary Extruder,Heated Bed
;   temperatureNumber,0,0
;   temperatureSetpointCount,1,1
;   temperatureSetpointLayers,1,1
;   temperatureSetpointTemperatures,210,60
;   temperatureStabilizeAtStartup,1,1
;   temperatureHeatedBed,0,1
;   fanLayers,1,2
;   fanSpeeds,0,100
;   blipFanToFullPower,0
;   adjustSpeedForCooling,1
;   minSpeedLayerTime,15
;   minCoolingSpeedSlowdown,20
;   increaseFanForCooling,0
;   minFanLayerTime,45
;   maxCoolingFanSpeed,100
;   increaseFanForBridging,0
;   bridgingFanSpeed,100
;   use5D,1
;   relativeEdistances,0
;   allowEaxisZeroing,1
;   independentExtruderAxes,0
;   includeM10123,0
;   stickySupport,1
;   applyToolheadOffsets,0
;   gcodeXoffset,0
;   gcodeYoffset,0
;   gcodeZoffset,0
;   overrideMachineDefinition,1
;   machineTypeOverride,0
;   strokeXoverride,220
;   strokeYoverride,220
;   strokeZoverride,250
;   originOffsetXoverride,-5
;   originOffsetYoverride,-5
;   originOffsetZoverride,0
;   homeXdirOverride,-1
;   homeYdirOverride,-1
;   homeZdirOverride,-1
;   flipXoverride,1
;   flipYoverride,-1
;   flipZoverride,1
;   toolheadOffsets,0,0|0,0|0,0|0,0|0,0|0,0
;   overrideFirmwareConfiguration,1
;   firmwareTypeOverride,RepRap (Marlin/Repetier/Sprinter)
;   GPXconfigOverride,r2
;   baudRateOverride,115200
;   overridePrinterModels,1
;   printerModelsOverride
;   startingGcode,G28 ; home all axes,G1 X5 Y10 Z0.2 F3000 ; get ready to prime,G92 E0 ; reset extrusion distance,G1 X160 E15 F600 ; prime nozzle,G1 X180 F5000 ; quick wipe
;   layerChangeGcode,
;   retractionGcode,
;   toolChangeGcode,
;   endingGcode,G28 X0 ; home X axis,M106 S0 ; turn off cooling fan,M104 S0 ; turn off extruder,M140 S0 ; turn off bed,M84 ; disable motors
;   exportFileFormat,gcode
;   celebration,0
;   celebrationSong,Random Song
;   postProcessing,
;   defaultSpeed,2400
;   outlineUnderspeed,0.5
;   solidInfillUnderspeed,0.8
;   supportUnderspeed,0.8
;   rapidXYspeed,4800
;   rapidZspeed,1000
;   minBridgingArea,50
;   bridgingExtraInflation,0
;   bridgingExtrusionMultiplier,1
;   bridgingSpeedMultiplier,1
;   useFixedBridgingAngle,0
;   fixedBridgingAngle,0
;   applyBridgingToPerimeters,0
;   filamentDiameters,1.75|1.75|1.75|1.75|1.75|1.75
;   filamentPricesPerKg,46|46|46|46|46|46
;   filamentDensities,1.25|1.25|1.25|1.25|1.25|1.25
;   useMinPrintHeight,0
;   minPrintHeight,0
;   useMaxPrintHeight,0
;   maxPrintHeight,0
;   useDiaphragm,0
;   diaphragmLayerInterval,20
;   robustSlicing,1
;   mergeAllIntoSolid,0
;   onlyRetractWhenCrossingOutline,1
;   retractBetweenLayers,1
;   useRetractionMinTravel,0
;   retractionMinTravel,3
;   retractWhileWiping,0
;   onlyWipeOutlines,1
;   avoidCrossingOutline,0
;   maxMovementDetourFactor,3
;   toolChangeRetractionDistance,12
;   toolChangeExtraRestartDistance,-0.5
;   toolChangeRetractionSpeed,600
;   externalThinWallType,0
;   internalThinWallType,2
;   thinWallAllowedOverlapPercentage,10
;   singleExtrusionMinLength,1
;   singleExtrusionMinPrintingWidthPercentage,50
;   singleExtrusionMaxPrintingWidthPercentage,200
;   singleExtrusionEndpointExtension,0.2
;   horizontalSizeCompensation,0
G90
M82
M106 S0
M140 S60
M190 S60
M104 S210 T0
M109 S210 T0
G28 ; home all axes
G1 X5 Y10 Z0.2 F3000 ; get ready to prime
G92 E0 ; reset extrusion distance
G1 X160 E15 F600 ; prime nozzle
G1 X180 F5000 ; quick wipe
; process Process1
; layer 1, Z = 0.240
T0
G92 E0.0000
G1 E-4.0000 F2400
; feature inner perimeter
; tool H0.240 W0.600
G1 Z0.240 F1000
G1 X48.561 Y56.461 F4800
G1 E0.0000 F2400
G92 E0.0000
G1 X71.280 Y44.129 E1.3928 F900
G1 X75.861 Y44.129 E1.6397
G1 X75.861 Y64.332 E2.7282
G1 X71.137 Y64.332 E2.9828
G1 X71.099 Y63.833 E3.0097
G1 X71.328 Y63.798 E3.0222
G1 X71.809 Y63.620 E3.0498
G1 X72.083 Y63.468 E3.0667
G1 X72.488 Y63.155 E3.0943
G1 X72.836 Y62.749 E3.1231
G1 X73.096 Y62.281 E3.1520
G1 X73.256 Y61.770 E3.1808
G1 X73.311 Y61.237 E3.2096
G1 X73.256 Y60.705 E3.2385
G1 X73.096 Y60.194 E3.2673
G1 X72.836 Y59.726 E3.2962
G1 X72.488 Y59.320 E3.3250
G1 X72.065 Y58.993 E3.3538
G1 X71.584 Y58.757 E3.3827
G1 X71.066 Y58.623 E3.4115
G1 X70.531 Y58.596 E3.4404
G1 X70.002 Y58.677 E3.4692
G1 X69.500 Y58.863 E3.4980
G1 X69.046 Y59.146 E3.5269
G1 X68.658 Y59.514 E3.5557
G1 X68.353 Y59.954 E3.5845
G1 X68.219 Y60.266 E3.6029
G1 X67.819 Y60.220 E3.6245
G1 X67.747 Y59.812 E3.6468
G1 X67.550 Y59.152 E3.6840
G1 X67.404 Y58.782 E3.7054
G1 X67.088 Y58.154 E3.7433
G1 X66.701 Y57.567 E3.7811
G1 X66.463 Y57.266 E3.8018
G1 X65.990 Y56.764 E3.8390
G1 X65.432 Y56.295 E3.8783
G1 X64.833 Y55.902 E3.9169
G1 X64.205 Y55.587 E3.9547
G1 X63.848 Y55.445 E3.9754
G1 X63.188 Y55.248 E4.0126
G1 X62.470 Y55.121 E4.0518
G1 X61.768 Y55.081 E4.0897
G1 X61.384 Y55.092 E4.1104
G1 X60.700 Y55.172 E4.1475
G1 X60.003 Y55.336 E4.1861
G1 X59.330 Y55.581 E4.2247
G1 X58.685 Y55.904 E4.2635
G1 X58.093 Y56.294 E4.3017
G1 X57.793 Y56.532 E4.3224
G1 X57.292 Y57.005 E4.3595
G1 X56.824 Y57.561 E4.3987
G1 X56.432 Y58.159 E4.4372
G1 X56.112 Y58.797 E4.4757
G1 X55.876 Y59.444 E4.5128
G1 X55.773 Y59.827 E4.5341
G1 X55.676 Y60.380 E4.5644
G1 X55.265 Y60.418 E4.5866
G1 X55.127 Y60.052 E4.6077
G1 X54.836 Y59.594 E4.6369
G1 X54.473 Y59.222 E4.6649
G1 X54.219 Y59.031 E4.6821
G1 X53.760 Y58.787 E4.7100
G1 X53.239 Y58.635 E4.7393
G1 X52.698 Y58.593 E4.7686
G1 X52.159 Y58.663 E4.7978
G1 X51.646 Y58.841 E4.8271
G1 X51.181 Y59.121 E4.8563
G1 X50.783 Y59.490 E4.8856
G1 X50.468 Y59.932 E4.9148
G1 X50.250 Y60.430 E4.9441
G1 X50.139 Y60.961 E4.9733
G1 X50.139 Y61.504 E5.0026
G1 X50.246 Y62.013 E5.0306
G1 X50.358 Y62.310 E5.0477
G1 X50.614 Y62.763 E5.0757
G1 X50.972 Y63.170 E5.1050
G1 X51.406 Y63.496 E5.1342
G1 X51.898 Y63.726 E5.1635
G1 X52.430 Y63.852 E5.1929
G1 X52.374 Y64.329 E5.2188
G1 X48.561 Y64.329 E5.4243
G1 X48.561 Y56.461 E5.8482
G92 E0.0000
G1 E-4.0000 F2400
G1 X53.118 Y63.838 F4800
G1 E0.0000 F2400
G92 E0.0000
G1 X53.504 Y63.768 E0.0211 F900
G1 X54.007 Y63.563 E0.0504
G1 X54.457 Y63.260 E0.0796
G1 X54.820 Y62.888 E0.1076
G1 X55.004 Y62.629 E0.1248
G1 X55.195 Y62.246 E0.1478
G1 X55.611 Y62.344 E0.1709
G1 X55.611 Y64.329 E0.2778
G1 X53.162 Y64.329 E0.4098
G1 X53.118 Y63.838 E0.4364
G92 E0.0000
G1 E-4.0000 F2400
G1 X67.911 Y64.332 F4800
G1 E0.0000 F2400
G92 E0.0000
G1 X67.911 Y62.550 E0.0961 F900
G1 X68.290 Y62.431 E0.1174
G1 X68.645 Y62.942 E0.1509
G1 X68.861 Y63.169 E0.1678
G1 X69.266 Y63.482 E0.1954
G1 X69.747 Y63.718 E0.2243
G1 X70.297 Y63.860 E0.2549
G1 X70.237 Y64.332 E0.2805
G1 X67.911 Y64.332 E0.4059
; feature outer perimeter
G1 X67.311 Y64.932 F4800
G92 E0.0000
G1 X67.311 Y61.223 E0.1999 F600
G1 X67.274 Y60.587 E0.2342
G1 X67.162 Y59.951 E0.2690
G1 X66.982 Y59.348 E0.3029
G1 X66.856 Y59.028 E0.3214
G1 X66.567 Y58.454 E0.3560
G1 X66.215 Y57.919 E0.3906
G1 X66.009 Y57.658 E0.4085
G1 X65.577 Y57.201 E0.4423
G1 X65.073 Y56.777 E0.4778
G1 X64.533 Y56.422 E0.5126
G1 X63.960 Y56.135 E0.5472
G1 X63.651 Y56.013 E0.5651
G1 X63.049 Y55.832 E0.5990
G1 X62.400 Y55.718 E0.6344
G1 X61.760 Y55.681 E0.6690
G1 X61.428 Y55.691 E0.6869
G1 X60.804 Y55.764 E0.7208
G1 X60.175 Y55.912 E0.7556
G1 X59.568 Y56.133 E0.7904
G1 X58.986 Y56.425 E0.8255
G1 X58.445 Y56.781 E0.8603
G1 X58.186 Y56.986 E0.8782
G1 X57.729 Y57.417 E0.9120
G1 X57.307 Y57.920 E0.9474
G1 X56.953 Y58.459 E0.9821
G1 X56.664 Y59.035 E1.0169
G1 X56.449 Y59.626 E1.0507
G1 X56.359 Y59.957 E1.0692
G1 X56.248 Y60.588 E1.1037
G1 X56.211 Y61.223 E1.1380
G1 X56.211 Y64.929 E1.3377
G1 X47.961 Y64.929 E1.7822
G1 X47.961 Y56.104 E2.2577
G1 X71.128 Y43.529 E3.6780
G1 X76.461 Y43.529 E3.9654
G1 X76.461 Y64.932 E5.1186
G1 X67.311 Y64.932 E5.6116
G1 X69.264 Y62.722 F4800
G92 E0.0000
G1 X69.585 Y62.970 E0.0219 F600
G1 X69.956 Y63.152 E0.0441
G1 X70.356 Y63.256 E0.0664
G1 X70.769 Y63.277 E0.0886
G1 X71.177 Y63.214 E0.1109
G1 X71.558 Y63.073 E0.1328
G1 X71.752 Y62.966 E0.1447
G1 X72.072 Y62.718 E0.1666
G1 X72.341 Y62.404 E0.1888
G1 X72.542 Y62.043 E0.2111
G1 X72.666 Y61.648 E0.2334
G1 X72.707 Y61.237 E0.2556
G1 X72.666 Y60.826 E0.2779
G1 X72.542 Y60.432 E0.3001
G1 X72.341 Y60.071 E0.3224
G1 X72.072 Y59.757 E0.3447
G1 X71.746 Y59.504 E0.3669
G1 X71.375 Y59.322 E0.3892
G1 X70.975 Y59.219 E0.4115
G1 X70.562 Y59.198 E0.4337
G1 X70.153 Y59.260 E0.4560
G1 X69.766 Y59.404 E0.4783
G1 X69.415 Y59.623 E0.5005
G1 X69.116 Y59.907 E0.5228
G1 X68.880 Y60.246 E0.5450
G1 X68.717 Y60.626 E0.5673
G1 X68.634 Y61.031 E0.5896
G1 X68.634 Y61.444 E0.6118
G1 X68.717 Y61.849 E0.6341
G1 X68.880 Y62.228 E0.6564
G1 X69.112 Y62.561 E0.6782
G1 X69.264 Y62.722 E0.6902
G92 E0.0000
G1 E-4.0000 F2400
G1 X54.778 Y61.546 F4800
G1 E0.0000 F2400
G92 E0.0000
G1 X54.800 Y61.128 E0.0226 F600
G1 X54.736 Y60.714 E0.0451
G1 X54.588 Y60.322 E0.0677
G1 X54.363 Y59.969 E0.0903
G1 X54.076 Y59.674 E0.1124
G1 X53.896 Y59.539 E0.1246
G1 X53.533 Y59.346 E0.1467
G1 X53.131 Y59.229 E0.1693
G1 X52.713 Y59.196 E0.1919
G1 X52.298 Y59.250 E0.2144
G1 X51.902 Y59.388 E0.2370
G1 X51.543 Y59.603 E0.2596
G1 X51.236 Y59.888 E0.2821
G1 X50.993 Y60.229 E0.3047
G1 X50.825 Y60.613 E0.3273
G1 X50.739 Y61.023 E0.3499
G1 X50.739 Y61.442 E0.3724
G1 X50.824 Y61.845 E0.3946
G1 X50.903 Y62.055 E0.4067
G1 X51.105 Y62.413 E0.4289
G1 X51.382 Y62.728 E0.4514
G1 X51.717 Y62.979 E0.4740
G1 X52.096 Y63.157 E0.4966
G1 X52.504 Y63.253 E0.5191
G1 X52.923 Y63.264 E0.5417
G1 X53.335 Y63.189 E0.5643
G1 X53.723 Y63.031 E0.5869
G1 X54.071 Y62.797 E0.6094
G1 X54.358 Y62.503 E0.6316
G1 X54.488 Y62.319 E0.6437
G1 X54.672 Y61.951 E0.6659
G1 X54.778 Y61.546 E0.6884
; feature gap fill
; tool H0.240 W0.400
G1 X55.222 Y61.825 F4800
G92 E0.0000
G1 X55.148 Y61.751 E0.0037 F1200
G1 X55.186 Y61.610 E0.0090
G1 X55.205 Y61.242 E0.0222
G1 X55.801 Y61.839 E0.0525
G1 X55.801 Y61.273 E0.0728
G1 X55.356 Y60.828 E0.0955
G92 E0.0000
G1 E-4.0000 F2400
G1 X67.721 Y61.879 F4800
G1 E0.0000 F2400
G92 E0.0000
G1 X67.945 Y62.103 E0.0114 F1200
G1 X68.328 Y61.983 E0.0258
G1 X68.324 Y61.972 E0.0262
G1 X68.309 Y61.901 E0.0288
G1 X67.721 Y61.314 E0.0587
G1 X67.721 Y61.211 E0.0624
G1 X67.693 Y60.719 E0.0800
G1 X68.224 Y61.250 E0.1070
G1 X68.224 Y60.989 E0.1164
G1 X68.276 Y60.736 E0.1257
G1 X68.225 Y60.685 E0.1283
G92 E0.0000
G1 E-4.0000 F2400
G1 X70.666 Y64.258 F4800
G1 E0.0000 F2400
G92 E0.0000
G1 X70.718 Y64.311 E0.0027 F1200
; feature solid layer
; tool H0.240 W0.600
G1 X72.478 Y63.807 F4800
G92 E0.0000
G1 X72.493 Y63.822 E0.0011 F960
G1 X73.341 Y63.822 E0.0469
G1 X72.935 Y63.416 E0.0778
G1 X73.257 Y63.041 E0.1044
G1 X73.311 Y62.944 E0.1104
G1 X74.190 Y63.822 E0.1774
G1 X75.038 Y63.822 E0.2231
G1 X73.599 Y62.383 E0.3328
G1 X73.759 Y61.873 E0.3616
G1 X73.775 Y61.710 E0.3704
G1 X75.351 Y63.286 E0.4905
G1 X75.351 Y62.438 E0.5362
G1 X73.786 Y60.873 E0.6554
G92 E0.0000
G1 E-4.0000 F2400
G1 X68.490 Y58.971 F4800
G1 E0.0000 F2400
G92 E0.0000
G1 X67.644 Y58.125 E0.0645 F960
G92 E0.0000
G1 E-4.0000 F2400
G1 X55.356 Y59.414 F4800
G1 E0.0000 F2400
G92 E0.0000
G1 X55.272 Y59.329 E0.0064 F960
G1 X55.066 Y63.366 F4800
G92 E0.0000
G1 X55.101 Y63.401 E0.0027 F960
G1 X55.101 Y63.819 E0.0252
G1 X54.671 Y63.819 E0.0484
G1 X54.618 Y63.767 E0.0524
G1 X49.580 Y63.819 F4800
G92 E0.0000
G1 X49.071 Y63.311 E0.0387 F960
G1 X49.071 Y62.463 E0.0844
G1 X50.428 Y63.819 E0.1878
G1 X50.987 Y63.819 E0.2180
G1 X50.624 Y63.547 E0.2425
G1 X50.196 Y63.060 E0.2774
G1 X49.895 Y62.527 E0.3104
G1 X49.840 Y62.383 E0.3187
G1 X49.071 Y61.614 E0.3772
G1 X49.071 Y60.766 E0.4230
G1 X49.629 Y61.324 E0.4655
G1 X49.629 Y60.909 E0.4878
G1 X49.704 Y60.550 E0.5076
G1 X49.071 Y59.917 E0.5558
G1 X49.071 Y59.069 E0.6015
G1 X49.919 Y59.916 E0.6661
G1 X50.022 Y59.680 E0.6800
G1 X50.233 Y59.382 E0.6996
G1 X49.071 Y58.220 E0.7882
G1 X49.071 Y57.371 E0.8339
G1 X50.633 Y58.933 E0.9529
G1 X50.873 Y58.711 E0.9705
G1 X51.114 Y58.566 E0.9857
G1 X49.228 Y56.680 E1.1294
G1 X49.778 Y56.381 E1.1631
G1 X51.685 Y58.288 E1.3084
G1 X52.041 Y58.164 E1.3288
G1 X52.367 Y58.122 E1.3465
G1 X50.328 Y56.083 E1.5019
G1 X50.878 Y55.784 E1.5356
G1 X53.216 Y58.122 E1.7137
G1 X53.331 Y58.131 E1.7200
G1 X53.953 Y58.312 E1.7549
G1 X54.493 Y58.600 E1.7879
G1 X54.689 Y58.746 E1.8010
G1 X51.428 Y55.486 E2.0494
G1 X51.978 Y55.187 E2.0832
G1 X55.574 Y58.783 E2.3572
G1 X55.643 Y58.595 E2.3680
G1 X55.840 Y58.201 E2.3917
G1 X52.528 Y54.888 E2.6441
G1 X53.078 Y54.590 E2.6779
G1 X56.149 Y57.661 E2.9119
G1 X56.415 Y57.256 E2.9379
G1 X56.496 Y57.159 E2.9448
G1 X53.628 Y54.291 E3.1633
G1 X54.178 Y53.993 E3.1970
G1 X56.883 Y56.698 E3.4032
G1 X56.920 Y56.654 E3.4062
G1 X57.315 Y56.282 E3.4355
G1 X54.728 Y53.694 E3.6327
G1 X55.278 Y53.396 E3.6664
G1 X57.777 Y55.894 E3.8568
G1 X57.794 Y55.880 E3.8580
G1 X58.287 Y55.556 E3.8898
G1 X55.828 Y53.097 E4.0771
G1 X56.378 Y52.799 E4.1108
G1 X58.837 Y55.258 E4.2982
G1 X59.128 Y55.111 E4.3158
G1 X59.430 Y55.002 E4.3330
G1 X56.928 Y52.500 E4.5237
G1 X57.478 Y52.202 E4.5574
G1 X60.073 Y54.796 E4.7551
G1 X60.611 Y54.669 E4.7849
G1 X60.775 Y54.650 E4.7938
G1 X58.028 Y51.903 E5.0031
G1 X58.578 Y51.604 E5.0369
G1 X61.550 Y54.577 E5.2634
G1 X61.775 Y54.570 E5.2754
G1 X62.430 Y54.608 E5.3108
G1 X59.128 Y51.306 E5.5624
G1 X59.678 Y51.007 E5.5961
G1 X63.470 Y54.800 E5.8851
G1 X64.016 Y54.963 E5.9158
G1 X64.414 Y55.121 E5.9388
G1 X64.868 Y55.349 E5.9662
G1 X60.228 Y50.709 E6.3197
G1 X60.778 Y50.410 E6.3534
G1 X68.964 Y58.596 E6.9772
G1 X69.275 Y58.402 E6.9970
G1 X69.526 Y58.309 E7.0114
G1 X61.328 Y50.112 E7.6360
G1 X61.878 Y49.813 E7.6697
G1 X70.196 Y58.131 E8.3036
