; G-Code generated by Simplify3D(R) Version 4.1.2
; Apr 27, 2020 at 3:59:31 PM
; Settings Summary
;   processName,MASK 2.1
;   applyToModels,xyzCalibration_cube
;   profileName,Creality Ender 3 Pro (Mask 2.1)
;   profileVersion,2020-04-09 09:08:56
;   baseProfile,Creality Ender 3 Pro (modified)
;   printMaterial,PLA
;   printQuality,MASK-2.1
;   printExtruders,
;   extruderName,Primary Extruder
;   extruderToolheadNumber,0
;   extruderDiameter,0.4
;   extruderAutoWidth,0
;   extruderWidth,0.7
;   extrusionMultiplier,0.9
;   extruderUseRetract,1
;   extruderRetractionDistance,6
;   extruderExtraRestartDistance,0
;   extruderRetractionZLift,0
;   extruderRetractionSpeed,1500
;   extruderUseCoasting,0
;   extruderCoastingDistance,0.2
;   extruderUseWipe,0
;   extruderWipeDistance,5
;   primaryExtruder,0
;   layerHeight,0.2
;   topSolidLayers,4
;   bottomSolidLayers,4
;   perimeterOutlines,3
;   printPerimetersInsideOut,0
;   startPointOption,2
;   startPointOriginX,0
;   startPointOriginY,0
;   sequentialIslands,0
;   spiralVaseMode,0
;   firstLayerHeightPercentage,120
;   firstLayerWidthPercentage,110
;   firstLayerUnderspeed,0.5
;   useRaft,0
;   raftExtruder,0
;   raftTopLayers,3
;   raftBaseLayers,2
;   raftOffset,3
;   raftSeparationDistance,0.14
;   raftTopInfill,100
;   aboveRaftSpeedMultiplier,0.3
;   useSkirt,0
;   skirtExtruder,0
;   skirtLayers,1
;   skirtOutlines,2
;   skirtOffset,4
;   usePrimePillar,0
;   primePillarExtruder,999
;   primePillarWidth,12
;   primePillarLocation,7
;   primePillarSpeedMultiplier,1
;   useOozeShield,0
;   oozeShieldExtruder,999
;   oozeShieldOffset,2
;   oozeShieldOutlines,1
;   oozeShieldSidewallShape,1
;   oozeShieldSidewallAngle,30
;   oozeShieldSpeedMultiplier,1
;   infillExtruder,0
;   internalInfillPattern,Rectilinear
;   externalInfillPattern,Rectilinear
;   infillPercentage,50
;   outlineOverlapPercentage,15
;   infillExtrusionWidthPercentage,100
;   minInfillLength,5
;   infillLayerInterval,1
;   internalInfillAngles,45,-45
;   overlapInternalInfillAngles,0
;   externalInfillAngles,45,-45
;   generateSupport,0
;   supportExtruder,0
;   supportInfillPercentage,25
;   supportExtraInflation,0
;   supportBaseLayers,0
;   denseSupportExtruder,0
;   denseSupportLayers,0
;   denseSupportInfillPercentage,70
;   supportLayerInterval,1
;   supportHorizontalPartOffset,0.3
;   supportUpperSeparationLayers,1
;   supportLowerSeparationLayers,1
;   supportType,0
;   supportGridSpacing,4
;   maxOverhangAngle,45
;   supportAngles,0
;   temperatureName,Primary Extruder,Heated Bed
;   temperatureNumber,0,0
;   temperatureSetpointCount,1,1
;   temperatureSetpointLayers,1,1
;   temperatureSetpointTemperatures,200,60
;   temperatureStabilizeAtStartup,1,1
;   temperatureHeatedBed,0,1
;   fanLayers,1,2
;   fanSpeeds,0,100
;   blipFanToFullPower,0
;   adjustSpeedForCooling,1
;   minSpeedLayerTime,15
;   minCoolingSpeedSlowdown,20
;   increaseFanForCooling,0
;   minFanLayerTime,45
;   maxCoolingFanSpeed,100
;   increaseFanForBridging,0
;   bridgingFanSpeed,100
;   use5D,1
;   relativeEdistances,0
;   allowEaxisZeroing,1
;   independentExtruderAxes,0
;   includeM10123,0
;   stickySupport,1
;   applyToolheadOffsets,0
;   gcodeXoffset,0
;   gcodeYoffset,0
;   gcodeZoffset,0
;   overrideMachineDefinition,1
;   machineTypeOverride,0
;   strokeXoverride,220
;   strokeYoverride,220
;   strokeZoverride,250
;   originOffsetXoverride,-5
;   originOffsetYoverride,-5
;   originOffsetZoverride,0
;   homeXdirOverride,-1
;   homeYdirOverride,-1
;   homeZdirOverride,-1
;   flipXoverride,1
;   flipYoverride,-1
;   flipZoverride,1
;   toolheadOffsets,0,0|0,0|0,0|0,0|0,0|0,0
;   overrideFirmwareConfiguration,1
;   firmwareTypeOverride,RepRap (Marlin/Repetier/Sprinter)
;   GPXconfigOverride,r2
;   baudRateOverride,115200
;   overridePrinterModels,1
;   printerModelsOverride
;   startingGcode,G28 ; home all axes,G1 X5 Y10 Z0.2 F3000 ; get ready to prime,G92 E0 ; reset extrusion distance,G1 X160 E15 F600 ; prime nozzle,G1 X180 F5000 ; quick wipe
;   layerChangeGcode,
;   retractionGcode,
;   toolChangeGcode,
;   endingGcode,G28 X0 ; home X axis,M106 S0 ; turn off cooling fan,M104 S0 ; turn off extruder,M140 S0 ; turn off bed,M84 ; disable motors
;   exportFileFormat,gcode
;   celebration,0
;   celebrationSong,Random Song
;   postProcessing,
;   defaultSpeed,3000
;   outlineUnderspeed,0.75
;   solidInfillUnderspeed,0.8
;   supportUnderspeed,0.8
;   rapidXYspeed,4800
;   rapidZspeed,1000
;   minBridgingArea,50
;   bridgingExtraInflation,0
;   bridgingExtrusionMultiplier,1
;   bridgingSpeedMultiplier,1
;   useFixedBridgingAngle,0
;   fixedBridgingAngle,0
;   applyBridgingToPerimeters,0
;   filamentDiameters,1.75|1.75|1.75|1.75|1.75|1.75
;   filamentPricesPerKg,25|46|46|46|46|46
;   filamentDensities,1.25|1.25|1.25|1.25|1.25|1.25
;   useMinPrintHeight,0
;   minPrintHeight,9
;   useMaxPrintHeight,0
;   maxPrintHeight,9
;   useDiaphragm,0
;   diaphragmLayerInterval,20
;   robustSlicing,1
;   mergeAllIntoSolid,0
;   onlyRetractWhenCrossingOutline,1
;   retractBetweenLayers,1
;   useRetractionMinTravel,0
;   retractionMinTravel,3
;   retractWhileWiping,0
;   onlyWipeOutlines,1
;   avoidCrossingOutline,0
;   maxMovementDetourFactor,3
;   toolChangeRetractionDistance,12
;   toolChangeExtraRestartDistance,-0.5
;   toolChangeRetractionSpeed,600
;   externalThinWallType,0
;   internalThinWallType,2
;   thinWallAllowedOverlapPercentage,10
;   singleExtrusionMinLength,1
;   singleExtrusionMinPrintingWidthPercentage,50
;   singleExtrusionMaxPrintingWidthPercentage,200
;   singleExtrusionEndpointExtension,0.2
;   horizontalSizeCompensation,0
G90
M82
M106 S0
M140 S60
M190 S60
M104 S200 T0
M109 S200 T0
G28 ; home all axes
G1 X5 Y10 Z0.2 F3000 ; get ready to prime
G92 E0 ; reset extrusion distance
G1 X160 E15 F600 ; prime nozzle
G1 X180 F5000 ; quick wipe
; process MASK 2.1
; layer 1, Z = 0.240
T0
G92 E0.0000
G1 E-6.0000 F1500
; feature outer perimeter
; tool H0.240 W0.770
G1 Z0.240 F1000
G1 X105.385 Y105.385 F4800
G1 E0.0000 F1500
G92 E0.0000
G1 X124.615 Y105.385 E1.3297 F1125
G1 X124.615 Y124.615 E2.6594
G1 X105.385 Y124.615 E3.9891
G1 X105.385 Y105.385 E5.3189
; feature inner perimeter
G1 X106.155 Y106.155 F4800
G92 E0.0000
G1 X123.845 Y106.155 E1.2232 F1313
G1 X123.845 Y123.845 E2.4464
G1 X106.155 Y123.845 E3.6697
G1 X106.155 Y106.155 E4.8929
G1 X106.925 Y106.925 F4800
G92 E0.0000
G1 X123.075 Y106.925 E1.1167 F1313
G1 X123.075 Y123.075 E2.2335
G1 X106.925 Y123.075 E3.3502
G1 X106.925 Y106.925 E4.4669
; feature solid layer
G1 X121.736 Y107.579 F4800
G92 E0.0000
G1 X122.421 Y108.264 E0.0670 F1200
G1 X122.421 Y109.353 E0.1423
G1 X120.647 Y107.579 E0.3157
G1 X119.558 Y107.579 E0.3910
G1 X122.421 Y110.442 E0.6709
G1 X122.421 Y111.531 E0.7462
G1 X118.469 Y107.579 E1.1327
G1 X117.380 Y107.579 E1.2079
G1 X122.421 Y112.620 E1.7009
G1 X122.421 Y113.709 E1.7762
G1 X116.291 Y107.579 E2.3756
G1 X115.202 Y107.579 E2.4508
G1 X122.421 Y114.798 E3.1567
G1 X122.421 Y115.887 E3.2320
G1 X114.113 Y107.579 E4.0444
G1 X113.024 Y107.579 E4.1197
G1 X122.421 Y116.976 E5.0386
G1 X122.421 Y118.065 E5.1139
G1 X111.935 Y107.579 E6.1392
G1 X110.846 Y107.579 E6.2145
G1 X122.421 Y119.154 E7.3463
G1 X122.421 Y120.243 E7.4216
G1 X109.757 Y107.579 E8.6600
G1 X108.668 Y107.579 E8.7353
G1 X122.421 Y121.332 E10.0801
G1 X122.421 Y122.420 E10.1554
G1 X107.579 Y107.579 E11.6067
G1 X107.579 Y108.668 E11.6820
G1 X121.332 Y122.421 E13.0268
G1 X120.243 Y122.421 E13.1021
G1 X107.579 Y109.757 E14.3404
G1 X107.579 Y110.846 E14.4157
G1 X119.154 Y122.421 E15.5475
G1 X118.065 Y122.421 E15.6228
G1 X107.579 Y111.935 E16.6482
G1 X107.579 Y113.024 E16.7235
G1 X116.976 Y122.421 E17.6423
G1 X115.887 Y122.421 E17.7176
G1 X107.579 Y114.113 E18.5300
G1 X107.579 Y115.202 E18.6053
G1 X114.798 Y122.421 E19.3112
G1 X113.709 Y122.421 E19.3865
G1 X107.579 Y116.291 E19.9859
G1 X107.579 Y117.380 E20.0612
G1 X112.620 Y122.421 E20.5541
G1 X111.531 Y122.421 E20.6294
G1 X107.579 Y118.469 E21.0158
G1 X107.579 Y119.558 E21.0911
G1 X110.442 Y122.421 E21.3710
G1 X109.353 Y122.421 E21.4463
G1 X107.579 Y120.647 E21.6198
G1 X107.579 Y121.736 E21.6951
G1 X108.264 Y122.421 E21.7621
G92 E0.0000
G1 E-6.0000 F1500
; layer 2, Z = 0.440
M106 S255
; feature outer perimeter
; tool H0.200 W0.700
G1 Z0.440 F1000
G1 X105.350 Y124.650 F4800
G1 E0.0000 F1500
G92 E0.0000
G1 X105.350 Y105.350 E1.0110 F2149
G1 X124.650 Y105.350 E2.0220
G1 X124.650 Y124.650 E3.0331
G1 X105.350 Y124.650 E4.0441
; feature inner perimeter
G1 X106.050 Y123.950 F4800
G92 E0.0000
G1 X106.050 Y106.050 E0.9377 F2507
G1 X123.950 Y106.050 E1.8754
G1 X123.950 Y123.950 E2.8131
G1 X106.050 Y123.950 E3.7507
G1 X106.750 Y123.250 F4800
G92 E0.0000
G1 X106.750 Y106.750 E0.8643 F2507
G1 X123.250 Y106.750 E1.7287
G1 X123.250 Y123.250 E2.5930
G1 X106.750 Y123.250 E3.4574
; feature solid layer
G1 X107.345 Y107.806 F4800
G92 E0.0000
G1 X107.806 Y107.345 E0.0341 F2292
G1 X108.796 Y107.345 E0.0860
G1 X107.345 Y108.796 E0.1935
G1 X107.345 Y109.786 E0.2453
G1 X109.786 Y107.345 E0.4261
G1 X110.776 Y107.345 E0.4780
G1 X107.345 Y110.776 E0.7322
G1 X107.345 Y111.766 E0.7840
G1 X111.766 Y107.345 E1.1115
G1 X112.756 Y107.345 E1.1634
G1 X107.345 Y112.756 E1.5642
G1 X107.345 Y113.745 E1.6160
G1 X113.745 Y107.345 E2.0902
G1 X114.735 Y107.345 E2.1421
G1 X107.345 Y114.735 E2.6896
G1 X107.345 Y115.725 E2.7414
G1 X115.725 Y107.345 E3.3623
G1 X116.715 Y107.345 E3.4141
G1 X107.345 Y116.715 E4.1083
G1 X107.345 Y117.705 E4.1602
G1 X117.705 Y107.345 E4.9277
G1 X118.695 Y107.345 E4.9796
G1 X107.345 Y118.695 E5.8204
G1 X107.345 Y119.685 E5.8723
G1 X119.685 Y107.345 E6.7865
G1 X120.675 Y107.345 E6.8383
G1 X107.345 Y120.675 E7.8259
G1 X107.345 Y121.665 E7.8777
G1 X121.665 Y107.345 E8.9386
G1 X122.655 Y107.345 E8.9905
G1 X107.345 Y122.655 E10.1247
G1 X108.335 Y122.655 E10.1765
G1 X122.655 Y108.335 E11.2374
G1 X122.655 Y109.325 E11.2893
G1 X109.325 Y122.655 E12.2768
G1 X110.315 Y122.655 E12.3287
G1 X122.655 Y110.315 E13.2429
G1 X122.655 Y111.305 E13.2947
G1 X111.305 Y122.655 E14.1356
G1 X112.295 Y122.655 E14.1874
G1 X122.655 Y112.295 E14.9550
G1 X122.655 Y113.285 E15.0068
G1 X113.285 Y122.655 E15.7010
G1 X114.275 Y122.655 E15.7529
G1 X122.655 Y114.275 E16.3737
G1 X122.655 Y115.265 E16.4256
G1 X115.265 Y122.655 E16.9731
G1 X116.255 Y122.655 E17.0249
G1 X122.655 Y116.255 E17.4991
G1 X122.655 Y117.245 E17.5509
G1 X117.245 Y122.655 E17.9518
G1 X118.234 Y122.655 E18.0036
G1 X122.655 Y118.234 E18.3311
G1 X122.655 Y119.224 E18.3830
G1 X119.224 Y122.655 E18.6371
G1 X120.214 Y122.655 E18.6890
G1 X122.655 Y120.214 E18.8698
G1 X122.655 Y121.204 E18.9216
G1 X121.204 Y122.655 E19.0291
G1 X122.194 Y122.655 E19.0810
G1 X122.655 Y122.194 E19.1151
G92 E0.0000
G1 E-6.0000 F1500
; layer 3, Z = 0.640
; feature outer perimeter
G1 Z0.640 F1000
G1 X124.650 Y124.650 F4800
G1 E0.0000 F1500
G92 E0.0000
G1 X105.350 Y124.650 E1.0110 F2149
G1 X105.350 Y105.350 E2.0220
G1 X124.650 Y105.350 E3.0331
G1 X124.650 Y124.650 E4.0441
; feature inner perimeter
G1 X123.950 Y123.950 F4800
G92 E0.0000
G1 X106.050 Y123.950 E0.9377 F2507
G1 X106.050 Y106.050 E1.8754
G1 X123.950 Y106.050 E2.8131
G1 X123.950 Y123.950 E3.7507
G1 X123.250 Y123.250 F4800
G92 E0.0000
G1 X106.750 Y123.250 E0.8643 F2507
G1 X106.750 Y106.750 E1.7287
G1 X123.250 Y106.750 E2.5930
G1 X123.250 Y123.250 E3.4574
; feature solid layer
G1 X107.806 Y122.655 F4800
G92 E0.0000
G1 X107.345 Y122.194 E0.0341 F2292
G1 X107.345 Y121.204 E0.0860
G1 X108.796 Y122.655 E0.1935
G1 X109.786 Y122.655 E0.2453
G1 X107.345 Y120.214 E0.4261
G1 X107.345 Y119.224 E0.4780
G1 X110.776 Y122.655 E0.7321
G1 X111.766 Y122.655 E0.7840
G1 X107.345 Y118.234 E1.1115
G1 X107.345 Y117.244 E1.1634
G1 X112.756 Y122.655 E1.5642
G1 X113.745 Y122.655 E1.6160
G1 X107.345 Y116.255 E2.0902
G1 X107.345 Y115.265 E2.1421
G1 X114.735 Y122.655 E2.6896
G1 X115.725 Y122.655 E2.7414
G1 X107.345 Y114.275 E3.3623
G1 X107.345 Y113.285 E3.4141
G1 X116.715 Y122.655 E4.1083
G1 X117.705 Y122.655 E4.1602
G1 X107.345 Y112.295 E4.9277
G1 X107.345 Y111.305 E4.9796
G1 X118.695 Y122.655 E5.8204
G1 X119.685 Y122.655 E5.8723
G1 X107.345 Y110.315 E6.7865
G1 X107.345 Y109.325 E6.8383
G1 X120.675 Y122.655 E7.8259
G1 X121.665 Y122.655 E7.8777
G1 X107.345 Y108.335 E8.9386
G1 X107.345 Y107.345 E8.9905
G1 X122.655 Y122.655 E10.1247
G1 X122.655 Y121.665 E10.1765
G1 X108.335 Y107.345 E11.2374
G1 X109.325 Y107.345 E11.2893
G1 X122.655 Y120.675 E12.2768
G1 X122.655 Y119.685 E12.3287
G1 X110.315 Y107.345 E13.2428
G1 X111.305 Y107.345 E13.2947
G1 X122.655 Y118.695 E14.1356
G1 X122.655 Y117.705 E14.1874
G1 X112.295 Y107.345 E14.9549
G1 X113.285 Y107.345 E15.0068
G1 X122.655 Y116.715 E15.7010
G1 X122.655 Y115.725 E15.7528
G1 X114.275 Y107.345 E16.3737
G1 X115.265 Y107.345 E16.4255
G1 X122.655 Y114.735 E16.9730
G1 X122.655 Y113.745 E17.0249
G1 X116.255 Y107.345 E17.4991
G1 X117.245 Y107.345 E17.5509
G1 X122.655 Y112.755 E17.9518
G1 X122.655 Y111.766 E18.0036
G1 X118.234 Y107.345 E18.3311
G1 X119.224 Y107.345 E18.3830
G1 X122.655 Y110.776 E18.6371
G1 X122.655 Y109.786 E18.6890
G1 X120.214 Y107.345 E18.8698
G1 X121.204 Y107.345 E18.9216
G1 X122.655 Y108.796 E19.0291
G1 X122.655 Y107.806 E19.0810
G1 X122.194 Y107.345 E19.1151
G92 E0.0000
G1 E-6.0000 F1500
; layer 4, Z = 0.840
; feature outer perimeter
G1 Z0.840 F1000
G1 X124.650 Y105.350 F4800
G1 E0.0000 F1500
G92 E0.0000
G1 X124.650 Y124.650 E1.0110 F2149
G1 X105.350 Y124.650 E2.0220
G1 X105.350 Y105.350 E3.0331
G1 X124.650 Y105.350 E4.0441
; feature inner perimeter
G1 X123.950 Y106.050 F4800
G92 E0.0000
G1 X123.950 Y123.950 E0.9377 F2507
G1 X106.050 Y123.950 E1.8754
G1 X106.050 Y106.050 E2.8131
G1 X123.950 Y106.050 E3.7507
G1 X123.250 Y106.750 F4800
G92 E0.0000
G1 X123.250 Y123.250 E0.8643 F2507
G1 X106.750 Y123.250 E1.7287
G1 X106.750 Y106.750 E2.5930
G1 X123.250 Y106.750 E3.4574
; feature solid layer
G1 X122.655 Y122.194 F4800
G92 E0.0000
G1 X122.194 Y122.655 E0.0341 F2292
G1 X121.204 Y122.655 E0.0860
G1 X122.655 Y121.204 E0.1935
G1 X122.655 Y120.214 E0.2453
G1 X120.214 Y122.655 E0.4261
G1 X119.224 Y122.655 E0.4780
G1 X122.655 Y119.224 E0.7321
G1 X122.655 Y118.234 E0.7840
G1 X118.234 Y122.655 E1.1115
G1 X117.245 Y122.655 E1.1633
G1 X122.655 Y117.245 E1.5642
G1 X122.655 Y116.255 E1.6160
G1 X116.255 Y122.655 E2.0902
G1 X115.265 Y122.655 E2.1420
G1 X122.655 Y115.265 E2.6895
G1 X122.655 Y114.275 E2.7414
G1 X114.275 Y122.655 E3.3622
G1 X113.285 Y122.655 E3.4141
G1 X122.655 Y113.285 E4.1083
G1 X122.655 Y112.295 E4.1601
G1 X112.295 Y122.655 E4.9277
G1 X111.305 Y122.655 E4.9795
G1 X122.655 Y111.305 E5.8204
G1 X122.655 Y110.315 E5.8722
G1 X110.315 Y122.655 E6.7864
G1 X109.325 Y122.655 E6.8383
G1 X122.655 Y109.325 E7.8258
G1 X122.655 Y108.335 E7.8777
G1 X108.335 Y122.655 E8.9385
G1 X107.345 Y122.655 E8.9904
G1 X122.655 Y107.345 E10.1246
G1 X121.665 Y107.345 E10.1765
G1 X107.345 Y121.665 E11.2374
G1 X107.345 Y120.675 E11.2892
G1 X120.675 Y107.345 E12.2767
G1 X119.685 Y107.345 E12.3286
G1 X107.345 Y119.685 E13.2428
G1 X107.345 Y118.695 E13.2947
G1 X118.695 Y107.345 E14.1355
G1 X117.705 Y107.345 E14.1874
G1 X107.345 Y117.705 E14.9549
G1 X107.345 Y116.715 E15.0068
G1 X116.715 Y107.345 E15.7009
G1 X115.725 Y107.345 E15.7528
G1 X107.345 Y115.725 E16.3737
G1 X107.345 Y114.735 E16.4255
G1 X114.735 Y107.345 E16.9730
G1 X113.745 Y107.345 E17.0249
G1 X107.345 Y113.745 E17.4990
G1 X107.345 Y112.756 E17.5509
G1 X112.756 Y107.345 E17.9517
G1 X111.766 Y107.345 E18.0036
G1 X107.345 Y111.766 E18.3311
G1 X107.345 Y110.776 E18.3829
G1 X110.776 Y107.345 E18.6371
G1 X109.786 Y107.345 E18.6890
G1 X107.345 Y109.786 E18.8698
G1 X107.345 Y108.796 E18.9216
G1 X108.796 Y107.345 E19.0291
G1 X107.806 Y107.345 E19.0810
G1 X107.345 Y107.806 E19.1151
G92 E0.0000
G1 E-6.0000 F1500
; layer 5, Z = 1.040
; feature outer perimeter
G1 Z1.040 F1000
G1 X105.350 Y105.350 F4800
G1 E0.0000 F1500
G92 E0.0000
G1 X124.650 Y105.350 E1.0110 F1368
G1 X124.650 Y124.650 E2.0220
G1 X105.350 Y124.650 E3.0331
G1 X105.350 Y105.350 E4.0441
; feature inner perimeter
G1 X106.050 Y106.050 F4800
G92 E0.0000
