; G-Code generated by Simplify3D(R) Version 4.1.2
; Apr 21, 2020 at 8:34:21 PM
; Settings Summary
;   processName,Process1
;   applyToModels,Z-Stepper_1mm_Spacer,Z-Stepper_1mm_Spacer(2),Z-Stepper_1mm_Spacer(3),Z-Stepper_1mm_Spacer(4),Z-Stepper_1mm_Spacer(5)
;   profileName,Creality Ender 3 Pro (modified)
;   profileVersion,2019-04-06 08:00:00
;   baseProfile,
;   printMaterial,PLA
;   printQuality,Medium
;   printExtruders,
;   extruderName,Primary Extruder
;   extruderToolheadNumber,0
;   extruderDiameter,0.4
;   extruderAutoWidth,0
;   extruderWidth,0.4
;   extrusionMultiplier,0.9
;   extruderUseRetract,1
;   extruderRetractionDistance,4
;   extruderExtraRestartDistance,0
;   extruderRetractionZLift,0
;   extruderRetractionSpeed,2400
;   extruderUseCoasting,0
;   extruderCoastingDistance,0.2
;   extruderUseWipe,0
;   extruderWipeDistance,5
;   primaryExtruder,0
;   layerHeight,0.2
;   topSolidLayers,3
;   bottomSolidLayers,3
;   perimeterOutlines,2
;   printPerimetersInsideOut,1
;   startPointOption,2
;   startPointOriginX,0
;   startPointOriginY,0
;   sequentialIslands,0
;   spiralVaseMode,0
;   firstLayerHeightPercentage,120
;   firstLayerWidthPercentage,150
;   firstLayerUnderspeed,0.5
;   useRaft,0
;   raftExtruder,0
;   raftTopLayers,3
;   raftBaseLayers,2
;   raftOffset,3
;   raftSeparationDistance,0.14
;   raftTopInfill,100
;   aboveRaftSpeedMultiplier,0.3
;   useSkirt,0
;   skirtExtruder,0
;   skirtLayers,1
;   skirtOutlines,2
;   skirtOffset,4
;   usePrimePillar,0
;   primePillarExtruder,999
;   primePillarWidth,12
;   primePillarLocation,7
;   primePillarSpeedMultiplier,1
;   useOozeShield,0
;   oozeShieldExtruder,999
;   oozeShieldOffset,2
;   oozeShieldOutlines,1
;   oozeShieldSidewallShape,1
;   oozeShieldSidewallAngle,30
;   oozeShieldSpeedMultiplier,1
;   infillExtruder,0
;   internalInfillPattern,Rectilinear
;   externalInfillPattern,Rectilinear
;   infillPercentage,20
;   outlineOverlapPercentage,15
;   infillExtrusionWidthPercentage,100
;   minInfillLength,5
;   infillLayerInterval,1
;   internalInfillAngles,45,-45
;   overlapInternalInfillAngles,0
;   externalInfillAngles,45,-45
;   generateSupport,0
;   supportExtruder,0
;   supportInfillPercentage,30
;   supportExtraInflation,0
;   supportBaseLayers,0
;   denseSupportExtruder,0
;   denseSupportLayers,0
;   denseSupportInfillPercentage,70
;   supportLayerInterval,1
;   supportHorizontalPartOffset,0.3
;   supportUpperSeparationLayers,1
;   supportLowerSeparationLayers,1
;   supportType,0
;   supportGridSpacing,4
;   maxOverhangAngle,45
;   supportAngles,0
;   temperatureName,Primary Extruder,Heated Bed
;   temperatureNumber,0,0
;   temperatureSetpointCount,1,1
;   temperatureSetpointLayers,1,1
;   temperatureSetpointTemperatures,210,60
;   temperatureStabilizeAtStartup,1,1
;   temperatureHeatedBed,0,1
;   fanLayers,1,2
;   fanSpeeds,0,100
;   blipFanToFullPower,0
;   adjustSpeedForCooling,1
;   minSpeedLayerTime,15
;   minCoolingSpeedSlowdown,20
;   increaseFanForCooling,0
;   minFanLayerTime,45
;   maxCoolingFanSpeed,100
;   increaseFanForBridging,0
;   bridgingFanSpeed,100
;   use5D,1
;   relativeEdistances,0
;   allowEaxisZeroing,1
;   independentExtruderAxes,0
;   includeM10123,0
;   stickySupport,1
;   applyToolheadOffsets,0
;   gcodeXoffset,0
;   gcodeYoffset,0
;   gcodeZoffset,0
;   overrideMachineDefinition,1
;   machineTypeOverride,0
;   strokeXoverride,220
;   strokeYoverride,220
;   strokeZoverride,250
;   originOffsetXoverride,-5
;   originOffsetYoverride,-5
;   originOffsetZoverride,0
;   homeXdirOverride,-1
;   homeYdirOverride,-1
;   homeZdirOverride,-1
;   flipXoverride,1
;   flipYoverride,-1
;   flipZoverride,1
;   toolheadOffsets,0,0|0,0|0,0|0,0|0,0|0,0
;   overrideFirmwareConfiguration,1
;   firmwareTypeOverride,RepRap (Marlin/Repetier/Sprinter)
;   GPXconfigOverride,r2
;   baudRateOverride,115200
;   overridePrinterModels,1
;   printerModelsOverride
;   startingGcode,G28 ; home all axes,G1 X5 Y10 Z0.2 F3000 ; get ready to prime,G92 E0 ; reset extrusion distance,G1 X160 E15 F600 ; prime nozzle,G1 X180 F5000 ; quick wipe
;   layerChangeGcode,
;   retractionGcode,
;   toolChangeGcode,
;   endingGcode,G28 X0 ; home X axis,M106 S0 ; turn off cooling fan,M104 S0 ; turn off extruder,M140 S0 ; turn off bed,M84 ; disable motors
;   exportFileFormat,gcode
;   celebration,0
;   celebrationSong,Random Song
;   postProcessing,
;   defaultSpeed,2400
;   outlineUnderspeed,0.5
;   solidInfillUnderspeed,0.8
;   supportUnderspeed,0.8
;   rapidXYspeed,4800
;   rapidZspeed,1000
;   minBridgingArea,50
;   bridgingExtraInflation,0
;   bridgingExtrusionMultiplier,1
;   bridgingSpeedMultiplier,1
;   useFixedBridgingAngle,0
;   fixedBridgingAngle,0
;   applyBridgingToPerimeters,0
;   filamentDiameters,1.75|1.75|1.75|1.75|1.75|1.75
;   filamentPricesPerKg,46|46|46|46|46|46
;   filamentDensities,1.25|1.25|1.25|1.25|1.25|1.25
;   useMinPrintHeight,0
;   minPrintHeight,0
;   useMaxPrintHeight,0
;   maxPrintHeight,0
;   useDiaphragm,0
;   diaphragmLayerInterval,20
;   robustSlicing,1
;   mergeAllIntoSolid,0
;   onlyRetractWhenCrossingOutline,1
;   retractBetweenLayers,1
;   useRetractionMinTravel,0
;   retractionMinTravel,3
;   retractWhileWiping,0
;   onlyWipeOutlines,1
;   avoidCrossingOutline,0
;   maxMovementDetourFactor,3
;   toolChangeRetractionDistance,12
;   toolChangeExtraRestartDistance,-0.5
;   toolChangeRetractionSpeed,600
;   externalThinWallType,0
;   internalThinWallType,2
;   thinWallAllowedOverlapPercentage,10
;   singleExtrusionMinLength,1
;   singleExtrusionMinPrintingWidthPercentage,50
;   singleExtrusionMaxPrintingWidthPercentage,200
;   singleExtrusionEndpointExtension,0.2
;   horizontalSizeCompensation,0
G90
M82
M106 S0
M140 S60
M190 S60
M104 S210 T0
M109 S210 T0
G28 ; home all axes
G1 X5 Y10 Z0.2 F3000 ; get ready to prime
G92 E0 ; reset extrusion distance
G1 X160 E15 F600 ; prime nozzle
G1 X180 F5000 ; quick wipe
; process Process1
; layer 1, Z = 0.240
T0
G92 E0.0000
G1 E-4.0000 F2400
; feature inner perimeter
; tool H0.240 W0.600
G1 Z0.240 F1000
G1 X95.190 Y76.262 F4800
G1 E0.0000 F2400
G92 E0.0000
G1 X95.339 Y76.125 E0.0109 F900
G1 X95.511 Y76.019 E0.0218
G1 X95.719 Y75.938 E0.0338
G1 X95.778 Y75.924 E0.0371
G1 X96.042 Y75.900 E0.0513
G1 X133.958 Y75.900 E2.0943
G1 X134.201 Y75.922 E2.1075
G1 X134.396 Y75.978 E2.1184
G1 X134.577 Y76.068 E2.1293
G1 X134.739 Y76.190 E2.1402
G1 X134.875 Y76.339 E2.1511
G1 X134.981 Y76.511 E2.1620
G1 X135.062 Y76.720 E2.1740
G1 X135.076 Y76.778 E2.1772
G1 X135.100 Y77.042 E2.1915
G1 X135.100 Y84.958 E2.6181
G1 X135.076 Y85.222 E2.6324
G1 X135.062 Y85.280 E2.6356
G1 X134.981 Y85.489 E2.6476
G1 X134.875 Y85.661 E2.6585
G1 X134.738 Y85.810 E2.6694
G1 X134.560 Y85.945 E2.6814
G1 X134.508 Y85.974 E2.6846
G1 X134.280 Y86.062 E2.6978
G1 X134.222 Y86.076 E2.7010
G1 X133.958 Y86.100 E2.7153
G1 X96.042 Y86.100 E4.7583
G1 X95.799 Y86.077 E4.7715
G1 X95.604 Y86.022 E4.7824
G1 X95.423 Y85.932 E4.7933
G1 X95.261 Y85.810 E4.8042
G1 X95.125 Y85.661 E4.8151
G1 X95.019 Y85.489 E4.8260
G1 X94.947 Y85.303 E4.8367
G1 X94.907 Y85.082 E4.8488
G1 X94.900 Y77.041 E5.2820
G1 X94.923 Y76.799 E5.2952
G1 X94.984 Y76.584 E5.3072
G1 X95.016 Y76.510 E5.3115
G1 X95.055 Y76.440 E5.3159
G1 X95.190 Y76.262 E5.3279
; feature outer perimeter
G1 X94.745 Y75.856 F4800
G92 E0.0000
G1 X94.976 Y75.644 E0.0169 F600
G1 X95.243 Y75.479 E0.0338
G1 X95.542 Y75.364 E0.0510
G1 X95.681 Y75.331 E0.0588
G1 X96.014 Y75.300 E0.0768
G1 X133.986 Y75.300 E2.1228
G1 X134.312 Y75.330 E2.1404
G1 X134.614 Y75.416 E2.1573
G1 X134.894 Y75.556 E2.1742
G1 X135.144 Y75.745 E2.1911
G1 X135.356 Y75.976 E2.2080
G1 X135.521 Y76.243 E2.2249
G1 X135.636 Y76.542 E2.2421
G1 X135.669 Y76.681 E2.2498
G1 X135.700 Y77.014 E2.2679
G1 X135.700 Y84.986 E2.6974
G1 X135.669 Y85.319 E2.7154
G1 X135.636 Y85.458 E2.7231
G1 X135.521 Y85.757 E2.7404
G1 X135.356 Y86.024 E2.7573
G1 X135.144 Y86.255 E2.7742
G1 X134.889 Y86.448 E2.7915
G1 X134.764 Y86.518 E2.7992
G1 X134.458 Y86.636 E2.8168
G1 X134.319 Y86.669 E2.8245
G1 X133.986 Y86.700 E2.8425
G1 X96.014 Y86.700 E4.8885
G1 X95.688 Y86.670 E4.9062
G1 X95.386 Y86.584 E4.9231
G1 X95.106 Y86.444 E4.9400
G1 X94.856 Y86.255 E4.9568
G1 X94.644 Y86.024 E4.9737
G1 X94.479 Y85.757 E4.9906
G1 X94.367 Y85.466 E5.0075
G1 X94.307 Y85.136 E5.0255
G1 X94.300 Y77.014 E5.4632
G1 X94.330 Y76.688 E5.4808
G1 X94.418 Y76.380 E5.4981
G1 X94.479 Y76.242 E5.5061
G1 X94.552 Y76.111 E5.5142
G1 X94.745 Y75.856 E5.5315
; feature inner perimeter
G1 X102.142 Y79.692 F4800
G92 E0.0000
G1 X101.884 Y80.170 E0.0293 F900
G1 X101.707 Y80.684 E0.0585
G1 X101.648 Y80.968 E0.0742
G1 X101.597 Y81.534 E0.1048
G1 X101.643 Y82.097 E0.1353
G1 X101.777 Y82.624 E0.1645
G1 X101.892 Y82.921 E0.1817
G1 X102.151 Y83.399 E0.2110
G1 X102.485 Y83.827 E0.2402
G1 X102.710 Y84.053 E0.2574
G1 X103.139 Y84.386 E0.2867
G1 X103.633 Y84.654 E0.3170
G1 X104.165 Y84.836 E0.3472
G1 X104.719 Y84.929 E0.3775
G1 X105.262 Y84.929 E0.4068
G1 X105.560 Y84.892 E0.4230
G1 X105.853 Y84.830 E0.4391
G1 X106.367 Y84.654 E0.4684
G1 X106.861 Y84.386 E0.4987
G1 X107.290 Y84.053 E0.5279
G1 X107.515 Y83.827 E0.5451
G1 X107.849 Y83.399 E0.5744
G1 X108.116 Y82.904 E0.6047
G1 X108.293 Y82.390 E0.6339
G1 X108.358 Y82.079 E0.6511
G1 X108.403 Y81.537 E0.6804
G1 X108.357 Y80.977 E0.7106
G1 X108.223 Y80.450 E0.7399
G1 X108.108 Y80.154 E0.7571
G1 X107.858 Y79.692 E0.7853
G1 X107.673 Y79.433 E0.8025
G1 X107.305 Y79.034 E0.8318
G1 X106.861 Y78.688 E0.8621
G1 X106.367 Y78.421 E0.8923
G1 X105.835 Y78.238 E0.9226
G1 X105.281 Y78.146 E0.9529
G1 X104.738 Y78.146 E0.9822
G1 X104.422 Y78.185 E0.9993
G1 X103.895 Y78.319 E1.0286
G1 X103.397 Y78.537 E1.0579
G1 X103.124 Y78.700 E1.0750
G1 X102.695 Y79.034 E1.1043
G1 X102.327 Y79.433 E1.1336
G1 X102.142 Y79.692 E1.1508
; feature outer perimeter
G1 X102.652 Y80.011 F4800
G92 E0.0000
G1 X102.435 Y80.412 E0.0246 F600
G1 X102.287 Y80.844 E0.0492
G1 X102.242 Y81.057 E0.0609
G1 X102.199 Y81.536 E0.0868
G1 X102.237 Y81.998 E0.1118
G1 X102.349 Y82.441 E0.1364
G1 X102.438 Y82.668 E0.1496
G1 X102.655 Y83.069 E0.1741
G1 X102.935 Y83.429 E0.1987
G1 X103.108 Y83.602 E0.2119
G1 X103.468 Y83.882 E0.2365
G1 X103.875 Y84.102 E0.2614
G1 X104.312 Y84.253 E0.2863
G1 X104.769 Y84.329 E0.3112
G1 X105.225 Y84.329 E0.3358
G1 X105.461 Y84.299 E0.3486
G1 X105.693 Y84.251 E0.3615
G1 X106.125 Y84.102 E0.3860
G1 X106.532 Y83.882 E0.4110
G1 X106.892 Y83.602 E0.4356
G1 X107.065 Y83.429 E0.4487
G1 X107.345 Y83.069 E0.4733
G1 X107.565 Y82.662 E0.4982
G1 X107.713 Y82.231 E0.5228
G1 X107.763 Y81.992 E0.5359
G1 X107.801 Y81.537 E0.5605
G1 X107.763 Y81.076 E0.5855
G1 X107.651 Y80.634 E0.6101
G1 X107.562 Y80.407 E0.6232
G1 X107.348 Y80.011 E0.6474
G1 X107.206 Y79.812 E0.6606
G1 X106.897 Y79.477 E0.6852
G1 X106.532 Y79.192 E0.7101
G1 X106.125 Y78.972 E0.7350
G1 X105.688 Y78.822 E0.7600
G1 X105.231 Y78.746 E0.7849
G1 X104.775 Y78.746 E0.8095
G1 X104.533 Y78.776 E0.8226
G1 X104.091 Y78.888 E0.8472
G1 X103.673 Y79.071 E0.8718
G1 X103.463 Y79.196 E0.8849
G1 X103.103 Y79.477 E0.9095
G1 X102.794 Y79.812 E0.9341
G1 X102.652 Y80.011 E0.9473
G92 E0.0000
G1 E-4.0000 F2400
; feature inner perimeter
G1 X121.597 Y81.534 F4800
G1 E0.0000 F2400
G92 E0.0000
G1 X121.643 Y82.097 E0.0305 F900
G1 X121.777 Y82.624 E0.0597
G1 X121.892 Y82.921 E0.0769
G1 X122.151 Y83.399 E0.1062
G1 X122.485 Y83.827 E0.1354
G1 X122.710 Y84.052 E0.1526
G1 X123.139 Y84.386 E0.1819
G1 X123.633 Y84.654 E0.2122
G1 X124.165 Y84.836 E0.2424
G1 X124.719 Y84.929 E0.2727
G1 X125.262 Y84.929 E0.3020
G1 X125.578 Y84.889 E0.3192
G1 X126.105 Y84.756 E0.3484
G1 X126.603 Y84.538 E0.3777
G1 X126.876 Y84.375 E0.3949
G1 X127.305 Y84.041 E0.4241
G1 X127.685 Y83.628 E0.4544
G1 X127.983 Y83.173 E0.4837
G1 X128.123 Y82.887 E0.5009
G1 X128.293 Y82.390 E0.5291
G1 X128.358 Y82.079 E0.5463
G1 X128.403 Y81.537 E0.5756
G1 X128.357 Y80.977 E0.6058
G1 X128.219 Y80.432 E0.6361
G1 X127.993 Y79.918 E0.6664
G1 X127.686 Y79.447 E0.6967
G1 X127.317 Y79.047 E0.7260
G1 X127.075 Y78.842 E0.7431
G1 X126.620 Y78.544 E0.7724
G1 X126.122 Y78.326 E0.8017
G1 X125.817 Y78.235 E0.8188
G1 X125.281 Y78.146 E0.8481
G1 X124.738 Y78.146 E0.8774
G1 X124.422 Y78.185 E0.8945
G1 X123.895 Y78.319 E0.9238
G1 X123.397 Y78.537 E0.9531
G1 X123.124 Y78.700 E0.9702
G1 X122.695 Y79.034 E0.9995
G1 X122.327 Y79.433 E1.0288
G1 X122.142 Y79.692 E1.0459
G1 X121.884 Y80.170 E1.0752
G1 X121.707 Y80.684 E1.1045
G1 X121.648 Y80.968 E1.1201
G1 X121.597 Y81.534 E1.1508
; feature outer perimeter
G1 X122.199 Y81.536 F4800
G92 E0.0000
G1 X122.237 Y81.998 E0.0250 F600
G1 X122.349 Y82.441 E0.0496
G1 X122.438 Y82.668 E0.0627
G1 X122.655 Y83.069 E0.0873
G1 X122.935 Y83.429 E0.1119
G1 X123.108 Y83.602 E0.1250
G1 X123.468 Y83.882 E0.1496
G1 X123.875 Y84.102 E0.1746
G1 X124.312 Y84.253 E0.1995
G1 X124.769 Y84.329 E0.2244
G1 X125.225 Y84.329 E0.2490
G1 X125.467 Y84.299 E0.2621
G1 X125.909 Y84.187 E0.2867
G1 X126.327 Y84.003 E0.3113
G1 X126.537 Y83.878 E0.3245
G1 X126.897 Y83.598 E0.3490
G1 X127.210 Y83.258 E0.3740
G1 X127.460 Y82.876 E0.3986
G1 X127.567 Y82.657 E0.4117
G1 X127.713 Y82.231 E0.4360
G1 X127.763 Y81.992 E0.4491
G1 X127.801 Y81.537 E0.4737
G1 X127.763 Y81.076 E0.4986
G1 X127.649 Y80.628 E0.5235
G1 X127.463 Y80.204 E0.5485
G1 X127.210 Y79.817 E0.5734
G1 X126.901 Y79.481 E0.5980
G1 X126.715 Y79.323 E0.6111
G1 X126.333 Y79.074 E0.6357
G1 X125.915 Y78.891 E0.6603
G1 X125.681 Y78.821 E0.6734
G1 X125.231 Y78.746 E0.6980
G1 X124.775 Y78.746 E0.7226
G1 X124.533 Y78.776 E0.7358
G1 X124.090 Y78.888 E0.7604
G1 X123.673 Y79.071 E0.7850
G1 X123.463 Y79.196 E0.7981
G1 X123.103 Y79.477 E0.8227
G1 X122.794 Y79.812 E0.8473
G1 X122.652 Y80.011 E0.8604
G1 X122.435 Y80.412 E0.8850
G1 X122.287 Y80.844 E0.9096
G1 X122.242 Y81.057 E0.9213
G1 X122.199 Y81.536 E0.9473
; feature solid layer
G1 X123.163 Y84.979 F4800
G92 E0.0000
G1 X123.774 Y85.590 E0.0465 F960
G1 X124.622 Y85.590 E0.0922
G1 X124.430 Y85.398 E0.1069
G1 X124.677 Y85.439 E0.1204
G1 X125.294 Y85.439 E0.1537
G1 X125.317 Y85.436 E0.1549
G1 X125.471 Y85.590 E0.1666
G1 X126.319 Y85.590 E0.2123
G1 X126.030 Y85.301 E0.2344
G1 X126.271 Y85.240 E0.2478
G1 X126.651 Y85.073 E0.2701
G1 X127.168 Y85.590 E0.3095
G1 X128.016 Y85.590 E0.3552
G1 X127.197 Y84.771 E0.4176
G1 X127.651 Y84.418 E0.4486
G1 X127.671 Y84.396 E0.4502
G1 X128.865 Y85.590 E0.5412
G1 X129.713 Y85.590 E0.5869
G1 X128.078 Y83.954 E0.7115
G1 X128.089 Y83.942 E0.7124
G1 X128.415 Y83.443 E0.7445
G1 X130.562 Y85.590 E0.9081
G1 X131.411 Y85.590 E0.9538
G1 X128.673 Y82.853 E1.1624
G1 X128.786 Y82.526 E1.1810
G1 X128.857 Y82.187 E1.1997
G1 X132.259 Y85.590 E1.4589
G1 X133.108 Y85.590 E1.5047
G1 X128.902 Y81.385 E1.8251
G1 X134.133 Y76.433 F4800
G92 E0.0000
G1 X134.572 Y76.872 E0.0334 F960
G1 X134.590 Y77.065 E0.0439
G1 X134.590 Y77.739 E0.0802
G1 X133.261 Y76.410 E0.1814
G1 X132.413 Y76.410 E0.2271
G1 X134.590 Y78.587 E0.3930
G1 X134.590 Y79.436 E0.4387
G1 X131.564 Y76.410 E0.6693
G1 X130.716 Y76.410 E0.7150
G1 X134.590 Y80.284 E1.0102
G1 X134.590 Y81.133 E1.0559
G1 X129.867 Y76.410 E1.4158
G1 X129.019 Y76.410 E1.4615
G1 X134.590 Y81.981 E1.8861
G1 X134.590 Y82.830 E1.9318
G1 X128.170 Y76.410 E2.4210
G1 X127.322 Y76.410 E2.4667
G1 X134.590 Y83.678 E3.0205
G1 X134.590 Y84.527 E3.0663
G1 X126.473 Y76.410 E3.6848
G1 X125.625 Y76.410 E3.7305
G1 X134.504 Y85.290 E4.4071
G1 X134.466 Y85.352 E4.4111
G1 X134.393 Y85.432 E4.4169
G1 X134.286 Y85.513 E4.4241
G1 X134.134 Y85.572 E4.4329
G1 X133.954 Y85.588 E4.4426
G1 X128.727 Y80.361 E4.8410
G1 X128.703 Y80.266 E4.8462
G1 X128.443 Y79.674 E4.8811
G1 X128.089 Y79.133 E4.9159
G1 X127.671 Y78.679 E4.9491
G1 X127.380 Y78.432 E4.9697
G1 X126.863 Y78.094 E5.0030
G1 X126.298 Y77.846 E5.0362
G1 X126.176 Y77.810 E5.0431
G1 X124.776 Y76.410 E5.1498
G1 X123.928 Y76.410 E5.1955
G1 X125.153 Y77.636 E5.2889
G1 X124.706 Y77.636 E5.3130
G1 X124.349 Y77.680 E5.3324
G1 X123.079 Y76.410 E5.4292
G1 X122.231 Y76.410 E5.4749
G1 X123.678 Y77.857 E5.5852
G1 X123.164 Y78.083 E5.6154
G1 X123.095 Y78.123 E5.6197
G1 X121.382 Y76.410 E5.7502
G1 X120.533 Y76.410 E5.7959
G1 X122.591 Y78.468 E5.9528
G1 X122.349 Y78.657 E5.9694
